( pcb2gcode 2.5.0 )
( Software-independent Gcode )

G94 ( Millimeters per minute feed rate. )
G21 ( Units == Millimeters. )

G90 ( Absolute coordinates. )
G00 S10000 ( RPM spindle speed. )
G01 F50.00000 ( Feedrate. )


G00 Z0.50000 (Retract to tool change height)
T1
M5      (Spindle stop.)
G04 P1.00000 (Wait for spindle to stop)
(MSG, Change tool bit to mill diameter 0.50000mm)
M3 ( Spindle on clockwise. )
G04 P1.00000 (Wait for spindle to get up to speed)
G04 P0 ( dwell for no time -- G64 should not smooth over this point )
G00 Z0.50000 ( retract )

G00 X6.25021 Y15.63902 ( rapid move to begin. )
G01 F10.00000
( Mill infeed pass 1/5 )
G01 Z-0.03000
G04 P0 ( dwell for no time -- G64 should not smooth over this point )
G01 F50.00000
G01 X6.25021 Y15.63902
G01 X6.25217 Y15.58885
G01 X6.27704 Y15.45957
G01 X6.33444 Y15.31763
G01 X6.40688 Y15.20773
G01 X6.47734 Y15.13272
G01 X6.51420 Y15.09858
G01 X6.62443 Y15.02408
G01 X6.76403 Y14.96467
G01 X6.90373 Y14.93663
G01 X7.41082 Y14.93544
G01 X7.58585 Y14.96488
G01 X7.71770 Y15.01888
G01 X7.83568 Y15.09868
G01 X7.93688 Y15.19886
G01 X8.01511 Y15.31786
G01 X8.06896 Y15.44951
G01 X8.09654 Y15.58895
G01 X8.09827 Y15.72469
G01 X8.07066 Y15.87110
G01 X8.01508 Y16.00216
G01 X7.98039 Y16.05832
G01 X7.93535 Y16.11992
G01 X7.86306 Y16.19629
G01 X7.71732 Y16.30051
G01 X7.58597 Y16.35563
G01 X7.44620 Y16.38344
G01 X6.90381 Y16.38276
G01 X6.76441 Y16.35416
G01 X6.63294 Y16.29990
G01 X6.51473 Y16.22083
G01 X6.42654 Y16.13539
G01 X6.33972 Y16.01181
G01 X6.28328 Y15.88111
G01 X6.25344 Y15.74189
G01 X6.25021 Y15.63902
( Mill infeed pass 2/5 )
G01 Z-0.06000
G04 P0 ( dwell for no time -- G64 should not smooth over this point )
G01 F50.00000
G01 X6.25021 Y15.63902
G01 X6.25217 Y15.58885
G01 X6.27704 Y15.45957
G01 X6.33444 Y15.31763
G01 X6.40688 Y15.20773
G01 X6.47734 Y15.13272
G01 X6.51420 Y15.09858
G01 X6.62443 Y15.02408
G01 X6.76403 Y14.96467
G01 X6.90373 Y14.93663
G01 X7.41082 Y14.93544
G01 X7.58585 Y14.96488
G01 X7.71770 Y15.01888
G01 X7.83568 Y15.09868
G01 X7.93688 Y15.19886
G01 X8.01511 Y15.31786
G01 X8.06896 Y15.44951
G01 X8.09654 Y15.58895
G01 X8.09827 Y15.72469
G01 X8.07066 Y15.87110
G01 X8.01508 Y16.00216
G01 X7.98039 Y16.05832
G01 X7.93535 Y16.11992
G01 X7.86306 Y16.19629
G01 X7.71732 Y16.30051
G01 X7.58597 Y16.35563
G01 X7.44620 Y16.38344
G01 X6.90381 Y16.38276
G01 X6.76441 Y16.35416
G01 X6.63294 Y16.29990
G01 X6.51473 Y16.22083
G01 X6.42654 Y16.13539
G01 X6.33972 Y16.01181
G01 X6.28328 Y15.88111
G01 X6.25344 Y15.74189
G01 X6.25021 Y15.63902
( Mill infeed pass 3/5 )
G01 Z-0.09000
G04 P0 ( dwell for no time -- G64 should not smooth over this point )
G01 F50.00000
G01 X6.25021 Y15.63902
G01 X6.25217 Y15.58885
G01 X6.27704 Y15.45957
G01 X6.33444 Y15.31763
G01 X6.40688 Y15.20773
G01 X6.47734 Y15.13272
G01 X6.51420 Y15.09858
G01 X6.62443 Y15.02408
G01 X6.76403 Y14.96467
G01 X6.90373 Y14.93663
G01 X7.41082 Y14.93544
G01 X7.58585 Y14.96488
G01 X7.71770 Y15.01888
G01 X7.83568 Y15.09868
G01 X7.93688 Y15.19886
G01 X8.01511 Y15.31786
G01 X8.06896 Y15.44951
G01 X8.09654 Y15.58895
G01 X8.09827 Y15.72469
G01 X8.07066 Y15.87110
G01 X8.01508 Y16.00216
G01 X7.98039 Y16.05832
G01 X7.93535 Y16.11992
G01 X7.86306 Y16.19629
G01 X7.71732 Y16.30051
G01 X7.58597 Y16.35563
G01 X7.44620 Y16.38344
G01 X6.90381 Y16.38276
G01 X6.76441 Y16.35416
G01 X6.63294 Y16.29990
G01 X6.51473 Y16.22083
G01 X6.42654 Y16.13539
G01 X6.33972 Y16.01181
G01 X6.28328 Y15.88111
G01 X6.25344 Y15.74189
G01 X6.25021 Y15.63902
( Mill infeed pass 4/5 )
G01 Z-0.12000
G04 P0 ( dwell for no time -- G64 should not smooth over this point )
G01 F50.00000
G01 X6.25021 Y15.63902
G01 X6.25217 Y15.58885
G01 X6.27704 Y15.45957
G01 X6.33444 Y15.31763
G01 X6.40688 Y15.20773
G01 X6.47734 Y15.13272
G01 X6.51420 Y15.09858
G01 X6.62443 Y15.02408
G01 X6.76403 Y14.96467
G01 X6.90373 Y14.93663
G01 X7.41082 Y14.93544
G01 X7.58585 Y14.96488
G01 X7.71770 Y15.01888
G01 X7.83568 Y15.09868
G01 X7.93688 Y15.19886
G01 X8.01511 Y15.31786
G01 X8.06896 Y15.44951
G01 X8.09654 Y15.58895
G01 X8.09827 Y15.72469
G01 X8.07066 Y15.87110
G01 X8.01508 Y16.00216
G01 X7.98039 Y16.05832
G01 X7.93535 Y16.11992
G01 X7.86306 Y16.19629
G01 X7.71732 Y16.30051
G01 X7.58597 Y16.35563
G01 X7.44620 Y16.38344
G01 X6.90381 Y16.38276
G01 X6.76441 Y16.35416
G01 X6.63294 Y16.29990
G01 X6.51473 Y16.22083
G01 X6.42654 Y16.13539
G01 X6.33972 Y16.01181
G01 X6.28328 Y15.88111
G01 X6.25344 Y15.74189
G01 X6.25021 Y15.63902
( Mill infeed pass 5/5 )
G01 Z-0.15000
G04 P0 ( dwell for no time -- G64 should not smooth over this point )
G01 F50.00000
G01 X6.25021 Y15.63902
G01 X6.25217 Y15.58885
G01 X6.27704 Y15.45957
G01 X6.33444 Y15.31763
G01 X6.40688 Y15.20773
G01 X6.47734 Y15.13272
G01 X6.51420 Y15.09858
G01 X6.62443 Y15.02408
G01 X6.76403 Y14.96467
G01 X6.90373 Y14.93663
G01 X7.41082 Y14.93544
G01 X7.58585 Y14.96488
G01 X7.71770 Y15.01888
G01 X7.83568 Y15.09868
G01 X7.93688 Y15.19886
G01 X8.01511 Y15.31786
G01 X8.06896 Y15.44951
G01 X8.09654 Y15.58895
G01 X8.09827 Y15.72469
G01 X8.07066 Y15.87110
G01 X8.01508 Y16.00216
G01 X7.98039 Y16.05832
G01 X7.93535 Y16.11992
G01 X7.86306 Y16.19629
G01 X7.71732 Y16.30051
G01 X7.58597 Y16.35563
G01 X7.44620 Y16.38344
G01 X6.90381 Y16.38276
G01 X6.76441 Y16.35416
G01 X6.63294 Y16.29990
G01 X6.51473 Y16.22083
G01 X6.42654 Y16.13539
G01 X6.33972 Y16.01181
G01 X6.28328 Y15.88111
G01 X6.25344 Y15.74189
G01 X6.25021 Y15.63902
G04 P0 ( dwell for no time -- G64 should not smooth over this point )
G00 Z0.50000 ( retract )

G00 X4.55847 Y15.16381 ( rapid move to begin. )
G01 F10.00000
( Mill infeed pass 1/5 )
G01 Z-0.03000
G04 P0 ( dwell for no time -- G64 should not smooth over this point )
G01 F50.00000
G01 X4.55847 Y15.16381
G01 X4.70912 Y15.19104
G01 X4.67691 Y15.08748
G01 X4.68494 Y15.05436
G01 X4.67709 Y15.07854
G01 X4.61313 Y15.13313
G01 X4.55847 Y15.16381
G01 X4.50114 Y15.17638
G01 X4.30775 Y15.19741
G01 X3.78250 Y15.19752
G01 X3.58474 Y15.21215
G01 X3.46137 Y15.23493
G01 X3.43429 Y15.24626
G01 X3.28149 Y15.34702
G01 X3.25220 Y15.21573
G01 X3.28149 Y15.34702
G01 X3.20493 Y15.48967
G01 X3.13173 Y15.60554
G01 X3.07529 Y15.74171
G01 X3.04654 Y15.88631
G01 X3.04656 Y16.03373
G01 X3.07529 Y16.17834
G01 X3.13302 Y16.31385
G01 X3.21524 Y16.43577
G01 X3.29183 Y16.51641
G01 X3.44067 Y16.62291
G01 X3.57661 Y16.67902
G01 X3.72142 Y16.70689
G01 X4.50968 Y16.71001
G01 X4.59025 Y16.70490
G01 X4.71329 Y16.67971
G01 X4.84912 Y16.62261
G01 X4.89601 Y16.59355
G01 X5.00424 Y16.51054
G01 X5.07485 Y16.43592
G01 X5.14618 Y16.33323
G01 X5.20267 Y16.20910
G01 X5.24295 Y16.03368
G01 X5.24163 Y15.88649
G01 X5.22789 Y15.80191
G01 X5.18943 Y15.67747
G01 X5.15679 Y15.60628
G01 X5.07617 Y15.48306
G01 X4.97188 Y15.37892
G01 X4.79281 Y15.25840
G01 X4.70856 Y15.19056
G01 X4.67902 Y15.09724
G01 X4.67595 Y15.08200
G01 X4.68494 Y15.05436
G01 X4.77137 Y14.83899
G01 X4.79345 Y14.73252
G01 X4.79396 Y13.73755
G01 X4.75278 Y13.57903
G01 X4.68248 Y13.46544
G01 X4.54547 Y13.29650
G01 X4.54186 Y13.17679
G01 X4.58484 Y13.11931
G01 X4.54186 Y13.17679
G01 X4.54547 Y13.29650
G01 X4.41583 Y13.24850
G01 X4.29718 Y13.23504
G01 X3.35731 Y13.23651
G01 X3.20404 Y13.27131
G01 X3.14793 Y13.29406
G01 X3.14433 Y13.17303
G01 X3.25850 Y13.21766
G01 X3.37145 Y13.23440
G01 X4.34664 Y13.23173
G01 X4.47356 Y13.20511
G01 X4.54676 Y13.17024
G01 X4.66175 Y13.02980
G01 X4.75314 Y12.88876
G01 X4.78857 Y12.77237
G01 X4.79512 Y12.69511
G01 X4.79396 Y11.73753
G01 X4.76566 Y11.61881
G01 X4.67950 Y11.39282
G01 X4.69015 Y11.32328
G01 X4.70848 Y11.27837
G01 X4.97084 Y11.08988
G01 X5.07485 Y10.98592
G01 X5.14615 Y10.88325
G01 X5.20267 Y10.75912
G01 X5.24295 Y10.58368
G01 X5.24163 Y10.43649
G01 X5.22789 Y10.35193
G01 X5.18943 Y10.22747
G01 X5.15679 Y10.15630
G01 X5.07617 Y10.03306
G01 X5.00490 Y9.95976
G01 X4.97170 Y9.92915
G01 X4.84915 Y9.84739
G01 X4.71306 Y9.79107
G01 X4.56863 Y9.76217
G01 X3.72131 Y9.76219
G01 X3.57666 Y9.79034
G01 X3.46152 Y9.83738
G01 X3.31789 Y9.92874
G01 X3.21367 Y10.03301
G01 X3.14522 Y10.13413
G01 X3.07534 Y10.29176
G01 X3.04654 Y10.43634
G01 X3.04913 Y10.59824
G01 X3.07529 Y10.72833
G01 X3.13269 Y10.86402
G01 X3.20475 Y10.97604
G01 X3.28014 Y11.12000
G01 X3.26142 Y11.23194
G01 X3.24735 Y11.25963
G01 X3.26142 Y11.23194
G01 X3.27874 Y11.13430
G01 X3.26940 Y11.09623
G01 X3.27918 Y11.11779
G01 X3.41842 Y11.21500
G01 X3.46945 Y11.23621
G01 X3.62218 Y11.26267
G01 X3.78250 Y11.27286
G01 X4.32103 Y11.27316
G01 X4.42652 Y11.28129
G01 X4.56167 Y11.30578
G01 X4.70536 Y11.28119
G01 X4.68783 Y11.33321
G01 X4.67950 Y11.39282
G01 X4.61859 Y11.34032
G01 X4.56167 Y11.30578
G01 X4.42652 Y11.28129
G01 X4.29723 Y11.27253
G01 X3.75240 Y11.27177
G01 X3.62218 Y11.26267
G01 X3.46945 Y11.23621
G01 X3.32020 Y11.24075
G01 X3.24735 Y11.25963
G01 X3.07112 Y11.40392
G01 X2.99172 Y11.48777
G01 X2.93729 Y11.57906
G01 X2.92502 Y11.61363
G01 X2.90041 Y11.69752
G01 X2.89515 Y11.76625
G01 X2.89586 Y12.73252
G01 X2.93711 Y12.89107
G01 X3.00783 Y13.00448
G01 X3.14433 Y13.17303
G01 X3.15012 Y13.26346
G01 X3.14793 Y13.29406
G01 X3.02893 Y13.43930
G01 X2.93976 Y13.57540
G01 X2.90041 Y13.69752
G01 X2.89472 Y13.78530
G01 X2.89985 Y14.76155
G01 X2.93714 Y14.89109
G01 X2.95472 Y14.92139
G01 X3.00013 Y14.99241
G01 X3.08375 Y15.07712
G01 X3.25220 Y15.21573
G01 X3.36350 Y15.23379
G01 X3.46137 Y15.23493
( Mill infeed pass 2/5 )
G00 Z0.50000 ( retract )
G00 X4.55847 Y15.16381 ( rapid move to begin. )
G01 Z-0.06000
G04 P0 ( dwell for no time -- G64 should not smooth over this point )
G01 F50.00000
G01 X4.55847 Y15.16381
G01 X4.70912 Y15.19104
G01 X4.67691 Y15.08748
G01 X4.68494 Y15.05436
G01 X4.67709 Y15.07854
G01 X4.61313 Y15.13313
G01 X4.55847 Y15.16381
G01 X4.50114 Y15.17638
G01 X4.30775 Y15.19741
G01 X3.78250 Y15.19752
G01 X3.58474 Y15.21215
G01 X3.46137 Y15.23493
G01 X3.43429 Y15.24626
G01 X3.28149 Y15.34702
G01 X3.25220 Y15.21573
G01 X3.28149 Y15.34702
G01 X3.20493 Y15.48967
G01 X3.13173 Y15.60554
G01 X3.07529 Y15.74171
G01 X3.04654 Y15.88631
G01 X3.04656 Y16.03373
G01 X3.07529 Y16.17834
G01 X3.13302 Y16.31385
G01 X3.21524 Y16.43577
G01 X3.29183 Y16.51641
G01 X3.44067 Y16.62291
G01 X3.57661 Y16.67902
G01 X3.72142 Y16.70689
G01 X4.50968 Y16.71001
G01 X4.59025 Y16.70490
G01 X4.71329 Y16.67971
G01 X4.84912 Y16.62261
G01 X4.89601 Y16.59355
G01 X5.00424 Y16.51054
G01 X5.07485 Y16.43592
G01 X5.14618 Y16.33323
G01 X5.20267 Y16.20910
G01 X5.24295 Y16.03368
G01 X5.24163 Y15.88649
G01 X5.22789 Y15.80191
G01 X5.18943 Y15.67747
G01 X5.15679 Y15.60628
G01 X5.07617 Y15.48306
G01 X4.97188 Y15.37892
G01 X4.79281 Y15.25840
G01 X4.70856 Y15.19056
G01 X4.67902 Y15.09724
G01 X4.67595 Y15.08200
G01 X4.68494 Y15.05436
G01 X4.77137 Y14.83899
G01 X4.79345 Y14.73252
G01 X4.79396 Y13.73755
G01 X4.75278 Y13.57903
G01 X4.68248 Y13.46544
G01 X4.54547 Y13.29650
G01 X4.54186 Y13.17679
G01 X4.58484 Y13.11931
G01 X4.54186 Y13.17679
G01 X4.54547 Y13.29650
G01 X4.41583 Y13.24850
G01 X4.29718 Y13.23504
G01 X3.35731 Y13.23651
G01 X3.20404 Y13.27131
G01 X3.14793 Y13.29406
G01 X3.14433 Y13.17303
G01 X3.25850 Y13.21766
G01 X3.37145 Y13.23440
G01 X4.34664 Y13.23173
G01 X4.47356 Y13.20511
G01 X4.54676 Y13.17024
G01 X4.66175 Y13.02980
G01 X4.75314 Y12.88876
G01 X4.78857 Y12.77237
G01 X4.79512 Y12.69511
G01 X4.79396 Y11.73753
G01 X4.76566 Y11.61881
G01 X4.67950 Y11.39282
G01 X4.69015 Y11.32328
G01 X4.70848 Y11.27837
G01 X4.97084 Y11.08988
G01 X5.07485 Y10.98592
G01 X5.14615 Y10.88325
G01 X5.20267 Y10.75912
G01 X5.24295 Y10.58368
G01 X5.24163 Y10.43649
G01 X5.22789 Y10.35193
G01 X5.18943 Y10.22747
G01 X5.15679 Y10.15630
G01 X5.07617 Y10.03306
G01 X5.00490 Y9.95976
G01 X4.97170 Y9.92915
G01 X4.84915 Y9.84739
G01 X4.71306 Y9.79107
G01 X4.56863 Y9.76217
G01 X3.72131 Y9.76219
G01 X3.57666 Y9.79034
G01 X3.46152 Y9.83738
G01 X3.31789 Y9.92874
G01 X3.21367 Y10.03301
G01 X3.14522 Y10.13413
G01 X3.07534 Y10.29176
G01 X3.04654 Y10.43634
G01 X3.04913 Y10.59824
G01 X3.07529 Y10.72833
G01 X3.13269 Y10.86402
G01 X3.20475 Y10.97604
G01 X3.28014 Y11.12000
G01 X3.26142 Y11.23194
G01 X3.24735 Y11.25963
G01 X3.26142 Y11.23194
G01 X3.27874 Y11.13430
G01 X3.26940 Y11.09623
G01 X3.27918 Y11.11779
G01 X3.41842 Y11.21500
G01 X3.46945 Y11.23621
G01 X3.62218 Y11.26267
G01 X3.78250 Y11.27286
G01 X4.32103 Y11.27316
G01 X4.42652 Y11.28129
G01 X4.56167 Y11.30578
G01 X4.70536 Y11.28119
G01 X4.68783 Y11.33321
G01 X4.67950 Y11.39282
G01 X4.61859 Y11.34032
G01 X4.56167 Y11.30578
G01 X4.42652 Y11.28129
G01 X4.29723 Y11.27253
G01 X3.75240 Y11.27177
G01 X3.62218 Y11.26267
G01 X3.46945 Y11.23621
G01 X3.32020 Y11.24075
G01 X3.24735 Y11.25963
G01 X3.07112 Y11.40392
G01 X2.99172 Y11.48777
G01 X2.93729 Y11.57906
G01 X2.92502 Y11.61363
G01 X2.90041 Y11.69752
G01 X2.89515 Y11.76625
G01 X2.89586 Y12.73252
G01 X2.93711 Y12.89107
G01 X3.00783 Y13.00448
G01 X3.14433 Y13.17303
G01 X3.15012 Y13.26346
G01 X3.14793 Y13.29406
G01 X3.02893 Y13.43930
G01 X2.93976 Y13.57540
G01 X2.90041 Y13.69752
G01 X2.89472 Y13.78530
G01 X2.89985 Y14.76155
G01 X2.93714 Y14.89109
G01 X2.95472 Y14.92139
G01 X3.00013 Y14.99241
G01 X3.08375 Y15.07712
G01 X3.25220 Y15.21573
G01 X3.36350 Y15.23379
G01 X3.46137 Y15.23493
( Mill infeed pass 3/5 )
G00 Z0.50000 ( retract )
G00 X4.55847 Y15.16381 ( rapid move to begin. )
G01 Z-0.09000
G04 P0 ( dwell for no time -- G64 should not smooth over this point )
G01 F50.00000
G01 X4.55847 Y15.16381
G01 X4.70912 Y15.19104
G01 X4.67691 Y15.08748
G01 X4.68494 Y15.05436
G01 X4.67709 Y15.07854
G01 X4.61313 Y15.13313
G01 X4.55847 Y15.16381
G01 X4.50114 Y15.17638
G01 X4.30775 Y15.19741
G01 X3.78250 Y15.19752
G01 X3.58474 Y15.21215
G01 X3.46137 Y15.23493
G01 X3.43429 Y15.24626
G01 X3.28149 Y15.34702
G01 X3.25220 Y15.21573
G01 X3.28149 Y15.34702
G01 X3.20493 Y15.48967
G01 X3.13173 Y15.60554
G01 X3.07529 Y15.74171
G01 X3.04654 Y15.88631
G01 X3.04656 Y16.03373
G01 X3.07529 Y16.17834
G01 X3.13302 Y16.31385
G01 X3.21524 Y16.43577
G01 X3.29183 Y16.51641
G01 X3.44067 Y16.62291
G01 X3.57661 Y16.67902
G01 X3.72142 Y16.70689
G01 X4.50968 Y16.71001
G01 X4.59025 Y16.70490
G01 X4.71329 Y16.67971
G01 X4.84912 Y16.62261
G01 X4.89601 Y16.59355
G01 X5.00424 Y16.51054
G01 X5.07485 Y16.43592
G01 X5.14618 Y16.33323
G01 X5.20267 Y16.20910
G01 X5.24295 Y16.03368
G01 X5.24163 Y15.88649
G01 X5.22789 Y15.80191
G01 X5.18943 Y15.67747
G01 X5.15679 Y15.60628
G01 X5.07617 Y15.48306
G01 X4.97188 Y15.37892
G01 X4.79281 Y15.25840
G01 X4.70856 Y15.19056
G01 X4.67902 Y15.09724
G01 X4.67595 Y15.08200
G01 X4.68494 Y15.05436
G01 X4.77137 Y14.83899
G01 X4.79345 Y14.73252
G01 X4.79396 Y13.73755
G01 X4.75278 Y13.57903
G01 X4.68248 Y13.46544
G01 X4.54547 Y13.29650
G01 X4.54186 Y13.17679
G01 X4.58484 Y13.11931
G01 X4.54186 Y13.17679
G01 X4.54547 Y13.29650
G01 X4.41583 Y13.24850
G01 X4.29718 Y13.23504
G01 X3.35731 Y13.23651
G01 X3.20404 Y13.27131
G01 X3.14793 Y13.29406
G01 X3.14433 Y13.17303
G01 X3.25850 Y13.21766
G01 X3.37145 Y13.23440
G01 X4.34664 Y13.23173
G01 X4.47356 Y13.20511
G01 X4.54676 Y13.17024
G01 X4.66175 Y13.02980
G01 X4.75314 Y12.88876
G01 X4.78857 Y12.77237
G01 X4.79512 Y12.69511
G01 X4.79396 Y11.73753
G01 X4.76566 Y11.61881
G01 X4.67950 Y11.39282
G01 X4.69015 Y11.32328
G01 X4.70848 Y11.27837
G01 X4.97084 Y11.08988
G01 X5.07485 Y10.98592
G01 X5.14615 Y10.88325
G01 X5.20267 Y10.75912
G01 X5.24295 Y10.58368
G01 X5.24163 Y10.43649
G01 X5.22789 Y10.35193
G01 X5.18943 Y10.22747
G01 X5.15679 Y10.15630
G01 X5.07617 Y10.03306
G01 X5.00490 Y9.95976
G01 X4.97170 Y9.92915
G01 X4.84915 Y9.84739
G01 X4.71306 Y9.79107
G01 X4.56863 Y9.76217
G01 X3.72131 Y9.76219
G01 X3.57666 Y9.79034
G01 X3.46152 Y9.83738
G01 X3.31789 Y9.92874
G01 X3.21367 Y10.03301
G01 X3.14522 Y10.13413
G01 X3.07534 Y10.29176
G01 X3.04654 Y10.43634
G01 X3.04913 Y10.59824
G01 X3.07529 Y10.72833
G01 X3.13269 Y10.86402
G01 X3.20475 Y10.97604
G01 X3.28014 Y11.12000
G01 X3.26142 Y11.23194
G01 X3.24735 Y11.25963
G01 X3.26142 Y11.23194
G01 X3.27874 Y11.13430
G01 X3.26940 Y11.09623
G01 X3.27918 Y11.11779
G01 X3.41842 Y11.21500
G01 X3.46945 Y11.23621
G01 X3.62218 Y11.26267
G01 X3.78250 Y11.27286
G01 X4.32103 Y11.27316
G01 X4.42652 Y11.28129
G01 X4.56167 Y11.30578
G01 X4.70536 Y11.28119
G01 X4.68783 Y11.33321
G01 X4.67950 Y11.39282
G01 X4.61859 Y11.34032
G01 X4.56167 Y11.30578
G01 X4.42652 Y11.28129
G01 X4.29723 Y11.27253
G01 X3.75240 Y11.27177
G01 X3.62218 Y11.26267
G01 X3.46945 Y11.23621
G01 X3.32020 Y11.24075
G01 X3.24735 Y11.25963
G01 X3.07112 Y11.40392
G01 X2.99172 Y11.48777
G01 X2.93729 Y11.57906
G01 X2.92502 Y11.61363
G01 X2.90041 Y11.69752
G01 X2.89515 Y11.76625
G01 X2.89586 Y12.73252
G01 X2.93711 Y12.89107
G01 X3.00783 Y13.00448
G01 X3.14433 Y13.17303
G01 X3.15012 Y13.26346
G01 X3.14793 Y13.29406
G01 X3.02893 Y13.43930
G01 X2.93976 Y13.57540
G01 X2.90041 Y13.69752
G01 X2.89472 Y13.78530
G01 X2.89985 Y14.76155
G01 X2.93714 Y14.89109
G01 X2.95472 Y14.92139
G01 X3.00013 Y14.99241
G01 X3.08375 Y15.07712
G01 X3.25220 Y15.21573
G01 X3.36350 Y15.23379
G01 X3.46137 Y15.23493
( Mill infeed pass 4/5 )
G00 Z0.50000 ( retract )
G00 X4.55847 Y15.16381 ( rapid move to begin. )
G01 Z-0.12000
G04 P0 ( dwell for no time -- G64 should not smooth over this point )
G01 F50.00000
G01 X4.55847 Y15.16381
G01 X4.70912 Y15.19104
G01 X4.67691 Y15.08748
G01 X4.68494 Y15.05436
G01 X4.67709 Y15.07854
G01 X4.61313 Y15.13313
G01 X4.55847 Y15.16381
G01 X4.50114 Y15.17638
G01 X4.30775 Y15.19741
G01 X3.78250 Y15.19752
G01 X3.58474 Y15.21215
G01 X3.46137 Y15.23493
G01 X3.43429 Y15.24626
G01 X3.28149 Y15.34702
G01 X3.25220 Y15.21573
G01 X3.28149 Y15.34702
G01 X3.20493 Y15.48967
G01 X3.13173 Y15.60554
G01 X3.07529 Y15.74171
G01 X3.04654 Y15.88631
G01 X3.04656 Y16.03373
G01 X3.07529 Y16.17834
G01 X3.13302 Y16.31385
G01 X3.21524 Y16.43577
G01 X3.29183 Y16.51641
G01 X3.44067 Y16.62291
G01 X3.57661 Y16.67902
G01 X3.72142 Y16.70689
G01 X4.50968 Y16.71001
G01 X4.59025 Y16.70490
G01 X4.71329 Y16.67971
G01 X4.84912 Y16.62261
G01 X4.89601 Y16.59355
G01 X5.00424 Y16.51054
G01 X5.07485 Y16.43592
G01 X5.14618 Y16.33323
G01 X5.20267 Y16.20910
G01 X5.24295 Y16.03368
G01 X5.24163 Y15.88649
G01 X5.22789 Y15.80191
G01 X5.18943 Y15.67747
G01 X5.15679 Y15.60628
G01 X5.07617 Y15.48306
G01 X4.97188 Y15.37892
G01 X4.79281 Y15.25840
G01 X4.70856 Y15.19056
G01 X4.67902 Y15.09724
G01 X4.67595 Y15.08200
G01 X4.68494 Y15.05436
G01 X4.77137 Y14.83899
G01 X4.79345 Y14.73252
G01 X4.79396 Y13.73755
G01 X4.75278 Y13.57903
G01 X4.68248 Y13.46544
G01 X4.54547 Y13.29650
G01 X4.54186 Y13.17679
G01 X4.58484 Y13.11931
G01 X4.54186 Y13.17679
G01 X4.54547 Y13.29650
G01 X4.41583 Y13.24850
G01 X4.29718 Y13.23504
G01 X3.35731 Y13.23651
G01 X3.20404 Y13.27131
G01 X3.14793 Y13.29406
G01 X3.14433 Y13.17303
G01 X3.25850 Y13.21766
G01 X3.37145 Y13.23440
G01 X4.34664 Y13.23173
G01 X4.47356 Y13.20511
G01 X4.54676 Y13.17024
G01 X4.66175 Y13.02980
G01 X4.75314 Y12.88876
G01 X4.78857 Y12.77237
G01 X4.79512 Y12.69511
G01 X4.79396 Y11.73753
G01 X4.76566 Y11.61881
G01 X4.67950 Y11.39282
G01 X4.69015 Y11.32328
G01 X4.70848 Y11.27837
G01 X4.97084 Y11.08988
G01 X5.07485 Y10.98592
G01 X5.14615 Y10.88325
G01 X5.20267 Y10.75912
G01 X5.24295 Y10.58368
G01 X5.24163 Y10.43649
G01 X5.22789 Y10.35193
G01 X5.18943 Y10.22747
G01 X5.15679 Y10.15630
G01 X5.07617 Y10.03306
G01 X5.00490 Y9.95976
G01 X4.97170 Y9.92915
G01 X4.84915 Y9.84739
G01 X4.71306 Y9.79107
G01 X4.56863 Y9.76217
G01 X3.72131 Y9.76219
G01 X3.57666 Y9.79034
G01 X3.46152 Y9.83738
G01 X3.31789 Y9.92874
G01 X3.21367 Y10.03301
G01 X3.14522 Y10.13413
G01 X3.07534 Y10.29176
G01 X3.04654 Y10.43634
G01 X3.04913 Y10.59824
G01 X3.07529 Y10.72833
G01 X3.13269 Y10.86402
G01 X3.20475 Y10.97604
G01 X3.28014 Y11.12000
G01 X3.26142 Y11.23194
G01 X3.24735 Y11.25963
G01 X3.26142 Y11.23194
G01 X3.27874 Y11.13430
G01 X3.26940 Y11.09623
G01 X3.27918 Y11.11779
G01 X3.41842 Y11.21500
G01 X3.46945 Y11.23621
G01 X3.62218 Y11.26267
G01 X3.78250 Y11.27286
G01 X4.32103 Y11.27316
G01 X4.42652 Y11.28129
G01 X4.56167 Y11.30578
G01 X4.70536 Y11.28119
G01 X4.68783 Y11.33321
G01 X4.67950 Y11.39282
G01 X4.61859 Y11.34032
G01 X4.56167 Y11.30578
G01 X4.42652 Y11.28129
G01 X4.29723 Y11.27253
G01 X3.75240 Y11.27177
G01 X3.62218 Y11.26267
G01 X3.46945 Y11.23621
G01 X3.32020 Y11.24075
G01 X3.24735 Y11.25963
G01 X3.07112 Y11.40392
G01 X2.99172 Y11.48777
G01 X2.93729 Y11.57906
G01 X2.92502 Y11.61363
G01 X2.90041 Y11.69752
G01 X2.89515 Y11.76625
G01 X2.89586 Y12.73252
G01 X2.93711 Y12.89107
G01 X3.00783 Y13.00448
G01 X3.14433 Y13.17303
G01 X3.15012 Y13.26346
G01 X3.14793 Y13.29406
G01 X3.02893 Y13.43930
G01 X2.93976 Y13.57540
G01 X2.90041 Y13.69752
G01 X2.89472 Y13.78530
G01 X2.89985 Y14.76155
G01 X2.93714 Y14.89109
G01 X2.95472 Y14.92139
G01 X3.00013 Y14.99241
G01 X3.08375 Y15.07712
G01 X3.25220 Y15.21573
G01 X3.36350 Y15.23379
G01 X3.46137 Y15.23493
( Mill infeed pass 5/5 )
G00 Z0.50000 ( retract )
G00 X4.55847 Y15.16381 ( rapid move to begin. )
G01 Z-0.15000
G04 P0 ( dwell for no time -- G64 should not smooth over this point )
G01 F50.00000
G01 X4.55847 Y15.16381
G01 X4.70912 Y15.19104
G01 X4.67691 Y15.08748
G01 X4.68494 Y15.05436
G01 X4.67709 Y15.07854
G01 X4.61313 Y15.13313
G01 X4.55847 Y15.16381
G01 X4.50114 Y15.17638
G01 X4.30775 Y15.19741
G01 X3.78250 Y15.19752
G01 X3.58474 Y15.21215
G01 X3.46137 Y15.23493
G01 X3.43429 Y15.24626
G01 X3.28149 Y15.34702
G01 X3.25220 Y15.21573
G01 X3.28149 Y15.34702
G01 X3.20493 Y15.48967
G01 X3.13173 Y15.60554
G01 X3.07529 Y15.74171
G01 X3.04654 Y15.88631
G01 X3.04656 Y16.03373
G01 X3.07529 Y16.17834
G01 X3.13302 Y16.31385
G01 X3.21524 Y16.43577
G01 X3.29183 Y16.51641
G01 X3.44067 Y16.62291
G01 X3.57661 Y16.67902
G01 X3.72142 Y16.70689
G01 X4.50968 Y16.71001
G01 X4.59025 Y16.70490
G01 X4.71329 Y16.67971
G01 X4.84912 Y16.62261
G01 X4.89601 Y16.59355
G01 X5.00424 Y16.51054
G01 X5.07485 Y16.43592
G01 X5.14618 Y16.33323
G01 X5.20267 Y16.20910
G01 X5.24295 Y16.03368
G01 X5.24163 Y15.88649
G01 X5.22789 Y15.80191
G01 X5.18943 Y15.67747
G01 X5.15679 Y15.60628
G01 X5.07617 Y15.48306
G01 X4.97188 Y15.37892
G01 X4.79281 Y15.25840
G01 X4.70856 Y15.19056
G01 X4.67902 Y15.09724
G01 X4.67595 Y15.08200
G01 X4.68494 Y15.05436
G01 X4.77137 Y14.83899
G01 X4.79345 Y14.73252
G01 X4.79396 Y13.73755
G01 X4.75278 Y13.57903
G01 X4.68248 Y13.46544
G01 X4.54547 Y13.29650
G01 X4.54186 Y13.17679
G01 X4.58484 Y13.11931
G01 X4.54186 Y13.17679
G01 X4.54547 Y13.29650
G01 X4.41583 Y13.24850
G01 X4.29718 Y13.23504
G01 X3.35731 Y13.23651
G01 X3.20404 Y13.27131
G01 X3.14793 Y13.29406
G01 X3.14433 Y13.17303
G01 X3.25850 Y13.21766
G01 X3.37145 Y13.23440
G01 X4.34664 Y13.23173
G01 X4.47356 Y13.20511
G01 X4.54676 Y13.17024
G01 X4.66175 Y13.02980
G01 X4.75314 Y12.88876
G01 X4.78857 Y12.77237
G01 X4.79512 Y12.69511
G01 X4.79396 Y11.73753
G01 X4.76566 Y11.61881
G01 X4.67950 Y11.39282
G01 X4.69015 Y11.32328
G01 X4.70848 Y11.27837
G01 X4.97084 Y11.08988
G01 X5.07485 Y10.98592
G01 X5.14615 Y10.88325
G01 X5.20267 Y10.75912
G01 X5.24295 Y10.58368
G01 X5.24163 Y10.43649
G01 X5.22789 Y10.35193
G01 X5.18943 Y10.22747
G01 X5.15679 Y10.15630
G01 X5.07617 Y10.03306
G01 X5.00490 Y9.95976
G01 X4.97170 Y9.92915
G01 X4.84915 Y9.84739
G01 X4.71306 Y9.79107
G01 X4.56863 Y9.76217
G01 X3.72131 Y9.76219
G01 X3.57666 Y9.79034
G01 X3.46152 Y9.83738
G01 X3.31789 Y9.92874
G01 X3.21367 Y10.03301
G01 X3.14522 Y10.13413
G01 X3.07534 Y10.29176
G01 X3.04654 Y10.43634
G01 X3.04913 Y10.59824
G01 X3.07529 Y10.72833
G01 X3.13269 Y10.86402
G01 X3.20475 Y10.97604
G01 X3.28014 Y11.12000
G01 X3.26142 Y11.23194
G01 X3.24735 Y11.25963
G01 X3.26142 Y11.23194
G01 X3.27874 Y11.13430
G01 X3.26940 Y11.09623
G01 X3.27918 Y11.11779
G01 X3.41842 Y11.21500
G01 X3.46945 Y11.23621
G01 X3.62218 Y11.26267
G01 X3.78250 Y11.27286
G01 X4.32103 Y11.27316
G01 X4.42652 Y11.28129
G01 X4.56167 Y11.30578
G01 X4.70536 Y11.28119
G01 X4.68783 Y11.33321
G01 X4.67950 Y11.39282
G01 X4.61859 Y11.34032
G01 X4.56167 Y11.30578
G01 X4.42652 Y11.28129
G01 X4.29723 Y11.27253
G01 X3.75240 Y11.27177
G01 X3.62218 Y11.26267
G01 X3.46945 Y11.23621
G01 X3.32020 Y11.24075
G01 X3.24735 Y11.25963
G01 X3.07112 Y11.40392
G01 X2.99172 Y11.48777
G01 X2.93729 Y11.57906
G01 X2.92502 Y11.61363
G01 X2.90041 Y11.69752
G01 X2.89515 Y11.76625
G01 X2.89586 Y12.73252
G01 X2.93711 Y12.89107
G01 X3.00783 Y13.00448
G01 X3.14433 Y13.17303
G01 X3.15012 Y13.26346
G01 X3.14793 Y13.29406
G01 X3.02893 Y13.43930
G01 X2.93976 Y13.57540
G01 X2.90041 Y13.69752
G01 X2.89472 Y13.78530
G01 X2.89985 Y14.76155
G01 X2.93714 Y14.89109
G01 X2.95472 Y14.92139
G01 X3.00013 Y14.99241
G01 X3.08375 Y15.07712
G01 X3.25220 Y15.21573
G01 X3.36350 Y15.23379
G01 X3.46137 Y15.23493
G04 P0 ( dwell for no time -- G64 should not smooth over this point )
G00 Z0.50000 ( retract )

G00 X6.19474 Y12.78530 ( rapid move to begin. )
G01 F10.00000
( Mill infeed pass 1/5 )
G01 Z-0.03000
G04 P0 ( dwell for no time -- G64 should not smooth over this point )
G01 F50.00000
G01 X6.19474 Y12.78530
G01 X6.20040 Y12.69755
G01 X6.22504 Y12.61362
G01 X6.23731 Y12.57908
G01 X6.30028 Y12.47578
G01 X6.37109 Y12.40385
G01 X6.45496 Y12.34685
G01 X6.48892 Y12.32719
G01 X6.60769 Y12.29160
G01 X6.66670 Y12.28546
G01 X7.64244 Y12.28665
G01 X7.68247 Y12.29069
G01 X7.80104 Y12.32719
G01 X7.90289 Y12.38901
G01 X7.98925 Y12.47613
G01 X8.05278 Y12.57903
G01 X8.09397 Y12.73758
G01 X8.09347 Y13.73247
G01 X8.08308 Y13.79617
G01 X8.05239 Y13.89091
G01 X7.98986 Y13.99442
G01 X7.90462 Y14.08022
G01 X7.80063 Y14.14199
G01 X7.73632 Y14.16419
G01 X7.64241 Y14.18365
G01 X6.64755 Y14.18352
G01 X6.60114 Y14.17773
G01 X6.48895 Y14.14281
G01 X6.39410 Y14.08586
G01 X6.31095 Y14.00582
G01 X6.25474 Y13.92144
G01 X6.23713 Y13.89112
G01 X6.19985 Y13.76153
G01 X6.19474 Y12.78530
( Mill infeed pass 2/5 )
G01 Z-0.06000
G04 P0 ( dwell for no time -- G64 should not smooth over this point )
G01 F50.00000
G01 X6.19474 Y12.78530
G01 X6.20040 Y12.69755
G01 X6.22504 Y12.61362
G01 X6.23731 Y12.57908
G01 X6.30028 Y12.47578
G01 X6.37109 Y12.40385
G01 X6.45496 Y12.34685
G01 X6.48892 Y12.32719
G01 X6.60769 Y12.29160
G01 X6.66670 Y12.28546
G01 X7.64244 Y12.28665
G01 X7.68247 Y12.29069
G01 X7.80104 Y12.32719
G01 X7.90289 Y12.38901
G01 X7.98925 Y12.47613
G01 X8.05278 Y12.57903
G01 X8.09397 Y12.73758
G01 X8.09347 Y13.73247
G01 X8.08308 Y13.79617
G01 X8.05239 Y13.89091
G01 X7.98986 Y13.99442
G01 X7.90462 Y14.08022
G01 X7.80063 Y14.14199
G01 X7.73632 Y14.16419
G01 X7.64241 Y14.18365
G01 X6.64755 Y14.18352
G01 X6.60114 Y14.17773
G01 X6.48895 Y14.14281
G01 X6.39410 Y14.08586
G01 X6.31095 Y14.00582
G01 X6.25474 Y13.92144
G01 X6.23713 Y13.89112
G01 X6.19985 Y13.76153
G01 X6.19474 Y12.78530
( Mill infeed pass 3/5 )
G01 Z-0.09000
G04 P0 ( dwell for no time -- G64 should not smooth over this point )
G01 F50.00000
G01 X6.19474 Y12.78530
G01 X6.20040 Y12.69755
G01 X6.22504 Y12.61362
G01 X6.23731 Y12.57908
G01 X6.30028 Y12.47578
G01 X6.37109 Y12.40385
G01 X6.45496 Y12.34685
G01 X6.48892 Y12.32719
G01 X6.60769 Y12.29160
G01 X6.66670 Y12.28546
G01 X7.64244 Y12.28665
G01 X7.68247 Y12.29069
G01 X7.80104 Y12.32719
G01 X7.90289 Y12.38901
G01 X7.98925 Y12.47613
G01 X8.05278 Y12.57903
G01 X8.09397 Y12.73758
G01 X8.09347 Y13.73247
G01 X8.08308 Y13.79617
G01 X8.05239 Y13.89091
G01 X7.98986 Y13.99442
G01 X7.90462 Y14.08022
G01 X7.80063 Y14.14199
G01 X7.73632 Y14.16419
G01 X7.64241 Y14.18365
G01 X6.64755 Y14.18352
G01 X6.60114 Y14.17773
G01 X6.48895 Y14.14281
G01 X6.39410 Y14.08586
G01 X6.31095 Y14.00582
G01 X6.25474 Y13.92144
G01 X6.23713 Y13.89112
G01 X6.19985 Y13.76153
G01 X6.19474 Y12.78530
( Mill infeed pass 4/5 )
G01 Z-0.12000
G04 P0 ( dwell for no time -- G64 should not smooth over this point )
G01 F50.00000
G01 X6.19474 Y12.78530
G01 X6.20040 Y12.69755
G01 X6.22504 Y12.61362
G01 X6.23731 Y12.57908
G01 X6.30028 Y12.47578
G01 X6.37109 Y12.40385
G01 X6.45496 Y12.34685
G01 X6.48892 Y12.32719
G01 X6.60769 Y12.29160
G01 X6.66670 Y12.28546
G01 X7.64244 Y12.28665
G01 X7.68247 Y12.29069
G01 X7.80104 Y12.32719
G01 X7.90289 Y12.38901
G01 X7.98925 Y12.47613
G01 X8.05278 Y12.57903
G01 X8.09397 Y12.73758
G01 X8.09347 Y13.73247
G01 X8.08308 Y13.79617
G01 X8.05239 Y13.89091
G01 X7.98986 Y13.99442
G01 X7.90462 Y14.08022
G01 X7.80063 Y14.14199
G01 X7.73632 Y14.16419
G01 X7.64241 Y14.18365
G01 X6.64755 Y14.18352
G01 X6.60114 Y14.17773
G01 X6.48895 Y14.14281
G01 X6.39410 Y14.08586
G01 X6.31095 Y14.00582
G01 X6.25474 Y13.92144
G01 X6.23713 Y13.89112
G01 X6.19985 Y13.76153
G01 X6.19474 Y12.78530
( Mill infeed pass 5/5 )
G01 Z-0.15000
G04 P0 ( dwell for no time -- G64 should not smooth over this point )
G01 F50.00000
G01 X6.19474 Y12.78530
G01 X6.20040 Y12.69755
G01 X6.22504 Y12.61362
G01 X6.23731 Y12.57908
G01 X6.30028 Y12.47578
G01 X6.37109 Y12.40385
G01 X6.45496 Y12.34685
G01 X6.48892 Y12.32719
G01 X6.60769 Y12.29160
G01 X6.66670 Y12.28546
G01 X7.64244 Y12.28665
G01 X7.68247 Y12.29069
G01 X7.80104 Y12.32719
G01 X7.90289 Y12.38901
G01 X7.98925 Y12.47613
G01 X8.05278 Y12.57903
G01 X8.09397 Y12.73758
G01 X8.09347 Y13.73247
G01 X8.08308 Y13.79617
G01 X8.05239 Y13.89091
G01 X7.98986 Y13.99442
G01 X7.90462 Y14.08022
G01 X7.80063 Y14.14199
G01 X7.73632 Y14.16419
G01 X7.64241 Y14.18365
G01 X6.64755 Y14.18352
G01 X6.60114 Y14.17773
G01 X6.48895 Y14.14281
G01 X6.39410 Y14.08586
G01 X6.31095 Y14.00582
G01 X6.25474 Y13.92144
G01 X6.23713 Y13.89112
G01 X6.19985 Y13.76153
G01 X6.19474 Y12.78530
G04 P0 ( dwell for no time -- G64 should not smooth over this point )
G00 Z0.50000 ( retract )

G00 X6.25021 Y10.78902 ( rapid move to begin. )
G01 F10.00000
( Mill infeed pass 1/5 )
G01 Z-0.03000
G04 P0 ( dwell for no time -- G64 should not smooth over this point )
G01 F50.00000
G01 X6.25021 Y10.78902
G01 X6.25217 Y10.73885
G01 X6.27704 Y10.60954
G01 X6.33444 Y10.46763
G01 X6.40688 Y10.35772
G01 X6.47734 Y10.28272
G01 X6.51422 Y10.24861
G01 X6.62443 Y10.17408
G01 X6.76403 Y10.11467
G01 X6.90373 Y10.08663
G01 X7.41077 Y10.08546
G01 X7.58585 Y10.11487
G01 X7.71770 Y10.16890
G01 X7.83566 Y10.24868
G01 X7.93688 Y10.34888
G01 X8.01511 Y10.46786
G01 X8.06870 Y10.59958
G01 X8.09682 Y10.73895
G01 X8.09827 Y10.87471
G01 X8.07066 Y11.02107
G01 X8.01508 Y11.15216
G01 X7.98039 Y11.20832
G01 X7.93535 Y11.26994
G01 X7.86304 Y11.34632
G01 X7.71732 Y11.45053
G01 X7.58597 Y11.50563
G01 X7.44620 Y11.53344
G01 X6.90381 Y11.53275
G01 X6.76441 Y11.50418
G01 X6.63294 Y11.44992
G01 X6.51463 Y11.37095
G01 X6.43259 Y11.29176
G01 X6.33970 Y11.16181
G01 X6.28328 Y11.03110
G01 X6.25344 Y10.89189
G01 X6.25021 Y10.78902
( Mill infeed pass 2/5 )
G01 Z-0.06000
G04 P0 ( dwell for no time -- G64 should not smooth over this point )
G01 F50.00000
G01 X6.25021 Y10.78902
G01 X6.25217 Y10.73885
G01 X6.27704 Y10.60954
G01 X6.33444 Y10.46763
G01 X6.40688 Y10.35772
G01 X6.47734 Y10.28272
G01 X6.51422 Y10.24861
G01 X6.62443 Y10.17408
G01 X6.76403 Y10.11467
G01 X6.90373 Y10.08663
G01 X7.41077 Y10.08546
G01 X7.58585 Y10.11487
G01 X7.71770 Y10.16890
G01 X7.83566 Y10.24868
G01 X7.93688 Y10.34888
G01 X8.01511 Y10.46786
G01 X8.06870 Y10.59958
G01 X8.09682 Y10.73895
G01 X8.09827 Y10.87471
G01 X8.07066 Y11.02107
G01 X8.01508 Y11.15216
G01 X7.98039 Y11.20832
G01 X7.93535 Y11.26994
G01 X7.86304 Y11.34632
G01 X7.71732 Y11.45053
G01 X7.58597 Y11.50563
G01 X7.44620 Y11.53344
G01 X6.90381 Y11.53275
G01 X6.76441 Y11.50418
G01 X6.63294 Y11.44992
G01 X6.51463 Y11.37095
G01 X6.43259 Y11.29176
G01 X6.33970 Y11.16181
G01 X6.28328 Y11.03110
G01 X6.25344 Y10.89189
G01 X6.25021 Y10.78902
( Mill infeed pass 3/5 )
G01 Z-0.09000
G04 P0 ( dwell for no time -- G64 should not smooth over this point )
G01 F50.00000
G01 X6.25021 Y10.78902
G01 X6.25217 Y10.73885
G01 X6.27704 Y10.60954
G01 X6.33444 Y10.46763
G01 X6.40688 Y10.35772
G01 X6.47734 Y10.28272
G01 X6.51422 Y10.24861
G01 X6.62443 Y10.17408
G01 X6.76403 Y10.11467
G01 X6.90373 Y10.08663
G01 X7.41077 Y10.08546
G01 X7.58585 Y10.11487
G01 X7.71770 Y10.16890
G01 X7.83566 Y10.24868
G01 X7.93688 Y10.34888
G01 X8.01511 Y10.46786
G01 X8.06870 Y10.59958
G01 X8.09682 Y10.73895
G01 X8.09827 Y10.87471
G01 X8.07066 Y11.02107
G01 X8.01508 Y11.15216
G01 X7.98039 Y11.20832
G01 X7.93535 Y11.26994
G01 X7.86304 Y11.34632
G01 X7.71732 Y11.45053
G01 X7.58597 Y11.50563
G01 X7.44620 Y11.53344
G01 X6.90381 Y11.53275
G01 X6.76441 Y11.50418
G01 X6.63294 Y11.44992
G01 X6.51463 Y11.37095
G01 X6.43259 Y11.29176
G01 X6.33970 Y11.16181
G01 X6.28328 Y11.03110
G01 X6.25344 Y10.89189
G01 X6.25021 Y10.78902
( Mill infeed pass 4/5 )
G01 Z-0.12000
G04 P0 ( dwell for no time -- G64 should not smooth over this point )
G01 F50.00000
G01 X6.25021 Y10.78902
G01 X6.25217 Y10.73885
G01 X6.27704 Y10.60954
G01 X6.33444 Y10.46763
G01 X6.40688 Y10.35772
G01 X6.47734 Y10.28272
G01 X6.51422 Y10.24861
G01 X6.62443 Y10.17408
G01 X6.76403 Y10.11467
G01 X6.90373 Y10.08663
G01 X7.41077 Y10.08546
G01 X7.58585 Y10.11487
G01 X7.71770 Y10.16890
G01 X7.83566 Y10.24868
G01 X7.93688 Y10.34888
G01 X8.01511 Y10.46786
G01 X8.06870 Y10.59958
G01 X8.09682 Y10.73895
G01 X8.09827 Y10.87471
G01 X8.07066 Y11.02107
G01 X8.01508 Y11.15216
G01 X7.98039 Y11.20832
G01 X7.93535 Y11.26994
G01 X7.86304 Y11.34632
G01 X7.71732 Y11.45053
G01 X7.58597 Y11.50563
G01 X7.44620 Y11.53344
G01 X6.90381 Y11.53275
G01 X6.76441 Y11.50418
G01 X6.63294 Y11.44992
G01 X6.51463 Y11.37095
G01 X6.43259 Y11.29176
G01 X6.33970 Y11.16181
G01 X6.28328 Y11.03110
G01 X6.25344 Y10.89189
G01 X6.25021 Y10.78902
( Mill infeed pass 5/5 )
G01 Z-0.15000
G04 P0 ( dwell for no time -- G64 should not smooth over this point )
G01 F50.00000
G01 X6.25021 Y10.78902
G01 X6.25217 Y10.73885
G01 X6.27704 Y10.60954
G01 X6.33444 Y10.46763
G01 X6.40688 Y10.35772
G01 X6.47734 Y10.28272
G01 X6.51422 Y10.24861
G01 X6.62443 Y10.17408
G01 X6.76403 Y10.11467
G01 X6.90373 Y10.08663
G01 X7.41077 Y10.08546
G01 X7.58585 Y10.11487
G01 X7.71770 Y10.16890
G01 X7.83566 Y10.24868
G01 X7.93688 Y10.34888
G01 X8.01511 Y10.46786
G01 X8.06870 Y10.59958
G01 X8.09682 Y10.73895
G01 X8.09827 Y10.87471
G01 X8.07066 Y11.02107
G01 X8.01508 Y11.15216
G01 X7.98039 Y11.20832
G01 X7.93535 Y11.26994
G01 X7.86304 Y11.34632
G01 X7.71732 Y11.45053
G01 X7.58597 Y11.50563
G01 X7.44620 Y11.53344
G01 X6.90381 Y11.53275
G01 X6.76441 Y11.50418
G01 X6.63294 Y11.44992
G01 X6.51463 Y11.37095
G01 X6.43259 Y11.29176
G01 X6.33970 Y11.16181
G01 X6.28328 Y11.03110
G01 X6.25344 Y10.89189
G01 X6.25021 Y10.78902
G04 P0 ( dwell for no time -- G64 should not smooth over this point )
G00 Z0.50000 ( retract )

G00 X10.58521 Y4.32817 ( rapid move to begin. )
G01 F10.00000
( Mill infeed pass 1/5 )
G01 Z-0.03000
G04 P0 ( dwell for no time -- G64 should not smooth over this point )
G01 F50.00000
G01 X10.58521 Y4.32817
G01 X10.58493 Y2.76213
G01 X10.63898 Y2.61189
G01 X10.68612 Y2.42701
G01 X10.77164 Y2.22695
G01 X10.81216 Y2.09792
G01 X10.89900 Y1.99620
G01 X11.06412 Y1.86376
G01 X11.24223 Y1.77128
G01 X11.44403 Y1.71286
G01 X11.63707 Y1.69503
G01 X11.81993 Y1.71200
G01 X11.95767 Y1.74583
G01 X12.09831 Y1.80349
G01 X12.24576 Y1.89109
G01 X12.38396 Y2.00910
G01 X12.49811 Y2.14806
G01 X12.57085 Y2.26892
G01 X12.62572 Y2.39886
G01 X12.67055 Y2.57140
G01 X12.68474 Y2.72462
G01 X12.68500 Y4.34498
G01 X12.67646 Y4.44067
G01 X12.63247 Y4.52858
G01 X12.56463 Y4.71118
G01 X12.50811 Y4.83307
G01 X12.40474 Y4.98425
G01 X12.27405 Y5.11466
G01 X12.12191 Y5.21928
G01 X11.99559 Y5.27821
G01 X11.81149 Y5.32992
G01 X11.65465 Y5.34402
G01 X11.49455 Y5.33711
G01 X11.31642 Y5.29533
G01 X11.14754 Y5.22017
G01 X11.03253 Y5.14381
G01 X10.93286 Y5.05707
G01 X10.83169 Y4.94125
G01 X10.74962 Y4.81267
G01 X10.68452 Y4.66358
G01 X10.63791 Y4.47877
G01 X10.58521 Y4.32817
G01 X10.14495 Y3.88794
G01 X10.14495 Y3.20211
G01 X10.58493 Y2.76213
G01 X10.63898 Y2.61189
G01 X10.68612 Y2.42701
G01 X10.77164 Y2.22695
G01 X10.81711 Y2.07875
G01 X10.77052 Y1.96310
G01 X10.73867 Y1.91177
G01 X10.69544 Y1.86958
G01 X10.61185 Y1.81512
G01 X10.54919 Y1.78893
G01 X10.45005 Y1.77552
G01 X10.28178 Y1.77740
G01 X10.16575 Y1.80819
G01 X10.08335 Y1.85469
G01 X9.88226 Y2.05281
G01 X9.75727 Y1.93031
G01 X9.58556 Y1.81672
G01 X9.39506 Y1.73887
G01 X9.19303 Y1.69965
G01 X8.98719 Y1.70062
G01 X8.76713 Y1.74849
G01 X8.57891 Y1.83163
G01 X8.43268 Y1.93031
G01 X8.30881 Y2.05175
G01 X8.12222 Y1.86719
G01 X8.03172 Y1.81075
G01 X7.96812 Y1.78680
G01 X7.70795 Y1.77758
G01 X7.58437 Y1.81139
G01 X7.51094 Y1.85472
G01 X7.40891 Y1.97598
G01 X7.38585 Y2.03247
G01 X7.37528 Y2.09264
G01 X7.41653 Y2.22482
G01 X7.50538 Y2.42647
G01 X7.54706 Y2.59396
G01 X7.59568 Y2.74003
G01 X7.60472 Y2.76188
G01 X8.04498 Y3.20214
G01 X8.04498 Y3.88791
G01 X7.60497 Y4.32794
G01 X7.60472 Y2.76188
G01 X7.55204 Y2.61121
G01 X7.50538 Y2.42647
G01 X7.41653 Y2.22482
G01 X7.37528 Y2.09264
G01 X7.30396 Y2.00910
G01 X7.18943 Y1.90918
G01 X7.04508 Y1.81654
G01 X6.87767 Y1.74583
G01 X6.72085 Y1.70819
G01 X6.54816 Y1.69510
G01 X6.34496 Y1.71626
G01 X6.15253 Y1.77527
G01 X5.96614 Y1.87570
G01 X5.81087 Y2.00427
G01 X5.66741 Y2.18563
G01 X5.58374 Y2.34608
G01 X5.53256 Y2.50971
G01 X5.50556 Y2.72807
G01 X5.50523 Y4.36541
G01 X5.51178 Y4.44562
G01 X5.55441 Y4.52880
G01 X5.66990 Y4.81252
G01 X5.73414 Y4.91623
G01 X5.83038 Y5.03447
G01 X5.95253 Y5.14381
G01 X6.06754 Y5.22017
G01 X6.23645 Y5.29533
G01 X6.41458 Y5.33711
G01 X6.57465 Y5.34402
G01 X6.73149 Y5.32992
G01 X6.87302 Y5.29395
G01 X7.04178 Y5.21900
G01 X7.12824 Y5.16429
G01 X7.24615 Y5.06774
G01 X7.32456 Y4.98410
G01 X7.42918 Y4.83193
G01 X7.48572 Y4.71151
G01 X7.55092 Y4.47823
G01 X7.60497 Y4.32794
( Mill infeed pass 2/5 )
G00 Z0.50000 ( retract )
G00 X10.58521 Y4.32817 ( rapid move to begin. )
G01 Z-0.06000
G04 P0 ( dwell for no time -- G64 should not smooth over this point )
G01 F50.00000
G01 X10.58521 Y4.32817
G01 X10.58493 Y2.76213
G01 X10.63898 Y2.61189
G01 X10.68612 Y2.42701
G01 X10.77164 Y2.22695
G01 X10.81216 Y2.09792
G01 X10.89900 Y1.99620
G01 X11.06412 Y1.86376
G01 X11.24223 Y1.77128
G01 X11.44403 Y1.71286
G01 X11.63707 Y1.69503
G01 X11.81993 Y1.71200
G01 X11.95767 Y1.74583
G01 X12.09831 Y1.80349
G01 X12.24576 Y1.89109
G01 X12.38396 Y2.00910
G01 X12.49811 Y2.14806
G01 X12.57085 Y2.26892
G01 X12.62572 Y2.39886
G01 X12.67055 Y2.57140
G01 X12.68474 Y2.72462
G01 X12.68500 Y4.34498
G01 X12.67646 Y4.44067
G01 X12.63247 Y4.52858
G01 X12.56463 Y4.71118
G01 X12.50811 Y4.83307
G01 X12.40474 Y4.98425
G01 X12.27405 Y5.11466
G01 X12.12191 Y5.21928
G01 X11.99559 Y5.27821
G01 X11.81149 Y5.32992
G01 X11.65465 Y5.34402
G01 X11.49455 Y5.33711
G01 X11.31642 Y5.29533
G01 X11.14754 Y5.22017
G01 X11.03253 Y5.14381
G01 X10.93286 Y5.05707
G01 X10.83169 Y4.94125
G01 X10.74962 Y4.81267
G01 X10.68452 Y4.66358
G01 X10.63791 Y4.47877
G01 X10.58521 Y4.32817
G01 X10.14495 Y3.88794
G01 X10.14495 Y3.20211
G01 X10.58493 Y2.76213
G01 X10.63898 Y2.61189
G01 X10.68612 Y2.42701
G01 X10.77164 Y2.22695
G01 X10.81711 Y2.07875
G01 X10.77052 Y1.96310
G01 X10.73867 Y1.91177
G01 X10.69544 Y1.86958
G01 X10.61185 Y1.81512
G01 X10.54919 Y1.78893
G01 X10.45005 Y1.77552
G01 X10.28178 Y1.77740
G01 X10.16575 Y1.80819
G01 X10.08335 Y1.85469
G01 X9.88226 Y2.05281
G01 X9.75727 Y1.93031
G01 X9.58556 Y1.81672
G01 X9.39506 Y1.73887
G01 X9.19303 Y1.69965
G01 X8.98719 Y1.70062
G01 X8.76713 Y1.74849
G01 X8.57891 Y1.83163
G01 X8.43268 Y1.93031
G01 X8.30881 Y2.05175
G01 X8.12222 Y1.86719
G01 X8.03172 Y1.81075
G01 X7.96812 Y1.78680
G01 X7.70795 Y1.77758
G01 X7.58437 Y1.81139
G01 X7.51094 Y1.85472
G01 X7.40891 Y1.97598
G01 X7.38585 Y2.03247
G01 X7.37528 Y2.09264
G01 X7.41653 Y2.22482
G01 X7.50538 Y2.42647
G01 X7.54706 Y2.59396
G01 X7.59568 Y2.74003
G01 X7.60472 Y2.76188
G01 X8.04498 Y3.20214
G01 X8.04498 Y3.88791
G01 X7.60497 Y4.32794
G01 X7.60472 Y2.76188
G01 X7.55204 Y2.61121
G01 X7.50538 Y2.42647
G01 X7.41653 Y2.22482
G01 X7.37528 Y2.09264
G01 X7.30396 Y2.00910
G01 X7.18943 Y1.90918
G01 X7.04508 Y1.81654
G01 X6.87767 Y1.74583
G01 X6.72085 Y1.70819
G01 X6.54816 Y1.69510
G01 X6.34496 Y1.71626
G01 X6.15253 Y1.77527
G01 X5.96614 Y1.87570
G01 X5.81087 Y2.00427
G01 X5.66741 Y2.18563
G01 X5.58374 Y2.34608
G01 X5.53256 Y2.50971
G01 X5.50556 Y2.72807
G01 X5.50523 Y4.36541
G01 X5.51178 Y4.44562
G01 X5.55441 Y4.52880
G01 X5.66990 Y4.81252
G01 X5.73414 Y4.91623
G01 X5.83038 Y5.03447
G01 X5.95253 Y5.14381
G01 X6.06754 Y5.22017
G01 X6.23645 Y5.29533
G01 X6.41458 Y5.33711
G01 X6.57465 Y5.34402
G01 X6.73149 Y5.32992
G01 X6.87302 Y5.29395
G01 X7.04178 Y5.21900
G01 X7.12824 Y5.16429
G01 X7.24615 Y5.06774
G01 X7.32456 Y4.98410
G01 X7.42918 Y4.83193
G01 X7.48572 Y4.71151
G01 X7.55092 Y4.47823
G01 X7.60497 Y4.32794
( Mill infeed pass 3/5 )
G00 Z0.50000 ( retract )
G00 X10.58521 Y4.32817 ( rapid move to begin. )
G01 Z-0.09000
G04 P0 ( dwell for no time -- G64 should not smooth over this point )
G01 F50.00000
G01 X10.58521 Y4.32817
G01 X10.58493 Y2.76213
G01 X10.63898 Y2.61189
G01 X10.68612 Y2.42701
G01 X10.77164 Y2.22695
G01 X10.81216 Y2.09792
G01 X10.89900 Y1.99620
G01 X11.06412 Y1.86376
G01 X11.24223 Y1.77128
G01 X11.44403 Y1.71286
G01 X11.63707 Y1.69503
G01 X11.81993 Y1.71200
G01 X11.95767 Y1.74583
G01 X12.09831 Y1.80349
G01 X12.24576 Y1.89109
G01 X12.38396 Y2.00910
G01 X12.49811 Y2.14806
G01 X12.57085 Y2.26892
G01 X12.62572 Y2.39886
G01 X12.67055 Y2.57140
G01 X12.68474 Y2.72462
G01 X12.68500 Y4.34498
G01 X12.67646 Y4.44067
G01 X12.63247 Y4.52858
G01 X12.56463 Y4.71118
G01 X12.50811 Y4.83307
G01 X12.40474 Y4.98425
G01 X12.27405 Y5.11466
G01 X12.12191 Y5.21928
G01 X11.99559 Y5.27821
G01 X11.81149 Y5.32992
G01 X11.65465 Y5.34402
G01 X11.49455 Y5.33711
G01 X11.31642 Y5.29533
G01 X11.14754 Y5.22017
G01 X11.03253 Y5.14381
G01 X10.93286 Y5.05707
G01 X10.83169 Y4.94125
G01 X10.74962 Y4.81267
G01 X10.68452 Y4.66358
G01 X10.63791 Y4.47877
G01 X10.58521 Y4.32817
G01 X10.14495 Y3.88794
G01 X10.14495 Y3.20211
G01 X10.58493 Y2.76213
G01 X10.63898 Y2.61189
G01 X10.68612 Y2.42701
G01 X10.77164 Y2.22695
G01 X10.81711 Y2.07875
G01 X10.77052 Y1.96310
G01 X10.73867 Y1.91177
G01 X10.69544 Y1.86958
G01 X10.61185 Y1.81512
G01 X10.54919 Y1.78893
G01 X10.45005 Y1.77552
G01 X10.28178 Y1.77740
G01 X10.16575 Y1.80819
G01 X10.08335 Y1.85469
G01 X9.88226 Y2.05281
G01 X9.75727 Y1.93031
G01 X9.58556 Y1.81672
G01 X9.39506 Y1.73887
G01 X9.19303 Y1.69965
G01 X8.98719 Y1.70062
G01 X8.76713 Y1.74849
G01 X8.57891 Y1.83163
G01 X8.43268 Y1.93031
G01 X8.30881 Y2.05175
G01 X8.12222 Y1.86719
G01 X8.03172 Y1.81075
G01 X7.96812 Y1.78680
G01 X7.70795 Y1.77758
G01 X7.58437 Y1.81139
G01 X7.51094 Y1.85472
G01 X7.40891 Y1.97598
G01 X7.38585 Y2.03247
G01 X7.37528 Y2.09264
G01 X7.41653 Y2.22482
G01 X7.50538 Y2.42647
G01 X7.54706 Y2.59396
G01 X7.59568 Y2.74003
G01 X7.60472 Y2.76188
G01 X8.04498 Y3.20214
G01 X8.04498 Y3.88791
G01 X7.60497 Y4.32794
G01 X7.60472 Y2.76188
G01 X7.55204 Y2.61121
G01 X7.50538 Y2.42647
G01 X7.41653 Y2.22482
G01 X7.37528 Y2.09264
G01 X7.30396 Y2.00910
G01 X7.18943 Y1.90918
G01 X7.04508 Y1.81654
G01 X6.87767 Y1.74583
G01 X6.72085 Y1.70819
G01 X6.54816 Y1.69510
G01 X6.34496 Y1.71626
G01 X6.15253 Y1.77527
G01 X5.96614 Y1.87570
G01 X5.81087 Y2.00427
G01 X5.66741 Y2.18563
G01 X5.58374 Y2.34608
G01 X5.53256 Y2.50971
G01 X5.50556 Y2.72807
G01 X5.50523 Y4.36541
G01 X5.51178 Y4.44562
G01 X5.55441 Y4.52880
G01 X5.66990 Y4.81252
G01 X5.73414 Y4.91623
G01 X5.83038 Y5.03447
G01 X5.95253 Y5.14381
G01 X6.06754 Y5.22017
G01 X6.23645 Y5.29533
G01 X6.41458 Y5.33711
G01 X6.57465 Y5.34402
G01 X6.73149 Y5.32992
G01 X6.87302 Y5.29395
G01 X7.04178 Y5.21900
G01 X7.12824 Y5.16429
G01 X7.24615 Y5.06774
G01 X7.32456 Y4.98410
G01 X7.42918 Y4.83193
G01 X7.48572 Y4.71151
G01 X7.55092 Y4.47823
G01 X7.60497 Y4.32794
( Mill infeed pass 4/5 )
G00 Z0.50000 ( retract )
G00 X10.58521 Y4.32817 ( rapid move to begin. )
G01 Z-0.12000
G04 P0 ( dwell for no time -- G64 should not smooth over this point )
G01 F50.00000
G01 X10.58521 Y4.32817
G01 X10.58493 Y2.76213
G01 X10.63898 Y2.61189
G01 X10.68612 Y2.42701
G01 X10.77164 Y2.22695
G01 X10.81216 Y2.09792
G01 X10.89900 Y1.99620
G01 X11.06412 Y1.86376
G01 X11.24223 Y1.77128
G01 X11.44403 Y1.71286
G01 X11.63707 Y1.69503
G01 X11.81993 Y1.71200
G01 X11.95767 Y1.74583
G01 X12.09831 Y1.80349
G01 X12.24576 Y1.89109
G01 X12.38396 Y2.00910
G01 X12.49811 Y2.14806
G01 X12.57085 Y2.26892
G01 X12.62572 Y2.39886
G01 X12.67055 Y2.57140
G01 X12.68474 Y2.72462
G01 X12.68500 Y4.34498
G01 X12.67646 Y4.44067
G01 X12.63247 Y4.52858
G01 X12.56463 Y4.71118
G01 X12.50811 Y4.83307
G01 X12.40474 Y4.98425
G01 X12.27405 Y5.11466
G01 X12.12191 Y5.21928
G01 X11.99559 Y5.27821
G01 X11.81149 Y5.32992
G01 X11.65465 Y5.34402
G01 X11.49455 Y5.33711
G01 X11.31642 Y5.29533
G01 X11.14754 Y5.22017
G01 X11.03253 Y5.14381
G01 X10.93286 Y5.05707
G01 X10.83169 Y4.94125
G01 X10.74962 Y4.81267
G01 X10.68452 Y4.66358
G01 X10.63791 Y4.47877
G01 X10.58521 Y4.32817
G01 X10.14495 Y3.88794
G01 X10.14495 Y3.20211
G01 X10.58493 Y2.76213
G01 X10.63898 Y2.61189
G01 X10.68612 Y2.42701
G01 X10.77164 Y2.22695
G01 X10.81711 Y2.07875
G01 X10.77052 Y1.96310
G01 X10.73867 Y1.91177
G01 X10.69544 Y1.86958
G01 X10.61185 Y1.81512
G01 X10.54919 Y1.78893
G01 X10.45005 Y1.77552
G01 X10.28178 Y1.77740
G01 X10.16575 Y1.80819
G01 X10.08335 Y1.85469
G01 X9.88226 Y2.05281
G01 X9.75727 Y1.93031
G01 X9.58556 Y1.81672
G01 X9.39506 Y1.73887
G01 X9.19303 Y1.69965
G01 X8.98719 Y1.70062
G01 X8.76713 Y1.74849
G01 X8.57891 Y1.83163
G01 X8.43268 Y1.93031
G01 X8.30881 Y2.05175
G01 X8.12222 Y1.86719
G01 X8.03172 Y1.81075
G01 X7.96812 Y1.78680
G01 X7.70795 Y1.77758
G01 X7.58437 Y1.81139
G01 X7.51094 Y1.85472
G01 X7.40891 Y1.97598
G01 X7.38585 Y2.03247
G01 X7.37528 Y2.09264
G01 X7.41653 Y2.22482
G01 X7.50538 Y2.42647
G01 X7.54706 Y2.59396
G01 X7.59568 Y2.74003
G01 X7.60472 Y2.76188
G01 X8.04498 Y3.20214
G01 X8.04498 Y3.88791
G01 X7.60497 Y4.32794
G01 X7.60472 Y2.76188
G01 X7.55204 Y2.61121
G01 X7.50538 Y2.42647
G01 X7.41653 Y2.22482
G01 X7.37528 Y2.09264
G01 X7.30396 Y2.00910
G01 X7.18943 Y1.90918
G01 X7.04508 Y1.81654
G01 X6.87767 Y1.74583
G01 X6.72085 Y1.70819
G01 X6.54816 Y1.69510
G01 X6.34496 Y1.71626
G01 X6.15253 Y1.77527
G01 X5.96614 Y1.87570
G01 X5.81087 Y2.00427
G01 X5.66741 Y2.18563
G01 X5.58374 Y2.34608
G01 X5.53256 Y2.50971
G01 X5.50556 Y2.72807
G01 X5.50523 Y4.36541
G01 X5.51178 Y4.44562
G01 X5.55441 Y4.52880
G01 X5.66990 Y4.81252
G01 X5.73414 Y4.91623
G01 X5.83038 Y5.03447
G01 X5.95253 Y5.14381
G01 X6.06754 Y5.22017
G01 X6.23645 Y5.29533
G01 X6.41458 Y5.33711
G01 X6.57465 Y5.34402
G01 X6.73149 Y5.32992
G01 X6.87302 Y5.29395
G01 X7.04178 Y5.21900
G01 X7.12824 Y5.16429
G01 X7.24615 Y5.06774
G01 X7.32456 Y4.98410
G01 X7.42918 Y4.83193
G01 X7.48572 Y4.71151
G01 X7.55092 Y4.47823
G01 X7.60497 Y4.32794
( Mill infeed pass 5/5 )
G00 Z0.50000 ( retract )
G00 X10.58521 Y4.32817 ( rapid move to begin. )
G01 Z-0.15000
G04 P0 ( dwell for no time -- G64 should not smooth over this point )
G01 F50.00000
G01 X10.58521 Y4.32817
G01 X10.58493 Y2.76213
G01 X10.63898 Y2.61189
G01 X10.68612 Y2.42701
G01 X10.77164 Y2.22695
G01 X10.81216 Y2.09792
G01 X10.89900 Y1.99620
G01 X11.06412 Y1.86376
G01 X11.24223 Y1.77128
G01 X11.44403 Y1.71286
G01 X11.63707 Y1.69503
G01 X11.81993 Y1.71200
G01 X11.95767 Y1.74583
G01 X12.09831 Y1.80349
G01 X12.24576 Y1.89109
G01 X12.38396 Y2.00910
G01 X12.49811 Y2.14806
G01 X12.57085 Y2.26892
G01 X12.62572 Y2.39886
G01 X12.67055 Y2.57140
G01 X12.68474 Y2.72462
G01 X12.68500 Y4.34498
G01 X12.67646 Y4.44067
G01 X12.63247 Y4.52858
G01 X12.56463 Y4.71118
G01 X12.50811 Y4.83307
G01 X12.40474 Y4.98425
G01 X12.27405 Y5.11466
G01 X12.12191 Y5.21928
G01 X11.99559 Y5.27821
G01 X11.81149 Y5.32992
G01 X11.65465 Y5.34402
G01 X11.49455 Y5.33711
G01 X11.31642 Y5.29533
G01 X11.14754 Y5.22017
G01 X11.03253 Y5.14381
G01 X10.93286 Y5.05707
G01 X10.83169 Y4.94125
G01 X10.74962 Y4.81267
G01 X10.68452 Y4.66358
G01 X10.63791 Y4.47877
G01 X10.58521 Y4.32817
G01 X10.14495 Y3.88794
G01 X10.14495 Y3.20211
G01 X10.58493 Y2.76213
G01 X10.63898 Y2.61189
G01 X10.68612 Y2.42701
G01 X10.77164 Y2.22695
G01 X10.81711 Y2.07875
G01 X10.77052 Y1.96310
G01 X10.73867 Y1.91177
G01 X10.69544 Y1.86958
G01 X10.61185 Y1.81512
G01 X10.54919 Y1.78893
G01 X10.45005 Y1.77552
G01 X10.28178 Y1.77740
G01 X10.16575 Y1.80819
G01 X10.08335 Y1.85469
G01 X9.88226 Y2.05281
G01 X9.75727 Y1.93031
G01 X9.58556 Y1.81672
G01 X9.39506 Y1.73887
G01 X9.19303 Y1.69965
G01 X8.98719 Y1.70062
G01 X8.76713 Y1.74849
G01 X8.57891 Y1.83163
G01 X8.43268 Y1.93031
G01 X8.30881 Y2.05175
G01 X8.12222 Y1.86719
G01 X8.03172 Y1.81075
G01 X7.96812 Y1.78680
G01 X7.70795 Y1.77758
G01 X7.58437 Y1.81139
G01 X7.51094 Y1.85472
G01 X7.40891 Y1.97598
G01 X7.38585 Y2.03247
G01 X7.37528 Y2.09264
G01 X7.41653 Y2.22482
G01 X7.50538 Y2.42647
G01 X7.54706 Y2.59396
G01 X7.59568 Y2.74003
G01 X7.60472 Y2.76188
G01 X8.04498 Y3.20214
G01 X8.04498 Y3.88791
G01 X7.60497 Y4.32794
G01 X7.60472 Y2.76188
G01 X7.55204 Y2.61121
G01 X7.50538 Y2.42647
G01 X7.41653 Y2.22482
G01 X7.37528 Y2.09264
G01 X7.30396 Y2.00910
G01 X7.18943 Y1.90918
G01 X7.04508 Y1.81654
G01 X6.87767 Y1.74583
G01 X6.72085 Y1.70819
G01 X6.54816 Y1.69510
G01 X6.34496 Y1.71626
G01 X6.15253 Y1.77527
G01 X5.96614 Y1.87570
G01 X5.81087 Y2.00427
G01 X5.66741 Y2.18563
G01 X5.58374 Y2.34608
G01 X5.53256 Y2.50971
G01 X5.50556 Y2.72807
G01 X5.50523 Y4.36541
G01 X5.51178 Y4.44562
G01 X5.55441 Y4.52880
G01 X5.66990 Y4.81252
G01 X5.73414 Y4.91623
G01 X5.83038 Y5.03447
G01 X5.95253 Y5.14381
G01 X6.06754 Y5.22017
G01 X6.23645 Y5.29533
G01 X6.41458 Y5.33711
G01 X6.57465 Y5.34402
G01 X6.73149 Y5.32992
G01 X6.87302 Y5.29395
G01 X7.04178 Y5.21900
G01 X7.12824 Y5.16429
G01 X7.24615 Y5.06774
G01 X7.32456 Y4.98410
G01 X7.42918 Y4.83193
G01 X7.48572 Y4.71151
G01 X7.55092 Y4.47823
G01 X7.60497 Y4.32794
G04 P0 ( dwell for no time -- G64 should not smooth over this point )
G00 Z0.50000 ( retract )

G00 X8.12943 Y5.21765 ( rapid move to begin. )
G01 F10.00000
( Mill infeed pass 1/5 )
G01 Z-0.03000
G04 P0 ( dwell for no time -- G64 should not smooth over this point )
G01 F50.00000
G01 X8.12943 Y5.21765
G01 X8.13411 Y5.21300
G01 X8.21419 Y5.29489
G01 X8.26177 Y5.32944
G01 X8.36949 Y5.37572
G01 X8.42661 Y5.38941
G01 X9.73400 Y5.39116
G01 X9.81119 Y5.37892
G01 X9.92818 Y5.32944
G01 X9.96844 Y5.30142
G01 X10.05869 Y5.21587
G01 X9.97289 Y5.30739
G01 X9.89163 Y5.35563
G01 X9.81307 Y5.38621
G01 X9.71688 Y5.40002
G01 X8.43914 Y5.39881
G01 X8.34373 Y5.37445
G01 X8.26654 Y5.34049
G01 X8.19090 Y5.28387
G01 X8.12943 Y5.21765
( Mill infeed pass 2/5 )
G01 Z-0.06000
G04 P0 ( dwell for no time -- G64 should not smooth over this point )
G01 F50.00000
G01 X8.12943 Y5.21765
G01 X8.13411 Y5.21300
G01 X8.21419 Y5.29489
G01 X8.26177 Y5.32944
G01 X8.36949 Y5.37572
G01 X8.42661 Y5.38941
G01 X9.73400 Y5.39116
G01 X9.81119 Y5.37892
G01 X9.92818 Y5.32944
G01 X9.96844 Y5.30142
G01 X10.05869 Y5.21587
G01 X9.97289 Y5.30739
G01 X9.89163 Y5.35563
G01 X9.81307 Y5.38621
G01 X9.71688 Y5.40002
G01 X8.43914 Y5.39881
G01 X8.34373 Y5.37445
G01 X8.26654 Y5.34049
G01 X8.19090 Y5.28387
G01 X8.12943 Y5.21765
( Mill infeed pass 3/5 )
G01 Z-0.09000
G04 P0 ( dwell for no time -- G64 should not smooth over this point )
G01 F50.00000
G01 X8.12943 Y5.21765
G01 X8.13411 Y5.21300
G01 X8.21419 Y5.29489
G01 X8.26177 Y5.32944
G01 X8.36949 Y5.37572
G01 X8.42661 Y5.38941
G01 X9.73400 Y5.39116
G01 X9.81119 Y5.37892
G01 X9.92818 Y5.32944
G01 X9.96844 Y5.30142
G01 X10.05869 Y5.21587
G01 X9.97289 Y5.30739
G01 X9.89163 Y5.35563
G01 X9.81307 Y5.38621
G01 X9.71688 Y5.40002
G01 X8.43914 Y5.39881
G01 X8.34373 Y5.37445
G01 X8.26654 Y5.34049
G01 X8.19090 Y5.28387
G01 X8.12943 Y5.21765
( Mill infeed pass 4/5 )
G01 Z-0.12000
G04 P0 ( dwell for no time -- G64 should not smooth over this point )
G01 F50.00000
G01 X8.12943 Y5.21765
G01 X8.13411 Y5.21300
G01 X8.21419 Y5.29489
G01 X8.26177 Y5.32944
G01 X8.36949 Y5.37572
G01 X8.42661 Y5.38941
G01 X9.73400 Y5.39116
G01 X9.81119 Y5.37892
G01 X9.92818 Y5.32944
G01 X9.96844 Y5.30142
G01 X10.05869 Y5.21587
G01 X9.97289 Y5.30739
G01 X9.89163 Y5.35563
G01 X9.81307 Y5.38621
G01 X9.71688 Y5.40002
G01 X8.43914 Y5.39881
G01 X8.34373 Y5.37445
G01 X8.26654 Y5.34049
G01 X8.19090 Y5.28387
G01 X8.12943 Y5.21765
( Mill infeed pass 5/5 )
G01 Z-0.15000
G04 P0 ( dwell for no time -- G64 should not smooth over this point )
G01 F50.00000
G01 X8.12943 Y5.21765
G01 X8.13411 Y5.21300
G01 X8.21419 Y5.29489
G01 X8.26177 Y5.32944
G01 X8.36949 Y5.37572
G01 X8.42661 Y5.38941
G01 X9.73400 Y5.39116
G01 X9.81119 Y5.37892
G01 X9.92818 Y5.32944
G01 X9.96844 Y5.30142
G01 X10.05869 Y5.21587
G01 X9.97289 Y5.30739
G01 X9.89163 Y5.35563
G01 X9.81307 Y5.38621
G01 X9.71688 Y5.40002
G01 X8.43914 Y5.39881
G01 X8.34373 Y5.37445
G01 X8.26654 Y5.34049
G01 X8.19090 Y5.28387
G01 X8.12943 Y5.21765
G04 P0 ( dwell for no time -- G64 should not smooth over this point )
G00 Z0.50000 ( retract )

G00 X3.00691 Y1.96429 ( rapid move to begin. )
G01 F10.00000
( Mill infeed pass 1/5 )
G01 Z-0.03000
G04 P0 ( dwell for no time -- G64 should not smooth over this point )
G01 F50.00000
G01 X3.00691 Y1.96429
G01 X3.05235 Y1.87915
G01 X3.14913 Y1.78238
G01 X3.19043 Y1.75596
G01 X3.28034 Y1.71789
G01 X3.35637 Y1.69965
G01 X4.67361 Y1.69965
G01 X4.73122 Y1.71111
G01 X4.83071 Y1.75167
G01 X4.90287 Y1.80194
G01 X4.97137 Y1.87156
G01 X5.00404 Y1.92045
G01 X5.05123 Y2.03635
G01 X5.06444 Y2.12858
G01 X5.06497 Y4.34501
G01 X5.05926 Y4.44821
G01 X5.12017 Y4.40465
G01 X5.17287 Y4.38283
G01 X5.34011 Y4.36871
G01 X5.40889 Y4.38689
G01 X5.50574 Y4.43757
G01 X5.54094 Y4.49820
G01 X5.50820 Y4.43919
G01 X5.41819 Y4.39109
G01 X5.36025 Y4.37188
G01 X5.29939 Y4.36731
G01 X5.20074 Y4.37656
G01 X5.15476 Y4.38875
G01 X5.10389 Y4.41453
G01 X5.05926 Y4.44821
G01 X5.04135 Y4.47900
G01 X4.90920 Y4.80025
G01 X4.80894 Y4.95819
G01 X4.77125 Y5.00411
G01 X4.66688 Y5.10782
G01 X4.51384 Y5.21537
G01 X4.46147 Y5.24336
G01 X4.28705 Y5.31084
G01 X4.09337 Y5.34536
G01 X3.88715 Y5.34003
G01 X3.74290 Y5.31084
G01 X3.56848 Y5.24336
G01 X3.40181 Y5.13899
G01 X3.25218 Y4.99693
G01 X3.13968 Y4.83561
G01 X3.06076 Y4.65535
G01 X3.01855 Y4.46330
G01 X3.01415 Y2.14951
G01 X3.00676 Y1.95838
G01 X2.96838 Y1.90755
G01 X2.88570 Y1.83579
G01 X2.84456 Y1.81106
G01 X2.79010 Y1.79244
G01 X2.69439 Y1.77567
G01 X2.19836 Y1.77552
G01 X2.12792 Y1.78566
G01 X2.00834 Y1.82751
G01 X1.95533 Y1.86760
G01 X1.87804 Y1.95860
G01 X1.84430 Y2.03242
G01 X1.82431 Y2.15789
G01 X1.77753 Y27.70034
G01 X1.78517 Y27.76218
G01 X1.82625 Y27.88502
G01 X1.87544 Y27.94964
G01 X1.97486 Y28.03028
G01 X2.03706 Y28.05573
G01 X2.15154 Y28.07504
G01 X23.02498 Y28.07504
G01 X23.02641 Y28.31771
G01 X23.06504 Y28.45685
G01 X23.11498 Y28.53183
G01 X23.27543 Y28.67122
G01 X23.30842 Y28.72835
G01 X23.32547 Y28.79203
G01 X23.32610 Y39.01837
G01 X23.36181 Y39.15731
G01 X23.38483 Y39.20270
G01 X23.41655 Y39.24250
G01 X23.49161 Y39.30839
G01 X23.54037 Y39.33900
G01 X23.58549 Y39.35540
G01 X23.68165 Y39.37390
G01 X52.65098 Y39.37453
G01 X52.72142 Y39.36440
G01 X52.84446 Y39.32051
G01 X52.90008 Y39.27616
G01 X52.97555 Y39.18489
G01 X53.00585 Y39.11451
G01 X53.02497 Y39.00052
G01 X53.02497 Y24.99722
G01 X53.01926 Y24.94408
G01 X52.98477 Y24.83100
G01 X52.94753 Y24.77039
G01 X52.85137 Y24.68360
G01 X52.78002 Y24.64680
G01 X52.63783 Y24.66562
G01 X52.41113 Y24.71662
G01 X52.25916 Y24.72371
G01 X52.13458 Y24.71711
G01 X51.98269 Y24.68249
G01 X51.78771 Y24.59988
G01 X51.63542 Y24.49521
G01 X51.55038 Y24.41446
G01 X51.47169 Y24.32125
G01 X51.39000 Y24.19244
G01 X51.26308 Y23.87799
G01 X51.22693 Y23.81139
G01 X51.12693 Y23.75869
G01 X51.05818 Y23.74050
G01 X50.89097 Y23.75460
G01 X50.83829 Y23.77642
G01 X50.77652 Y23.82064
G01 X50.73247 Y23.90857
G01 X50.66465 Y24.09120
G01 X50.60814 Y24.21309
G01 X50.50474 Y24.36425
G01 X50.42521 Y24.44858
G01 X50.29879 Y24.55074
G01 X50.22193 Y24.59927
G01 X50.05302 Y24.67395
G01 X49.91149 Y24.70992
G01 X49.75465 Y24.72401
G01 X49.59458 Y24.71711
G01 X49.44269 Y24.68249
G01 X49.24771 Y24.59988
G01 X49.09542 Y24.49521
G01 X49.01038 Y24.41446
G01 X48.91414 Y24.29623
G01 X48.83646 Y24.16493
G01 X48.78457 Y24.04355
G01 X48.73791 Y23.85884
G01 X48.68523 Y23.70817
G01 X48.24497 Y23.26793
G01 X48.24497 Y22.58211
G01 X48.68498 Y22.14210
G01 X48.73903 Y21.99181
G01 X48.78612 Y21.80700
G01 X48.86103 Y21.63827
G01 X48.96522 Y21.48582
G01 X49.10969 Y21.33725
G01 X49.20553 Y21.21686
G01 X49.20245 Y21.07772
G01 X49.18452 Y21.00888
G01 X49.10603 Y20.89194
G01 X49.03646 Y20.83286
G01 X48.91530 Y20.78493
G01 X48.84693 Y20.77533
G01 X48.50748 Y20.77645
G01 X48.35856 Y20.81948
G01 X48.28495 Y20.87340
G01 X48.22044 Y20.94863
G01 X48.19588 Y20.98935
G01 X48.17723 Y21.04325
G01 X48.16268 Y21.14073
G01 X48.16232 Y21.18902
G01 X48.17248 Y21.24038
G01 X48.15587 Y21.25702
G01 X48.07578 Y21.17513
G01 X48.03669 Y21.14554
G01 X47.92056 Y21.09435
G01 X47.86392 Y21.08066
G01 X46.59578 Y21.07502
G01 X46.48633 Y21.08877
G01 X46.37043 Y21.13596
G01 X46.31419 Y21.17513
G01 X46.23408 Y21.25704
G01 X46.21414 Y21.23710
G01 X46.22748 Y21.14315
G01 X46.22006 Y21.07238
G01 X46.17503 Y20.96108
G01 X46.15044 Y20.92039
G01 X46.10406 Y20.87279
G01 X46.01361 Y20.81244
G01 X45.95859 Y20.78981
G01 X45.88303 Y20.77665
G01 X45.54318 Y20.77518
G01 X45.48166 Y20.78516
G01 X45.39532 Y20.81137
G01 X45.34145 Y20.84007
G01 X45.30299 Y20.87340
G01 X45.22771 Y20.96436
G01 X45.19337 Y21.05257
G01 X45.17983 Y21.15143
G01 X45.18460 Y21.21732
G01 X45.26535 Y21.31833
G01 X45.42555 Y21.48490
G01 X45.53055 Y21.63736
G01 X45.60452 Y21.80677
G01 X45.65229 Y21.99105
G01 X45.70497 Y22.14210
G01 X45.70492 Y23.70796
G01 X45.70497 Y22.14210
G01 X46.14498 Y22.58213
G01 X46.14498 Y23.26791
G01 X45.70492 Y23.70796
G01 X45.65166 Y23.85864
G01 X45.60157 Y24.05279
G01 X45.53007 Y24.21246
G01 X45.42524 Y24.36468
G01 X45.29484 Y24.49559
G01 X45.06174 Y24.66643
G01 X45.04216 Y24.75861
G01 X45.03523 Y24.84789
G01 X45.03523 Y27.03503
G01 X45.03220 Y27.08733
G01 X45.00612 Y27.18878
G01 X44.95257 Y27.27875
G01 X44.91801 Y27.31804
G01 X43.68519 Y28.55085
G01 X43.59566 Y28.66411
G01 X43.58903 Y29.25471
G01 X43.57518 Y29.36790
G01 X43.55397 Y29.43419
G01 X43.49713 Y29.53208
G01 X43.41664 Y29.61196
G01 X43.31930 Y29.66947
G01 X43.21372 Y29.70015
G01 X43.15535 Y29.70358
G01 X42.19007 Y29.70381
G01 X42.09784 Y29.69591
G01 X42.01123 Y29.66812
G01 X41.91324 Y29.61229
G01 X41.74445 Y29.43015
G01 X41.64732 Y29.41031
G01 X41.57130 Y29.40528
G01 X41.01057 Y29.40282
G01 X40.90122 Y29.37618
G01 X40.79736 Y29.31136
G01 X40.41652 Y28.93846
G01 X40.35926 Y28.89561
G01 X40.26023 Y28.88271
G01 X40.00692 Y28.88542
G01 X39.93704 Y28.89546
G01 X39.81863 Y28.93102
G01 X39.79000 Y28.93102
G01 X39.78997 Y28.95888
G01 X39.81863 Y28.93102
G01 X39.78997 Y28.95888
G01 X39.77445 Y29.00049
G01 X39.74659 Y29.12914
G01 X39.73016 Y29.30922
G01 X39.70298 Y29.36198
G01 X39.65843 Y29.40653
G01 X39.60222 Y29.43516
G01 X39.53996 Y29.44379
G01 X38.88998 Y29.44379
G01 X38.82772 Y29.43516
G01 X38.70961 Y29.36195
G01 X38.64809 Y29.30658
G01 X38.64182 Y29.27364
G01 X38.63999 Y27.71852
G01 X38.64725 Y27.65868
G01 X38.66861 Y27.60234
G01 X38.70285 Y27.55274
G01 X38.74796 Y27.51276
G01 X38.79201 Y27.48852
G01 X38.83999 Y27.47356
G01 X38.99000 Y27.46851
G01 X38.96239 Y27.45111
G01 X38.88393 Y27.33422
G01 X38.86597 Y27.26541
G01 X38.86259 Y27.17379
G01 X38.46907 Y27.56734
G01 X38.50374 Y27.62985
G01 X38.51980 Y27.70844
G01 X38.52000 Y29.24351
G01 X38.50862 Y29.31052
G01 X38.57837 Y29.29914
G01 X38.64809 Y29.30658
G01 X38.57837 Y29.29914
G01 X38.50862 Y29.31052
G01 X38.42366 Y29.38156
G01 X38.33138 Y29.43536
G01 X38.28571 Y29.44346
G01 X37.60425 Y29.44346
G01 X37.55770 Y29.43516
G01 X37.49386 Y29.40668
G01 X37.39219 Y29.34651
G01 X37.31231 Y29.35791
G01 X37.17916 Y29.41783
G01 X37.31231 Y29.35791
G01 X37.39219 Y29.34651
G01 X37.37504 Y29.29352
G01 X37.36999 Y29.24351
G01 X37.37080 Y27.69840
G01 X37.38284 Y27.63935
G01 X37.40870 Y27.58489
G01 X37.44680 Y27.53821
G01 X37.49658 Y27.50112
G01 X37.49999 Y27.38809
G01 X37.52495 Y27.29696
G01 X37.55134 Y27.23839
G01 X37.60682 Y27.15820
G01 X39.42571 Y25.35035
G01 X39.53084 Y25.29879
G01 X39.65530 Y25.27545
G01 X40.78855 Y25.27504
G01 X41.49416 Y24.56946
G01 X41.43742 Y24.52699
G01 X41.34395 Y24.43760
G01 X41.24290 Y24.30966
G01 X41.17913 Y24.20110
G01 X41.13211 Y24.09333
G01 X41.08766 Y23.94154
G01 X41.06505 Y23.73519
G01 X41.06988 Y22.03215
G01 X41.01817 Y22.06989
G01 X40.96231 Y22.09445
G01 X40.82373 Y22.11122
G01 X40.73950 Y22.09770
G01 X40.62439 Y22.03956
G01 X40.57133 Y21.93520
G01 X40.44890 Y21.63596
G01 X40.31636 Y21.45288
G01 X40.21499 Y21.35430
G01 X40.06272 Y21.24934
G01 X39.89330 Y21.17520
G01 X39.72218 Y21.13403
G01 X39.50519 Y21.12608
G01 X39.40275 Y21.13898
G01 X39.29122 Y21.16517
G01 X39.08736 Y21.24957
G01 X38.96625 Y21.33060
G01 X38.89643 Y21.38976
G01 X38.80384 Y21.48468
G01 X38.74047 Y21.57368
G01 X38.66752 Y21.70614
G01 X38.54944 Y21.99798
G01 X38.52993 Y22.03210
G01 X38.46930 Y22.07492
G01 X38.39257 Y22.10146
G01 X38.25520 Y22.10995
G01 X38.18175 Y22.09085
G01 X38.07928 Y22.03230
G01 X38.19056 Y22.09445
G01 X38.28373 Y22.11122
G01 X38.42231 Y22.09445
G01 X38.47817 Y22.06989
G01 X38.52993 Y22.03210
G01 X38.52991 Y23.82574
G01 X38.57057 Y24.03052
G01 X38.61421 Y24.14853
G01 X38.67679 Y24.26854
G01 X38.76983 Y24.39379
G01 X36.78858 Y26.37501
G01 X36.16578 Y26.37519
G01 X35.98815 Y26.41565
G01 X35.86296 Y26.50085
G01 X35.40489 Y26.95871
G01 X35.22443 Y26.78078
G01 X35.11627 Y26.71611
G01 X35.06560 Y26.69439
G01 X34.94419 Y26.67519
G01 X34.44729 Y26.67501
G01 X34.44297 Y26.41906
G01 X34.40792 Y26.29930
G01 X34.35968 Y26.21423
G01 X34.32715 Y26.17319
G01 X34.25636 Y26.10494
G01 X34.16222 Y26.04756
G01 X34.06949 Y26.01464
G01 X33.95509 Y26.00006
G01 X33.31071 Y26.00024
G01 X33.14848 Y26.03227
G01 X33.02537 Y26.09975
G01 X32.92778 Y26.19630
G01 X32.85742 Y26.32289
G01 X32.82852 Y26.44921
G01 X32.82519 Y27.76020
G01 X32.84897 Y27.89980
G01 X32.87373 Y27.96231
G01 X32.95908 Y28.09068
G01 X33.04206 Y28.16198
G01 X33.15191 Y28.21766
G01 X33.29936 Y28.24933
G01 X34.00073 Y28.24575
G01 X34.11993 Y28.22025
G01 X34.22519 Y28.16744
G01 X34.31815 Y28.08829
G01 X34.38094 Y28.00275
G01 X34.42587 Y27.90036
G01 X34.43921 Y27.85121
G01 X34.44988 Y27.75766
G01 X34.44998 Y27.57501
G01 X34.74858 Y27.57501
G01 X34.83634 Y27.66277
G01 X34.82999 Y27.71852
G01 X34.82999 Y29.24351
G01 X34.83987 Y29.31306
G01 X34.86870 Y29.37714
G01 X34.90680 Y29.42380
G01 X34.95498 Y29.46002
G01 X35.01043 Y29.48364
G01 X35.05986 Y29.49271
G01 X35.74005 Y29.49332
G01 X35.80916 Y29.48065
G01 X35.88018 Y29.44338
G01 X35.92364 Y29.40163
G01 X35.95135 Y29.35969
G01 X35.97274 Y29.30333
G01 X35.97980 Y29.25357
G01 X35.98000 Y27.71852
G01 X35.97365 Y27.66274
G01 X36.36141 Y27.27499
G01 X37.01421 Y27.27303
G01 X37.13039 Y27.24728
G01 X37.24299 Y27.18649
G01 X39.66595 Y24.77037
G01 X39.83275 Y24.74289
G01 X39.98670 Y24.69051
G01 X40.09226 Y24.63875
G01 X40.19787 Y24.57019
G01 X40.32038 Y24.46443
G01 X40.40407 Y24.36930
G01 X40.49221 Y24.23547
G01 X40.54108 Y24.13628
G01 X40.57588 Y24.04139
G01 X40.61072 Y23.89526
G01 X40.62396 Y23.76577
G01 X40.62441 Y22.09456
G01 X40.61776 Y22.02651
G01 X40.62614 Y22.04071
G01 X40.71309 Y22.08691
G01 X40.79520 Y22.10995
G01 X40.94258 Y22.09953
G01 X41.02680 Y22.06448
G01 X41.06988 Y22.03215
G01 X41.09091 Y21.99395
G01 X41.24044 Y21.63624
G01 X41.34435 Y21.48511
G01 X41.45576 Y21.37147
G01 X41.57851 Y21.28066
G01 X41.68888 Y21.22006
G01 X41.79650 Y21.17477
G01 X41.91908 Y21.14401
G01 X42.01954 Y21.12821
G01 X42.25537 Y21.13291
G01 X42.43330 Y21.17520
G01 X42.60247 Y21.24980
G01 X42.75230 Y21.35216
G01 X42.88611 Y21.48468
G01 X42.98905 Y21.63586
G01 X43.11016 Y21.93586
G01 X43.15819 Y22.03332
G01 X43.17432 Y22.04561
G01 X43.27950 Y22.09770
G01 X43.37325 Y22.11094
G01 X43.51201 Y22.09133
G01 X43.55817 Y22.06989
G01 X43.61016 Y22.03194
G01 X43.55817 Y22.06989
G01 X43.51201 Y22.09133
G01 X43.36414 Y22.11122
G01 X43.27056 Y22.09445
G01 X43.16055 Y22.03708
G01 X43.16226 Y23.79966
G01 X42.98921 Y24.21368
G01 X42.88486 Y24.36435
G01 X42.82423 Y24.42983
G01 X42.70907 Y24.52968
G01 X42.50945 Y24.66328
G01 X42.43531 Y24.81477
G01 X42.38486 Y24.88101
G01 X41.21921 Y26.04334
G01 X41.12838 Y26.09541
G01 X41.02736 Y26.12282
G01 X39.97509 Y26.12528
G01 X39.84669 Y26.13961
G01 X39.76579 Y26.20224
G01 X38.96353 Y27.00834
G01 X38.92124 Y27.06485
G01 X38.85970 Y27.17920
G01 X38.86732 Y27.27552
G01 X38.88017 Y27.32475
G01 X38.90831 Y27.37887
G01 X38.97227 Y27.46246
G01 X39.07946 Y27.49899
G01 X39.22155 Y27.51812
G01 X39.55561 Y27.51857
G01 X39.60224 Y27.52690
G01 X39.65840 Y27.55553
G01 X39.70298 Y27.60008
G01 X39.73160 Y27.65627
G01 X39.75441 Y27.88398
G01 X39.79000 Y28.00244
G01 X39.79000 Y28.03196
G01 X39.81901 Y28.03206
G01 X39.79173 Y28.00826
G01 X39.75441 Y27.88398
G01 X39.79648 Y28.01253
G01 X39.81901 Y28.03206
G01 X39.85901 Y28.04705
G01 X39.96846 Y28.07356
G01 X40.06447 Y28.08177
G01 X40.58339 Y28.08294
G01 X40.63762 Y28.09581
G01 X40.69325 Y28.11451
G01 X40.77532 Y28.16259
G01 X41.12579 Y28.50983
G01 X41.22665 Y28.59043
G01 X41.33353 Y28.60419
G01 X41.61725 Y28.60214
G01 X41.75149 Y28.57935
G01 X41.91745 Y28.39419
G01 X42.09248 Y28.26602
G01 X42.12202 Y28.17562
G01 X42.11918 Y28.03734
G01 X42.10648 Y27.98807
G01 X42.08405 Y27.94237
G01 X42.00932 Y27.84026
G01 X41.87849 Y27.75065
G01 X41.79510 Y27.66724
G01 X41.75672 Y27.60503
G01 X41.82947 Y27.70112
G01 X41.94008 Y27.78720
G01 X41.99774 Y27.81512
G01 X42.12378 Y27.85037
G01 X43.18128 Y27.85233
G01 X43.32682 Y27.76975
G01 X43.44267 Y27.67466
G01 X43.54412 Y27.55667
G01 X43.63655 Y27.39719
G01 X44.18499 Y26.84862
G01 X44.18499 Y26.68436
G01 X44.18499 Y26.84862
G01 X43.63655 Y27.39719
G01 X43.57305 Y27.51400
G01 X43.47813 Y27.63811
G01 X43.41105 Y27.70379
G01 X43.32682 Y27.76975
G01 X43.18128 Y27.85233
G01 X42.77859 Y28.25502
G01 X42.17468 Y28.25527
G01 X42.08479 Y28.27194
G01 X42.17468 Y28.25527
G01 X42.77859 Y28.25502
G01 X43.18128 Y27.85233
G01 X43.32682 Y27.76975
G01 X43.44267 Y27.67466
G01 X43.54412 Y27.55667
G01 X43.60521 Y27.45982
G01 X43.63665 Y27.39691
G01 X43.63990 Y26.84852
G01 X43.62769 Y26.74545
G01 X43.59700 Y26.65284
G01 X43.52446 Y26.53536
G01 X43.43198 Y26.44916
G01 X43.31946 Y26.38845
G01 X43.16497 Y26.35502
G01 X43.24003 Y26.36145
G01 X43.35270 Y26.39879
G01 X43.45220 Y26.46015
G01 X43.53485 Y26.54281
G01 X43.59698 Y26.64321
G01 X43.63124 Y26.68426
G01 X43.71366 Y26.75609
G01 X43.78689 Y26.79117
G01 X43.91610 Y26.81222
G01 X43.99672 Y26.80214
G01 X44.13393 Y26.73892
G01 X44.17785 Y26.69940
G01 X44.19192 Y26.66976
G01 X44.23071 Y26.50742
G01 X44.23472 Y26.43938
G01 X44.23472 Y24.82051
G01 X44.21120 Y24.64624
G01 X44.01450 Y24.49587
G01 X43.92238 Y24.40626
G01 X43.85093 Y24.32023
G01 X43.77988 Y24.21325
G01 X43.65908 Y23.91449
G01 X43.60681 Y23.81132
G01 X43.49746 Y23.75490
G01 X43.40765 Y23.73882
G01 X43.26185 Y23.75739
G01 X43.21006 Y23.78119
G01 X43.16002 Y23.81792
G01 X43.21829 Y23.77642
G01 X43.27097 Y23.75460
G01 X43.41786 Y23.73898
G01 X43.50693 Y23.75869
G01 X43.60373 Y23.80931
G01 X43.61420 Y23.82595
G01 X43.60505 Y23.73496
G01 X43.60782 Y22.04932
G01 X43.77846 Y21.64030
G01 X43.88384 Y21.48468
G01 X44.01529 Y21.35473
G01 X44.06309 Y21.31894
G01 X44.16817 Y21.25105
G01 X44.33586 Y21.17276
G01 X44.46754 Y21.09435
G01 X44.64750 Y21.07505
G01 X44.85316 Y21.09397
G01 X45.02260 Y21.14157
G01 X45.18844 Y21.22247
G01 X45.02260 Y21.14157
G01 X44.85316 Y21.09397
G01 X44.63876 Y21.07528
G01 X44.46754 Y21.09435
G01 X44.45095 Y21.10617
G01 X44.47196 Y21.09120
G01 X44.49045 Y21.05051
G01 X44.51874 Y20.95669
G01 X44.52497 Y20.90124
G01 X44.52497 Y5.57033
G01 X44.51925 Y5.51719
G01 X44.48910 Y5.41483
G01 X44.47020 Y5.37724
G01 X44.33063 Y5.29652
G01 X44.16754 Y5.22017
G01 X44.05253 Y5.14381
G01 X43.95286 Y5.05707
G01 X43.88471 Y4.98466
G01 X43.78105 Y4.83409
G01 X43.64308 Y4.49799
G01 X43.60693 Y4.43140
G01 X43.49746 Y4.37491
G01 X43.40765 Y4.35883
G01 X43.26185 Y4.37739
G01 X43.21006 Y4.40119
G01 X43.15652 Y4.44064
G01 X43.11247 Y4.52858
G01 X43.04465 Y4.71118
G01 X42.98814 Y4.83307
G01 X42.88474 Y4.98425
G01 X42.75405 Y5.11466
G01 X42.64595 Y5.19279
G01 X42.51082 Y5.26325
G01 X42.43302 Y5.29395
G01 X42.25090 Y5.33665
G01 X42.13465 Y5.34402
G01 X41.97458 Y5.33711
G01 X41.82269 Y5.30249
G01 X41.64156 Y5.22756
G01 X41.53851 Y5.16223
G01 X41.47542 Y5.11521
G01 X41.34471 Y4.98466
G01 X41.24105 Y4.83409
G01 X41.10308 Y4.49799
G01 X41.06693 Y4.43140
G01 X40.95746 Y4.37491
G01 X40.86765 Y4.35883
G01 X40.72185 Y4.37739
G01 X40.67006 Y4.40119
G01 X40.61652 Y4.44064
G01 X40.57247 Y4.52858
G01 X40.50465 Y4.71118
G01 X40.44814 Y4.83307
G01 X40.34474 Y4.98425
G01 X40.21405 Y5.11466
G01 X40.06193 Y5.21928
G01 X39.93559 Y5.27821
G01 X39.78952 Y5.32167
G01 X39.71090 Y5.33665
G01 X39.59465 Y5.34402
G01 X39.40135 Y5.33068
G01 X39.25645 Y5.29533
G01 X39.10156 Y5.22756
G01 X38.99851 Y5.16223
G01 X38.93542 Y5.11521
G01 X38.80471 Y4.98466
G01 X38.70105 Y4.83409
G01 X38.56308 Y4.49799
G01 X38.52693 Y4.43140
G01 X38.41746 Y4.37491
G01 X38.32765 Y4.35883
G01 X38.18185 Y4.37739
G01 X38.13006 Y4.40119
G01 X38.07652 Y4.44064
G01 X38.03247 Y4.52858
G01 X37.94936 Y4.74745
G01 X37.90814 Y4.83307
G01 X37.85061 Y4.92349
G01 X37.75325 Y5.04072
G01 X37.67405 Y5.11466
G01 X37.52193 Y5.21928
G01 X37.35302 Y5.29395
G01 X37.17090 Y5.33665
G01 X37.05465 Y5.34402
G01 X36.89458 Y5.33711
G01 X36.74269 Y5.30249
G01 X36.56156 Y5.22756
G01 X36.45851 Y5.16223
G01 X36.39542 Y5.11521
G01 X36.26471 Y4.98466
G01 X36.15993 Y4.83239
G01 X36.08841 Y4.67280
G01 X36.03791 Y4.47884
G01 X35.98523 Y4.32817
G01 X35.54497 Y3.88794
G01 X35.54497 Y3.20211
G01 X35.98498 Y2.76211
G01 X36.03903 Y2.61182
G01 X36.08612 Y2.42701
G01 X36.17169 Y2.22688
G01 X36.21218 Y2.09797
G01 X36.29900 Y1.99620
G01 X36.44012 Y1.88096
G01 X36.63339 Y1.77489
G01 X36.84406 Y1.71286
G01 X37.05485 Y1.69579
G01 X37.20085 Y1.70819
G01 X37.37631 Y1.75271
G01 X37.51632 Y1.81184
G01 X37.63743 Y1.88571
G01 X37.78396 Y2.00910
G01 X37.88759 Y2.13216
G01 X37.96156 Y2.25225
G01 X38.03763 Y2.43506
G01 X38.07055 Y2.57140
G01 X38.08462 Y2.71669
G01 X38.08500 Y4.34498
G01 X38.07652 Y4.44064
G01 X38.13006 Y4.40119
G01 X38.18185 Y4.37739
G01 X38.32765 Y4.35883
G01 X38.41746 Y4.37491
G01 X38.51558 Y4.42441
G01 X38.53112 Y4.43914
G01 X38.52523 Y4.36541
G01 X38.52513 Y2.73656
G01 X38.54751 Y2.52876
G01 X38.60781 Y2.33640
G01 X38.70390 Y2.15883
G01 X38.81878 Y2.01779
G01 X39.02124 Y1.85390
G01 X39.18223 Y1.77128
G01 X39.37448 Y1.71438
G01 X39.57707 Y1.69503
G01 X39.75993 Y1.71200
G01 X39.89767 Y1.74583
G01 X40.03831 Y1.80349
G01 X40.19388 Y1.89681
G01 X40.33734 Y2.02378
G01 X40.42759 Y2.13216
G01 X40.51502 Y2.27750
G01 X40.57763 Y2.43506
G01 X40.61055 Y2.57140
G01 X40.62462 Y2.71669
G01 X40.62500 Y4.34498
G01 X40.61652 Y4.44064
G01 X40.67006 Y4.40119
G01 X40.72185 Y4.37739
G01 X40.86765 Y4.35883
G01 X40.95746 Y4.37491
G01 X41.05558 Y4.42441
G01 X41.07112 Y4.43914
G01 X41.06523 Y4.36541
G01 X41.06513 Y2.73656
G01 X41.08751 Y2.52876
G01 X41.14781 Y2.33640
G01 X41.24390 Y2.15883
G01 X41.35878 Y2.01779
G01 X41.55261 Y1.85865
G01 X41.72223 Y1.77128
G01 X41.90496 Y1.71626
G01 X42.10816 Y1.69510
G01 X42.28085 Y1.70819
G01 X42.43767 Y1.74583
G01 X42.57831 Y1.80349
G01 X42.73388 Y1.89681
G01 X42.87734 Y2.02378
G01 X42.96759 Y2.13216
G01 X43.05085 Y2.26892
G01 X43.11763 Y2.43506
G01 X43.15055 Y2.57140
G01 X43.16424 Y2.70877
G01 X43.16500 Y4.34498
G01 X43.15652 Y4.44064
G01 X43.21006 Y4.40119
G01 X43.26185 Y4.37739
G01 X43.40765 Y4.35883
G01 X43.49746 Y4.37491
G01 X43.59558 Y4.42441
G01 X43.61112 Y4.43914
G01 X43.60523 Y4.36541
G01 X43.60498 Y2.74506
G01 X43.62984 Y2.51918
G01 X43.69649 Y2.31870
G01 X43.78390 Y2.15883
G01 X43.89878 Y2.01779
G01 X44.07592 Y1.86917
G01 X44.28026 Y1.76508
G01 X44.45448 Y1.71438
G01 X44.64816 Y1.69510
G01 X44.82085 Y1.70819
G01 X44.96817 Y1.74293
G01 X45.13632 Y1.81184
G01 X45.26576 Y1.89109
G01 X45.39682 Y2.00216
G01 X45.47528 Y2.09264
G01 X45.48585 Y2.03247
G01 X45.50891 Y1.97598
G01 X45.60381 Y1.86104
G01 X45.68437 Y1.81139
G01 X45.81953 Y1.77636
G01 X46.00439 Y1.77694
G01 X46.06751 Y1.78665
G01 X46.12293 Y1.80620
G01 X46.22905 Y1.87290
G01 X46.40881 Y2.05175
G01 X46.53271 Y1.93031
G01 X46.67894 Y1.83163
G01 X46.86715 Y1.74849
G01 X47.08719 Y1.70062
G01 X47.30279 Y1.70062
G01 X47.49506 Y1.73887
G01 X47.68559 Y1.81672
G01 X47.85727 Y1.93031
G01 X47.98226 Y2.05281
G01 X48.17622 Y1.86099
G01 X48.23923 Y1.81878
G01 X48.38178 Y1.77740
G01 X48.56788 Y1.77616
G01 X48.63974 Y1.78662
G01 X48.69471 Y1.80592
G01 X48.78729 Y1.86363
G01 X48.83220 Y1.90404
G01 X48.86611 Y1.95403
G01 X48.91327 Y2.06292
G01 X48.91711 Y2.07875
G01 X48.89892 Y2.14959
G01 X48.91218 Y2.09797
G01 X48.99196 Y2.00313
G01 X49.18124 Y1.85390
G01 X49.34223 Y1.77128
G01 X49.51553 Y1.71852
G01 X49.75485 Y1.69579
G01 X49.90085 Y1.70819
G01 X50.05767 Y1.74583
G01 X50.21632 Y1.81184
G01 X50.33743 Y1.88571
G01 X50.49734 Y2.02378
G01 X50.58759 Y2.13216
G01 X50.67085 Y2.26892
G01 X50.73763 Y2.43506
G01 X50.77055 Y2.57140
G01 X50.78462 Y2.71669
G01 X50.78500 Y4.34498
G01 X50.76719 Y4.53208
G01 X50.70598 Y4.74455
G01 X50.60608 Y4.93122
G01 X50.47801 Y5.08689
G01 X50.32206 Y5.21511
G01 X50.13659 Y5.31514
G01 X49.92592 Y5.37716
G01 X49.72402 Y5.39477
G01 X49.56913 Y5.38184
G01 X49.42181 Y5.34709
G01 X49.25366 Y5.27818
G01 X49.10055 Y5.18085
G01 X48.98602 Y5.08092
G01 X48.89410 Y4.97290
G01 X48.79496 Y4.81252
G01 X48.73235 Y4.65497
G01 X48.69943 Y4.51862
G01 X48.68574 Y4.38126
G01 X48.68498 Y2.76211
G01 X48.73903 Y2.61182
G01 X48.78612 Y2.42701
G01 X48.89892 Y2.14959
G01 X48.78612 Y2.42701
G01 X48.73903 Y2.61182
G01 X48.68498 Y2.76211
G01 X48.24497 Y3.20211
G01 X48.24485 Y4.95324
G01 X48.22851 Y5.06243
G01 X48.16354 Y5.20305
G01 X48.07578 Y5.29489
G01 X48.03669 Y5.32448
G01 X47.92110 Y5.37549
G01 X47.86773 Y5.38887
G01 X47.79499 Y5.39502
G01 X46.58676 Y5.39487
G01 X46.47757 Y5.37854
G01 X46.37927 Y5.33835
G01 X46.32913 Y5.30764
G01 X46.22082 Y5.19500
G01 X46.16146 Y5.06243
G01 X46.14498 Y4.94501
G01 X46.14498 Y3.20214
G01 X45.70472 Y2.76188
G01 X45.65204 Y2.61121
G01 X45.60475 Y2.42436
G01 X45.52672 Y2.24636
G01 X45.47528 Y2.09264
G01 X45.52672 Y2.24636
G01 X45.60475 Y2.42436
G01 X45.65204 Y2.61121
G01 X45.70472 Y2.76188
G01 X45.70500 Y4.34498
G01 X45.67741 Y4.58032
G01 X45.62217 Y4.75362
G01 X45.52054 Y4.93937
G01 X45.39098 Y5.09383
G01 X45.23406 Y5.22085
G01 X45.05659 Y5.31514
G01 X44.86502 Y5.37376
G01 X44.66182 Y5.39492
G01 X44.47180 Y5.37841
( Mill infeed pass 2/5 )
G00 Z0.50000 ( retract )
G00 X3.00691 Y1.96429 ( rapid move to begin. )
G01 Z-0.06000
G04 P0 ( dwell for no time -- G64 should not smooth over this point )
G01 F50.00000
G01 X3.00691 Y1.96429
G01 X3.05235 Y1.87915
G01 X3.14913 Y1.78238
G01 X3.19043 Y1.75596
G01 X3.28034 Y1.71789
G01 X3.35637 Y1.69965
G01 X4.67361 Y1.69965
G01 X4.73122 Y1.71111
G01 X4.83071 Y1.75167
G01 X4.90287 Y1.80194
G01 X4.97137 Y1.87156
G01 X5.00404 Y1.92045
G01 X5.05123 Y2.03635
G01 X5.06444 Y2.12858
G01 X5.06497 Y4.34501
G01 X5.05926 Y4.44821
G01 X5.12017 Y4.40465
G01 X5.17287 Y4.38283
G01 X5.34011 Y4.36871
G01 X5.40889 Y4.38689
G01 X5.50574 Y4.43757
G01 X5.54094 Y4.49820
G01 X5.50820 Y4.43919
G01 X5.41819 Y4.39109
G01 X5.36025 Y4.37188
G01 X5.29939 Y4.36731
G01 X5.20074 Y4.37656
G01 X5.15476 Y4.38875
G01 X5.10389 Y4.41453
G01 X5.05926 Y4.44821
G01 X5.04135 Y4.47900
G01 X4.90920 Y4.80025
G01 X4.80894 Y4.95819
G01 X4.77125 Y5.00411
G01 X4.66688 Y5.10782
G01 X4.51384 Y5.21537
G01 X4.46147 Y5.24336
G01 X4.28705 Y5.31084
G01 X4.09337 Y5.34536
G01 X3.88715 Y5.34003
G01 X3.74290 Y5.31084
G01 X3.56848 Y5.24336
G01 X3.40181 Y5.13899
G01 X3.25218 Y4.99693
G01 X3.13968 Y4.83561
G01 X3.06076 Y4.65535
G01 X3.01855 Y4.46330
G01 X3.01415 Y2.14951
G01 X3.00676 Y1.95838
G01 X2.96838 Y1.90755
G01 X2.88570 Y1.83579
G01 X2.84456 Y1.81106
G01 X2.79010 Y1.79244
G01 X2.69439 Y1.77567
G01 X2.19836 Y1.77552
G01 X2.12792 Y1.78566
G01 X2.00834 Y1.82751
G01 X1.95533 Y1.86760
G01 X1.87804 Y1.95860
G01 X1.84430 Y2.03242
G01 X1.82431 Y2.15789
G01 X1.77753 Y27.70034
G01 X1.78517 Y27.76218
G01 X1.82625 Y27.88502
G01 X1.87544 Y27.94964
G01 X1.97486 Y28.03028
G01 X2.03706 Y28.05573
G01 X2.15154 Y28.07504
G01 X23.02498 Y28.07504
G01 X23.02641 Y28.31771
G01 X23.06504 Y28.45685
G01 X23.11498 Y28.53183
G01 X23.27543 Y28.67122
G01 X23.30842 Y28.72835
G01 X23.32547 Y28.79203
G01 X23.32610 Y39.01837
G01 X23.36181 Y39.15731
G01 X23.38483 Y39.20270
G01 X23.41655 Y39.24250
G01 X23.49161 Y39.30839
G01 X23.54037 Y39.33900
G01 X23.58549 Y39.35540
G01 X23.68165 Y39.37390
G01 X52.65098 Y39.37453
G01 X52.72142 Y39.36440
G01 X52.84446 Y39.32051
G01 X52.90008 Y39.27616
G01 X52.97555 Y39.18489
G01 X53.00585 Y39.11451
G01 X53.02497 Y39.00052
G01 X53.02497 Y24.99722
G01 X53.01926 Y24.94408
G01 X52.98477 Y24.83100
G01 X52.94753 Y24.77039
G01 X52.85137 Y24.68360
G01 X52.78002 Y24.64680
G01 X52.63783 Y24.66562
G01 X52.41113 Y24.71662
G01 X52.25916 Y24.72371
G01 X52.13458 Y24.71711
G01 X51.98269 Y24.68249
G01 X51.78771 Y24.59988
G01 X51.63542 Y24.49521
G01 X51.55038 Y24.41446
G01 X51.47169 Y24.32125
G01 X51.39000 Y24.19244
G01 X51.26308 Y23.87799
G01 X51.22693 Y23.81139
G01 X51.12693 Y23.75869
G01 X51.05818 Y23.74050
G01 X50.89097 Y23.75460
G01 X50.83829 Y23.77642
G01 X50.77652 Y23.82064
G01 X50.73247 Y23.90857
G01 X50.66465 Y24.09120
G01 X50.60814 Y24.21309
G01 X50.50474 Y24.36425
G01 X50.42521 Y24.44858
G01 X50.29879 Y24.55074
G01 X50.22193 Y24.59927
G01 X50.05302 Y24.67395
G01 X49.91149 Y24.70992
G01 X49.75465 Y24.72401
G01 X49.59458 Y24.71711
G01 X49.44269 Y24.68249
G01 X49.24771 Y24.59988
G01 X49.09542 Y24.49521
G01 X49.01038 Y24.41446
G01 X48.91414 Y24.29623
G01 X48.83646 Y24.16493
G01 X48.78457 Y24.04355
G01 X48.73791 Y23.85884
G01 X48.68523 Y23.70817
G01 X48.24497 Y23.26793
G01 X48.24497 Y22.58211
G01 X48.68498 Y22.14210
G01 X48.73903 Y21.99181
G01 X48.78612 Y21.80700
G01 X48.86103 Y21.63827
G01 X48.96522 Y21.48582
G01 X49.10969 Y21.33725
G01 X49.20553 Y21.21686
G01 X49.20245 Y21.07772
G01 X49.18452 Y21.00888
G01 X49.10603 Y20.89194
G01 X49.03646 Y20.83286
G01 X48.91530 Y20.78493
G01 X48.84693 Y20.77533
G01 X48.50748 Y20.77645
G01 X48.35856 Y20.81948
G01 X48.28495 Y20.87340
G01 X48.22044 Y20.94863
G01 X48.19588 Y20.98935
G01 X48.17723 Y21.04325
G01 X48.16268 Y21.14073
G01 X48.16232 Y21.18902
G01 X48.17248 Y21.24038
G01 X48.15587 Y21.25702
G01 X48.07578 Y21.17513
G01 X48.03669 Y21.14554
G01 X47.92056 Y21.09435
G01 X47.86392 Y21.08066
G01 X46.59578 Y21.07502
G01 X46.48633 Y21.08877
G01 X46.37043 Y21.13596
G01 X46.31419 Y21.17513
G01 X46.23408 Y21.25704
G01 X46.21414 Y21.23710
G01 X46.22748 Y21.14315
G01 X46.22006 Y21.07238
G01 X46.17503 Y20.96108
G01 X46.15044 Y20.92039
G01 X46.10406 Y20.87279
G01 X46.01361 Y20.81244
G01 X45.95859 Y20.78981
G01 X45.88303 Y20.77665
G01 X45.54318 Y20.77518
G01 X45.48166 Y20.78516
G01 X45.39532 Y20.81137
G01 X45.34145 Y20.84007
G01 X45.30299 Y20.87340
G01 X45.22771 Y20.96436
G01 X45.19337 Y21.05257
G01 X45.17983 Y21.15143
G01 X45.18460 Y21.21732
G01 X45.26535 Y21.31833
G01 X45.42555 Y21.48490
G01 X45.53055 Y21.63736
G01 X45.60452 Y21.80677
G01 X45.65229 Y21.99105
G01 X45.70497 Y22.14210
G01 X45.70492 Y23.70796
G01 X45.70497 Y22.14210
G01 X46.14498 Y22.58213
G01 X46.14498 Y23.26791
G01 X45.70492 Y23.70796
G01 X45.65166 Y23.85864
G01 X45.60157 Y24.05279
G01 X45.53007 Y24.21246
G01 X45.42524 Y24.36468
G01 X45.29484 Y24.49559
G01 X45.06174 Y24.66643
G01 X45.04216 Y24.75861
G01 X45.03523 Y24.84789
G01 X45.03523 Y27.03503
G01 X45.03220 Y27.08733
G01 X45.00612 Y27.18878
G01 X44.95257 Y27.27875
G01 X44.91801 Y27.31804
G01 X43.68519 Y28.55085
G01 X43.59566 Y28.66411
G01 X43.58903 Y29.25471
G01 X43.57518 Y29.36790
G01 X43.55397 Y29.43419
G01 X43.49713 Y29.53208
G01 X43.41664 Y29.61196
G01 X43.31930 Y29.66947
G01 X43.21372 Y29.70015
G01 X43.15535 Y29.70358
G01 X42.19007 Y29.70381
G01 X42.09784 Y29.69591
G01 X42.01123 Y29.66812
G01 X41.91324 Y29.61229
G01 X41.74445 Y29.43015
G01 X41.64732 Y29.41031
G01 X41.57130 Y29.40528
G01 X41.01057 Y29.40282
G01 X40.90122 Y29.37618
G01 X40.79736 Y29.31136
G01 X40.41652 Y28.93846
G01 X40.35926 Y28.89561
G01 X40.26023 Y28.88271
G01 X40.00692 Y28.88542
G01 X39.93704 Y28.89546
G01 X39.81863 Y28.93102
G01 X39.79000 Y28.93102
G01 X39.78997 Y28.95888
G01 X39.81863 Y28.93102
G01 X39.78997 Y28.95888
G01 X39.77445 Y29.00049
G01 X39.74659 Y29.12914
G01 X39.73016 Y29.30922
G01 X39.70298 Y29.36198
G01 X39.65843 Y29.40653
G01 X39.60222 Y29.43516
G01 X39.53996 Y29.44379
G01 X38.88998 Y29.44379
G01 X38.82772 Y29.43516
G01 X38.70961 Y29.36195
G01 X38.64809 Y29.30658
G01 X38.64182 Y29.27364
G01 X38.63999 Y27.71852
G01 X38.64725 Y27.65868
G01 X38.66861 Y27.60234
G01 X38.70285 Y27.55274
G01 X38.74796 Y27.51276
G01 X38.79201 Y27.48852
G01 X38.83999 Y27.47356
G01 X38.99000 Y27.46851
G01 X38.96239 Y27.45111
G01 X38.88393 Y27.33422
G01 X38.86597 Y27.26541
G01 X38.86259 Y27.17379
G01 X38.46907 Y27.56734
G01 X38.50374 Y27.62985
G01 X38.51980 Y27.70844
G01 X38.52000 Y29.24351
G01 X38.50862 Y29.31052
G01 X38.57837 Y29.29914
G01 X38.64809 Y29.30658
G01 X38.57837 Y29.29914
G01 X38.50862 Y29.31052
G01 X38.42366 Y29.38156
G01 X38.33138 Y29.43536
G01 X38.28571 Y29.44346
G01 X37.60425 Y29.44346
G01 X37.55770 Y29.43516
G01 X37.49386 Y29.40668
G01 X37.39219 Y29.34651
G01 X37.31231 Y29.35791
G01 X37.17916 Y29.41783
G01 X37.31231 Y29.35791
G01 X37.39219 Y29.34651
G01 X37.37504 Y29.29352
G01 X37.36999 Y29.24351
G01 X37.37080 Y27.69840
G01 X37.38284 Y27.63935
G01 X37.40870 Y27.58489
G01 X37.44680 Y27.53821
G01 X37.49658 Y27.50112
G01 X37.49999 Y27.38809
G01 X37.52495 Y27.29696
G01 X37.55134 Y27.23839
G01 X37.60682 Y27.15820
G01 X39.42571 Y25.35035
G01 X39.53084 Y25.29879
G01 X39.65530 Y25.27545
G01 X40.78855 Y25.27504
G01 X41.49416 Y24.56946
G01 X41.43742 Y24.52699
G01 X41.34395 Y24.43760
G01 X41.24290 Y24.30966
G01 X41.17913 Y24.20110
G01 X41.13211 Y24.09333
G01 X41.08766 Y23.94154
G01 X41.06505 Y23.73519
G01 X41.06988 Y22.03215
G01 X41.01817 Y22.06989
G01 X40.96231 Y22.09445
G01 X40.82373 Y22.11122
G01 X40.73950 Y22.09770
G01 X40.62439 Y22.03956
G01 X40.57133 Y21.93520
G01 X40.44890 Y21.63596
G01 X40.31636 Y21.45288
G01 X40.21499 Y21.35430
G01 X40.06272 Y21.24934
G01 X39.89330 Y21.17520
G01 X39.72218 Y21.13403
G01 X39.50519 Y21.12608
G01 X39.40275 Y21.13898
G01 X39.29122 Y21.16517
G01 X39.08736 Y21.24957
G01 X38.96625 Y21.33060
G01 X38.89643 Y21.38976
G01 X38.80384 Y21.48468
G01 X38.74047 Y21.57368
G01 X38.66752 Y21.70614
G01 X38.54944 Y21.99798
G01 X38.52993 Y22.03210
G01 X38.46930 Y22.07492
G01 X38.39257 Y22.10146
G01 X38.25520 Y22.10995
G01 X38.18175 Y22.09085
G01 X38.07928 Y22.03230
G01 X38.19056 Y22.09445
G01 X38.28373 Y22.11122
G01 X38.42231 Y22.09445
G01 X38.47817 Y22.06989
G01 X38.52993 Y22.03210
G01 X38.52991 Y23.82574
G01 X38.57057 Y24.03052
G01 X38.61421 Y24.14853
G01 X38.67679 Y24.26854
G01 X38.76983 Y24.39379
G01 X36.78858 Y26.37501
G01 X36.16578 Y26.37519
G01 X35.98815 Y26.41565
G01 X35.86296 Y26.50085
G01 X35.40489 Y26.95871
G01 X35.22443 Y26.78078
G01 X35.11627 Y26.71611
G01 X35.06560 Y26.69439
G01 X34.94419 Y26.67519
G01 X34.44729 Y26.67501
G01 X34.44297 Y26.41906
G01 X34.40792 Y26.29930
G01 X34.35968 Y26.21423
G01 X34.32715 Y26.17319
G01 X34.25636 Y26.10494
G01 X34.16222 Y26.04756
G01 X34.06949 Y26.01464
G01 X33.95509 Y26.00006
G01 X33.31071 Y26.00024
G01 X33.14848 Y26.03227
G01 X33.02537 Y26.09975
G01 X32.92778 Y26.19630
G01 X32.85742 Y26.32289
G01 X32.82852 Y26.44921
G01 X32.82519 Y27.76020
G01 X32.84897 Y27.89980
G01 X32.87373 Y27.96231
G01 X32.95908 Y28.09068
G01 X33.04206 Y28.16198
G01 X33.15191 Y28.21766
G01 X33.29936 Y28.24933
G01 X34.00073 Y28.24575
G01 X34.11993 Y28.22025
G01 X34.22519 Y28.16744
G01 X34.31815 Y28.08829
G01 X34.38094 Y28.00275
G01 X34.42587 Y27.90036
G01 X34.43921 Y27.85121
G01 X34.44988 Y27.75766
G01 X34.44998 Y27.57501
G01 X34.74858 Y27.57501
G01 X34.83634 Y27.66277
G01 X34.82999 Y27.71852
G01 X34.82999 Y29.24351
G01 X34.83987 Y29.31306
G01 X34.86870 Y29.37714
G01 X34.90680 Y29.42380
G01 X34.95498 Y29.46002
G01 X35.01043 Y29.48364
G01 X35.05986 Y29.49271
G01 X35.74005 Y29.49332
G01 X35.80916 Y29.48065
G01 X35.88018 Y29.44338
G01 X35.92364 Y29.40163
G01 X35.95135 Y29.35969
G01 X35.97274 Y29.30333
G01 X35.97980 Y29.25357
G01 X35.98000 Y27.71852
G01 X35.97365 Y27.66274
G01 X36.36141 Y27.27499
G01 X37.01421 Y27.27303
G01 X37.13039 Y27.24728
G01 X37.24299 Y27.18649
G01 X39.66595 Y24.77037
G01 X39.83275 Y24.74289
G01 X39.98670 Y24.69051
G01 X40.09226 Y24.63875
G01 X40.19787 Y24.57019
G01 X40.32038 Y24.46443
G01 X40.40407 Y24.36930
G01 X40.49221 Y24.23547
G01 X40.54108 Y24.13628
G01 X40.57588 Y24.04139
G01 X40.61072 Y23.89526
G01 X40.62396 Y23.76577
G01 X40.62441 Y22.09456
G01 X40.61776 Y22.02651
G01 X40.62614 Y22.04071
G01 X40.71309 Y22.08691
G01 X40.79520 Y22.10995
G01 X40.94258 Y22.09953
G01 X41.02680 Y22.06448
G01 X41.06988 Y22.03215
G01 X41.09091 Y21.99395
G01 X41.24044 Y21.63624
G01 X41.34435 Y21.48511
G01 X41.45576 Y21.37147
G01 X41.57851 Y21.28066
G01 X41.68888 Y21.22006
G01 X41.79650 Y21.17477
G01 X41.91908 Y21.14401
G01 X42.01954 Y21.12821
G01 X42.25537 Y21.13291
G01 X42.43330 Y21.17520
G01 X42.60247 Y21.24980
G01 X42.75230 Y21.35216
G01 X42.88611 Y21.48468
G01 X42.98905 Y21.63586
G01 X43.11016 Y21.93586
G01 X43.15819 Y22.03332
G01 X43.17432 Y22.04561
G01 X43.27950 Y22.09770
G01 X43.37325 Y22.11094
G01 X43.51201 Y22.09133
G01 X43.55817 Y22.06989
G01 X43.61016 Y22.03194
G01 X43.55817 Y22.06989
G01 X43.51201 Y22.09133
G01 X43.36414 Y22.11122
G01 X43.27056 Y22.09445
G01 X43.16055 Y22.03708
G01 X43.16226 Y23.79966
G01 X42.98921 Y24.21368
G01 X42.88486 Y24.36435
G01 X42.82423 Y24.42983
G01 X42.70907 Y24.52968
G01 X42.50945 Y24.66328
G01 X42.43531 Y24.81477
G01 X42.38486 Y24.88101
G01 X41.21921 Y26.04334
G01 X41.12838 Y26.09541
G01 X41.02736 Y26.12282
G01 X39.97509 Y26.12528
G01 X39.84669 Y26.13961
G01 X39.76579 Y26.20224
G01 X38.96353 Y27.00834
G01 X38.92124 Y27.06485
G01 X38.85970 Y27.17920
G01 X38.86732 Y27.27552
G01 X38.88017 Y27.32475
G01 X38.90831 Y27.37887
G01 X38.97227 Y27.46246
G01 X39.07946 Y27.49899
G01 X39.22155 Y27.51812
G01 X39.55561 Y27.51857
G01 X39.60224 Y27.52690
G01 X39.65840 Y27.55553
G01 X39.70298 Y27.60008
G01 X39.73160 Y27.65627
G01 X39.75441 Y27.88398
G01 X39.79000 Y28.00244
G01 X39.79000 Y28.03196
G01 X39.81901 Y28.03206
G01 X39.79173 Y28.00826
G01 X39.75441 Y27.88398
G01 X39.79648 Y28.01253
G01 X39.81901 Y28.03206
G01 X39.85901 Y28.04705
G01 X39.96846 Y28.07356
G01 X40.06447 Y28.08177
G01 X40.58339 Y28.08294
G01 X40.63762 Y28.09581
G01 X40.69325 Y28.11451
G01 X40.77532 Y28.16259
G01 X41.12579 Y28.50983
G01 X41.22665 Y28.59043
G01 X41.33353 Y28.60419
G01 X41.61725 Y28.60214
G01 X41.75149 Y28.57935
G01 X41.91745 Y28.39419
G01 X42.09248 Y28.26602
G01 X42.12202 Y28.17562
G01 X42.11918 Y28.03734
G01 X42.10648 Y27.98807
G01 X42.08405 Y27.94237
G01 X42.00932 Y27.84026
G01 X41.87849 Y27.75065
G01 X41.79510 Y27.66724
G01 X41.75672 Y27.60503
G01 X41.82947 Y27.70112
G01 X41.94008 Y27.78720
G01 X41.99774 Y27.81512
G01 X42.12378 Y27.85037
G01 X43.18128 Y27.85233
G01 X43.32682 Y27.76975
G01 X43.44267 Y27.67466
G01 X43.54412 Y27.55667
G01 X43.63655 Y27.39719
G01 X44.18499 Y26.84862
G01 X44.18499 Y26.68436
G01 X44.18499 Y26.84862
G01 X43.63655 Y27.39719
G01 X43.57305 Y27.51400
G01 X43.47813 Y27.63811
G01 X43.41105 Y27.70379
G01 X43.32682 Y27.76975
G01 X43.18128 Y27.85233
G01 X42.77859 Y28.25502
G01 X42.17468 Y28.25527
G01 X42.08479 Y28.27194
G01 X42.17468 Y28.25527
G01 X42.77859 Y28.25502
G01 X43.18128 Y27.85233
G01 X43.32682 Y27.76975
G01 X43.44267 Y27.67466
G01 X43.54412 Y27.55667
G01 X43.60521 Y27.45982
G01 X43.63665 Y27.39691
G01 X43.63990 Y26.84852
G01 X43.62769 Y26.74545
G01 X43.59700 Y26.65284
G01 X43.52446 Y26.53536
G01 X43.43198 Y26.44916
G01 X43.31946 Y26.38845
G01 X43.16497 Y26.35502
G01 X43.24003 Y26.36145
G01 X43.35270 Y26.39879
G01 X43.45220 Y26.46015
G01 X43.53485 Y26.54281
G01 X43.59698 Y26.64321
G01 X43.63124 Y26.68426
G01 X43.71366 Y26.75609
G01 X43.78689 Y26.79117
G01 X43.91610 Y26.81222
G01 X43.99672 Y26.80214
G01 X44.13393 Y26.73892
G01 X44.17785 Y26.69940
G01 X44.19192 Y26.66976
G01 X44.23071 Y26.50742
G01 X44.23472 Y26.43938
G01 X44.23472 Y24.82051
G01 X44.21120 Y24.64624
G01 X44.01450 Y24.49587
G01 X43.92238 Y24.40626
G01 X43.85093 Y24.32023
G01 X43.77988 Y24.21325
G01 X43.65908 Y23.91449
G01 X43.60681 Y23.81132
G01 X43.49746 Y23.75490
G01 X43.40765 Y23.73882
G01 X43.26185 Y23.75739
G01 X43.21006 Y23.78119
G01 X43.16002 Y23.81792
G01 X43.21829 Y23.77642
G01 X43.27097 Y23.75460
G01 X43.41786 Y23.73898
G01 X43.50693 Y23.75869
G01 X43.60373 Y23.80931
G01 X43.61420 Y23.82595
G01 X43.60505 Y23.73496
G01 X43.60782 Y22.04932
G01 X43.77846 Y21.64030
G01 X43.88384 Y21.48468
G01 X44.01529 Y21.35473
G01 X44.06309 Y21.31894
G01 X44.16817 Y21.25105
G01 X44.33586 Y21.17276
G01 X44.46754 Y21.09435
G01 X44.64750 Y21.07505
G01 X44.85316 Y21.09397
G01 X45.02260 Y21.14157
G01 X45.18844 Y21.22247
G01 X45.02260 Y21.14157
G01 X44.85316 Y21.09397
G01 X44.63876 Y21.07528
G01 X44.46754 Y21.09435
G01 X44.45095 Y21.10617
G01 X44.47196 Y21.09120
G01 X44.49045 Y21.05051
G01 X44.51874 Y20.95669
G01 X44.52497 Y20.90124
G01 X44.52497 Y5.57033
G01 X44.51925 Y5.51719
G01 X44.48910 Y5.41483
G01 X44.47020 Y5.37724
G01 X44.33063 Y5.29652
G01 X44.16754 Y5.22017
G01 X44.05253 Y5.14381
G01 X43.95286 Y5.05707
G01 X43.88471 Y4.98466
G01 X43.78105 Y4.83409
G01 X43.64308 Y4.49799
G01 X43.60693 Y4.43140
G01 X43.49746 Y4.37491
G01 X43.40765 Y4.35883
G01 X43.26185 Y4.37739
G01 X43.21006 Y4.40119
G01 X43.15652 Y4.44064
G01 X43.11247 Y4.52858
G01 X43.04465 Y4.71118
G01 X42.98814 Y4.83307
G01 X42.88474 Y4.98425
G01 X42.75405 Y5.11466
G01 X42.64595 Y5.19279
G01 X42.51082 Y5.26325
G01 X42.43302 Y5.29395
G01 X42.25090 Y5.33665
G01 X42.13465 Y5.34402
G01 X41.97458 Y5.33711
G01 X41.82269 Y5.30249
G01 X41.64156 Y5.22756
G01 X41.53851 Y5.16223
G01 X41.47542 Y5.11521
G01 X41.34471 Y4.98466
G01 X41.24105 Y4.83409
G01 X41.10308 Y4.49799
G01 X41.06693 Y4.43140
G01 X40.95746 Y4.37491
G01 X40.86765 Y4.35883
G01 X40.72185 Y4.37739
G01 X40.67006 Y4.40119
G01 X40.61652 Y4.44064
G01 X40.57247 Y4.52858
G01 X40.50465 Y4.71118
G01 X40.44814 Y4.83307
G01 X40.34474 Y4.98425
G01 X40.21405 Y5.11466
G01 X40.06193 Y5.21928
G01 X39.93559 Y5.27821
G01 X39.78952 Y5.32167
G01 X39.71090 Y5.33665
G01 X39.59465 Y5.34402
G01 X39.40135 Y5.33068
G01 X39.25645 Y5.29533
G01 X39.10156 Y5.22756
G01 X38.99851 Y5.16223
G01 X38.93542 Y5.11521
G01 X38.80471 Y4.98466
G01 X38.70105 Y4.83409
G01 X38.56308 Y4.49799
G01 X38.52693 Y4.43140
G01 X38.41746 Y4.37491
G01 X38.32765 Y4.35883
G01 X38.18185 Y4.37739
G01 X38.13006 Y4.40119
G01 X38.07652 Y4.44064
G01 X38.03247 Y4.52858
G01 X37.94936 Y4.74745
G01 X37.90814 Y4.83307
G01 X37.85061 Y4.92349
G01 X37.75325 Y5.04072
G01 X37.67405 Y5.11466
G01 X37.52193 Y5.21928
G01 X37.35302 Y5.29395
G01 X37.17090 Y5.33665
G01 X37.05465 Y5.34402
G01 X36.89458 Y5.33711
G01 X36.74269 Y5.30249
G01 X36.56156 Y5.22756
G01 X36.45851 Y5.16223
G01 X36.39542 Y5.11521
G01 X36.26471 Y4.98466
G01 X36.15993 Y4.83239
G01 X36.08841 Y4.67280
G01 X36.03791 Y4.47884
G01 X35.98523 Y4.32817
G01 X35.54497 Y3.88794
G01 X35.54497 Y3.20211
G01 X35.98498 Y2.76211
G01 X36.03903 Y2.61182
G01 X36.08612 Y2.42701
G01 X36.17169 Y2.22688
G01 X36.21218 Y2.09797
G01 X36.29900 Y1.99620
G01 X36.44012 Y1.88096
G01 X36.63339 Y1.77489
G01 X36.84406 Y1.71286
G01 X37.05485 Y1.69579
G01 X37.20085 Y1.70819
G01 X37.37631 Y1.75271
G01 X37.51632 Y1.81184
G01 X37.63743 Y1.88571
G01 X37.78396 Y2.00910
G01 X37.88759 Y2.13216
G01 X37.96156 Y2.25225
G01 X38.03763 Y2.43506
G01 X38.07055 Y2.57140
G01 X38.08462 Y2.71669
G01 X38.08500 Y4.34498
G01 X38.07652 Y4.44064
G01 X38.13006 Y4.40119
G01 X38.18185 Y4.37739
G01 X38.32765 Y4.35883
G01 X38.41746 Y4.37491
G01 X38.51558 Y4.42441
G01 X38.53112 Y4.43914
G01 X38.52523 Y4.36541
G01 X38.52513 Y2.73656
G01 X38.54751 Y2.52876
G01 X38.60781 Y2.33640
G01 X38.70390 Y2.15883
G01 X38.81878 Y2.01779
G01 X39.02124 Y1.85390
G01 X39.18223 Y1.77128
G01 X39.37448 Y1.71438
G01 X39.57707 Y1.69503
G01 X39.75993 Y1.71200
G01 X39.89767 Y1.74583
G01 X40.03831 Y1.80349
G01 X40.19388 Y1.89681
G01 X40.33734 Y2.02378
G01 X40.42759 Y2.13216
G01 X40.51502 Y2.27750
G01 X40.57763 Y2.43506
G01 X40.61055 Y2.57140
G01 X40.62462 Y2.71669
G01 X40.62500 Y4.34498
G01 X40.61652 Y4.44064
G01 X40.67006 Y4.40119
G01 X40.72185 Y4.37739
G01 X40.86765 Y4.35883
G01 X40.95746 Y4.37491
G01 X41.05558 Y4.42441
G01 X41.07112 Y4.43914
G01 X41.06523 Y4.36541
G01 X41.06513 Y2.73656
G01 X41.08751 Y2.52876
G01 X41.14781 Y2.33640
G01 X41.24390 Y2.15883
G01 X41.35878 Y2.01779
G01 X41.55261 Y1.85865
G01 X41.72223 Y1.77128
G01 X41.90496 Y1.71626
G01 X42.10816 Y1.69510
G01 X42.28085 Y1.70819
G01 X42.43767 Y1.74583
G01 X42.57831 Y1.80349
G01 X42.73388 Y1.89681
G01 X42.87734 Y2.02378
G01 X42.96759 Y2.13216
G01 X43.05085 Y2.26892
G01 X43.11763 Y2.43506
G01 X43.15055 Y2.57140
G01 X43.16424 Y2.70877
G01 X43.16500 Y4.34498
G01 X43.15652 Y4.44064
G01 X43.21006 Y4.40119
G01 X43.26185 Y4.37739
G01 X43.40765 Y4.35883
G01 X43.49746 Y4.37491
G01 X43.59558 Y4.42441
G01 X43.61112 Y4.43914
G01 X43.60523 Y4.36541
G01 X43.60498 Y2.74506
G01 X43.62984 Y2.51918
G01 X43.69649 Y2.31870
G01 X43.78390 Y2.15883
G01 X43.89878 Y2.01779
G01 X44.07592 Y1.86917
G01 X44.28026 Y1.76508
G01 X44.45448 Y1.71438
G01 X44.64816 Y1.69510
G01 X44.82085 Y1.70819
G01 X44.96817 Y1.74293
G01 X45.13632 Y1.81184
G01 X45.26576 Y1.89109
G01 X45.39682 Y2.00216
G01 X45.47528 Y2.09264
G01 X45.48585 Y2.03247
G01 X45.50891 Y1.97598
G01 X45.60381 Y1.86104
G01 X45.68437 Y1.81139
G01 X45.81953 Y1.77636
G01 X46.00439 Y1.77694
G01 X46.06751 Y1.78665
G01 X46.12293 Y1.80620
G01 X46.22905 Y1.87290
G01 X46.40881 Y2.05175
G01 X46.53271 Y1.93031
G01 X46.67894 Y1.83163
G01 X46.86715 Y1.74849
G01 X47.08719 Y1.70062
G01 X47.30279 Y1.70062
G01 X47.49506 Y1.73887
G01 X47.68559 Y1.81672
G01 X47.85727 Y1.93031
G01 X47.98226 Y2.05281
G01 X48.17622 Y1.86099
G01 X48.23923 Y1.81878
G01 X48.38178 Y1.77740
G01 X48.56788 Y1.77616
G01 X48.63974 Y1.78662
G01 X48.69471 Y1.80592
G01 X48.78729 Y1.86363
G01 X48.83220 Y1.90404
G01 X48.86611 Y1.95403
G01 X48.91327 Y2.06292
G01 X48.91711 Y2.07875
G01 X48.89892 Y2.14959
G01 X48.91218 Y2.09797
G01 X48.99196 Y2.00313
G01 X49.18124 Y1.85390
G01 X49.34223 Y1.77128
G01 X49.51553 Y1.71852
G01 X49.75485 Y1.69579
G01 X49.90085 Y1.70819
G01 X50.05767 Y1.74583
G01 X50.21632 Y1.81184
G01 X50.33743 Y1.88571
G01 X50.49734 Y2.02378
G01 X50.58759 Y2.13216
G01 X50.67085 Y2.26892
G01 X50.73763 Y2.43506
G01 X50.77055 Y2.57140
G01 X50.78462 Y2.71669
G01 X50.78500 Y4.34498
G01 X50.76719 Y4.53208
G01 X50.70598 Y4.74455
G01 X50.60608 Y4.93122
G01 X50.47801 Y5.08689
G01 X50.32206 Y5.21511
G01 X50.13659 Y5.31514
G01 X49.92592 Y5.37716
G01 X49.72402 Y5.39477
G01 X49.56913 Y5.38184
G01 X49.42181 Y5.34709
G01 X49.25366 Y5.27818
G01 X49.10055 Y5.18085
G01 X48.98602 Y5.08092
G01 X48.89410 Y4.97290
G01 X48.79496 Y4.81252
G01 X48.73235 Y4.65497
G01 X48.69943 Y4.51862
G01 X48.68574 Y4.38126
G01 X48.68498 Y2.76211
G01 X48.73903 Y2.61182
G01 X48.78612 Y2.42701
G01 X48.89892 Y2.14959
G01 X48.78612 Y2.42701
G01 X48.73903 Y2.61182
G01 X48.68498 Y2.76211
G01 X48.24497 Y3.20211
G01 X48.24485 Y4.95324
G01 X48.22851 Y5.06243
G01 X48.16354 Y5.20305
G01 X48.07578 Y5.29489
G01 X48.03669 Y5.32448
G01 X47.92110 Y5.37549
G01 X47.86773 Y5.38887
G01 X47.79499 Y5.39502
G01 X46.58676 Y5.39487
G01 X46.47757 Y5.37854
G01 X46.37927 Y5.33835
G01 X46.32913 Y5.30764
G01 X46.22082 Y5.19500
G01 X46.16146 Y5.06243
G01 X46.14498 Y4.94501
G01 X46.14498 Y3.20214
G01 X45.70472 Y2.76188
G01 X45.65204 Y2.61121
G01 X45.60475 Y2.42436
G01 X45.52672 Y2.24636
G01 X45.47528 Y2.09264
G01 X45.52672 Y2.24636
G01 X45.60475 Y2.42436
G01 X45.65204 Y2.61121
G01 X45.70472 Y2.76188
G01 X45.70500 Y4.34498
G01 X45.67741 Y4.58032
G01 X45.62217 Y4.75362
G01 X45.52054 Y4.93937
G01 X45.39098 Y5.09383
G01 X45.23406 Y5.22085
G01 X45.05659 Y5.31514
G01 X44.86502 Y5.37376
G01 X44.66182 Y5.39492
G01 X44.47180 Y5.37841
( Mill infeed pass 3/5 )
G00 Z0.50000 ( retract )
G00 X3.00691 Y1.96429 ( rapid move to begin. )
G01 Z-0.09000
G04 P0 ( dwell for no time -- G64 should not smooth over this point )
G01 F50.00000
G01 X3.00691 Y1.96429
G01 X3.05235 Y1.87915
G01 X3.14913 Y1.78238
G01 X3.19043 Y1.75596
G01 X3.28034 Y1.71789
G01 X3.35637 Y1.69965
G01 X4.67361 Y1.69965
G01 X4.73122 Y1.71111
G01 X4.83071 Y1.75167
G01 X4.90287 Y1.80194
G01 X4.97137 Y1.87156
G01 X5.00404 Y1.92045
G01 X5.05123 Y2.03635
G01 X5.06444 Y2.12858
G01 X5.06497 Y4.34501
G01 X5.05926 Y4.44821
G01 X5.12017 Y4.40465
G01 X5.17287 Y4.38283
G01 X5.34011 Y4.36871
G01 X5.40889 Y4.38689
G01 X5.50574 Y4.43757
G01 X5.54094 Y4.49820
G01 X5.50820 Y4.43919
G01 X5.41819 Y4.39109
G01 X5.36025 Y4.37188
G01 X5.29939 Y4.36731
G01 X5.20074 Y4.37656
G01 X5.15476 Y4.38875
G01 X5.10389 Y4.41453
G01 X5.05926 Y4.44821
G01 X5.04135 Y4.47900
G01 X4.90920 Y4.80025
G01 X4.80894 Y4.95819
G01 X4.77125 Y5.00411
G01 X4.66688 Y5.10782
G01 X4.51384 Y5.21537
G01 X4.46147 Y5.24336
G01 X4.28705 Y5.31084
G01 X4.09337 Y5.34536
G01 X3.88715 Y5.34003
G01 X3.74290 Y5.31084
G01 X3.56848 Y5.24336
G01 X3.40181 Y5.13899
G01 X3.25218 Y4.99693
G01 X3.13968 Y4.83561
G01 X3.06076 Y4.65535
G01 X3.01855 Y4.46330
G01 X3.01415 Y2.14951
G01 X3.00676 Y1.95838
G01 X2.96838 Y1.90755
G01 X2.88570 Y1.83579
G01 X2.84456 Y1.81106
G01 X2.79010 Y1.79244
G01 X2.69439 Y1.77567
G01 X2.19836 Y1.77552
G01 X2.12792 Y1.78566
G01 X2.00834 Y1.82751
G01 X1.95533 Y1.86760
G01 X1.87804 Y1.95860
G01 X1.84430 Y2.03242
G01 X1.82431 Y2.15789
G01 X1.77753 Y27.70034
G01 X1.78517 Y27.76218
G01 X1.82625 Y27.88502
G01 X1.87544 Y27.94964
G01 X1.97486 Y28.03028
G01 X2.03706 Y28.05573
G01 X2.15154 Y28.07504
G01 X23.02498 Y28.07504
G01 X23.02641 Y28.31771
G01 X23.06504 Y28.45685
G01 X23.11498 Y28.53183
G01 X23.27543 Y28.67122
G01 X23.30842 Y28.72835
G01 X23.32547 Y28.79203
G01 X23.32610 Y39.01837
G01 X23.36181 Y39.15731
G01 X23.38483 Y39.20270
G01 X23.41655 Y39.24250
G01 X23.49161 Y39.30839
G01 X23.54037 Y39.33900
G01 X23.58549 Y39.35540
G01 X23.68165 Y39.37390
G01 X52.65098 Y39.37453
G01 X52.72142 Y39.36440
G01 X52.84446 Y39.32051
G01 X52.90008 Y39.27616
G01 X52.97555 Y39.18489
G01 X53.00585 Y39.11451
G01 X53.02497 Y39.00052
G01 X53.02497 Y24.99722
G01 X53.01926 Y24.94408
G01 X52.98477 Y24.83100
G01 X52.94753 Y24.77039
G01 X52.85137 Y24.68360
G01 X52.78002 Y24.64680
G01 X52.63783 Y24.66562
G01 X52.41113 Y24.71662
G01 X52.25916 Y24.72371
G01 X52.13458 Y24.71711
G01 X51.98269 Y24.68249
G01 X51.78771 Y24.59988
G01 X51.63542 Y24.49521
G01 X51.55038 Y24.41446
G01 X51.47169 Y24.32125
G01 X51.39000 Y24.19244
G01 X51.26308 Y23.87799
G01 X51.22693 Y23.81139
G01 X51.12693 Y23.75869
G01 X51.05818 Y23.74050
G01 X50.89097 Y23.75460
G01 X50.83829 Y23.77642
G01 X50.77652 Y23.82064
G01 X50.73247 Y23.90857
G01 X50.66465 Y24.09120
G01 X50.60814 Y24.21309
G01 X50.50474 Y24.36425
G01 X50.42521 Y24.44858
G01 X50.29879 Y24.55074
G01 X50.22193 Y24.59927
G01 X50.05302 Y24.67395
G01 X49.91149 Y24.70992
G01 X49.75465 Y24.72401
G01 X49.59458 Y24.71711
G01 X49.44269 Y24.68249
G01 X49.24771 Y24.59988
G01 X49.09542 Y24.49521
G01 X49.01038 Y24.41446
G01 X48.91414 Y24.29623
G01 X48.83646 Y24.16493
G01 X48.78457 Y24.04355
G01 X48.73791 Y23.85884
G01 X48.68523 Y23.70817
G01 X48.24497 Y23.26793
G01 X48.24497 Y22.58211
G01 X48.68498 Y22.14210
G01 X48.73903 Y21.99181
G01 X48.78612 Y21.80700
G01 X48.86103 Y21.63827
G01 X48.96522 Y21.48582
G01 X49.10969 Y21.33725
G01 X49.20553 Y21.21686
G01 X49.20245 Y21.07772
G01 X49.18452 Y21.00888
G01 X49.10603 Y20.89194
G01 X49.03646 Y20.83286
G01 X48.91530 Y20.78493
G01 X48.84693 Y20.77533
G01 X48.50748 Y20.77645
G01 X48.35856 Y20.81948
G01 X48.28495 Y20.87340
G01 X48.22044 Y20.94863
G01 X48.19588 Y20.98935
G01 X48.17723 Y21.04325
G01 X48.16268 Y21.14073
G01 X48.16232 Y21.18902
G01 X48.17248 Y21.24038
G01 X48.15587 Y21.25702
G01 X48.07578 Y21.17513
G01 X48.03669 Y21.14554
G01 X47.92056 Y21.09435
G01 X47.86392 Y21.08066
G01 X46.59578 Y21.07502
G01 X46.48633 Y21.08877
G01 X46.37043 Y21.13596
G01 X46.31419 Y21.17513
G01 X46.23408 Y21.25704
G01 X46.21414 Y21.23710
G01 X46.22748 Y21.14315
G01 X46.22006 Y21.07238
G01 X46.17503 Y20.96108
G01 X46.15044 Y20.92039
G01 X46.10406 Y20.87279
G01 X46.01361 Y20.81244
G01 X45.95859 Y20.78981
G01 X45.88303 Y20.77665
G01 X45.54318 Y20.77518
G01 X45.48166 Y20.78516
G01 X45.39532 Y20.81137
G01 X45.34145 Y20.84007
G01 X45.30299 Y20.87340
G01 X45.22771 Y20.96436
G01 X45.19337 Y21.05257
G01 X45.17983 Y21.15143
G01 X45.18460 Y21.21732
G01 X45.26535 Y21.31833
G01 X45.42555 Y21.48490
G01 X45.53055 Y21.63736
G01 X45.60452 Y21.80677
G01 X45.65229 Y21.99105
G01 X45.70497 Y22.14210
G01 X45.70492 Y23.70796
G01 X45.70497 Y22.14210
G01 X46.14498 Y22.58213
G01 X46.14498 Y23.26791
G01 X45.70492 Y23.70796
G01 X45.65166 Y23.85864
G01 X45.60157 Y24.05279
G01 X45.53007 Y24.21246
G01 X45.42524 Y24.36468
G01 X45.29484 Y24.49559
G01 X45.06174 Y24.66643
G01 X45.04216 Y24.75861
G01 X45.03523 Y24.84789
G01 X45.03523 Y27.03503
G01 X45.03220 Y27.08733
G01 X45.00612 Y27.18878
G01 X44.95257 Y27.27875
