( pcb2gcode 2.5.0 )
( Software-independent Gcode )

G94 ( Millimeters per minute feed rate. )
G21 ( Units == Millimeters. )

G90 ( Absolute coordinates. )
G00 S12000 ( RPM spindle speed. )
G01 F10.00000 ( Feedrate. )


G00 Z0.50000 (Retract to tool change height)
T1
M5      (Spindle stop.)
G04 P1.00000 (Wait for spindle to stop)
(MSG, Change tool bit to cutter diameter 1.50000mm)
M3 ( Spindle on clockwise. )
G04 P1.00000 (Wait for spindle to get up to speed)
G04 P0 ( dwell for no time -- G64 should not smooth over this point )
G00 Z0.50000 ( retract )

G00 X0.77496 Y28.82365 ( rapid move to begin. )
G01 Z-0.50000 F5.00000 ( plunge. )
G04 P0 ( dwell for no time -- G64 should not smooth over this point )
G01 F10.00000
G01 X0.78817 Y28.96518
G01 X0.82785 Y29.10168
G01 X0.89257 Y29.22822
G01 X0.97997 Y29.34029
G01 X1.08698 Y29.43386
G01 X1.21896 Y29.50978
G01 X1.35363 Y29.55520
G01 X1.49447 Y29.57442
G01 X22.27843 Y29.57503
G01 X22.32628 Y39.66897
G01 X22.34317 Y39.78916
G01 X22.37924 Y39.90506
G01 X22.43352 Y40.01362
G01 X22.50461 Y40.11202
G01 X22.59064 Y40.19764
G01 X22.68935 Y40.26828
G01 X22.79816 Y40.32205
G01 X22.91421 Y40.35759
G01 X23.07500 Y40.37501
G01 X54.12500 Y40.37501
G01 X54.29612 Y40.35522
G01 X54.38362 Y40.32901
G01 X54.46729 Y40.29233
G01 X54.55423 Y40.24004
G01 X54.63333 Y40.17643
G01 X54.70313 Y40.10277
G01 X54.76233 Y40.02035
G01 X54.80986 Y39.93069
G01 X54.84486 Y39.83541
G01 X54.86668 Y39.73633
G01 X54.87491 Y39.63516
G01 X54.87498 Y20.36502
G01 X54.86813 Y20.26377
G01 X54.85029 Y20.17419
G01 X54.81395 Y20.06865
G01 X54.75692 Y19.96111
G01 X54.68324 Y19.86418
G01 X54.59487 Y19.78046
G01 X54.50292 Y19.71722
G01 X54.39312 Y19.66461
G01 X54.28621 Y19.63256
G01 X54.16559 Y19.61612
G01 X45.87498 Y19.61503
G01 X45.87498 Y6.91503
G01 X54.13516 Y6.91496
G01 X54.23648 Y6.90670
G01 X54.33577 Y6.88481
G01 X54.43117 Y6.84968
G01 X54.52954 Y6.79657
G01 X54.60346 Y6.74259
G01 X54.67023 Y6.68003
G01 X54.77351 Y6.54175
G01 X54.84245 Y6.38356
G01 X54.86371 Y6.29456
G01 X54.87399 Y6.20363
G01 X54.92497 Y1.52294
G01 X54.91918 Y1.43196
G01 X54.90239 Y1.34232
G01 X54.84163 Y1.18144
G01 X54.78926 Y1.09472
G01 X54.71875 Y1.00847
G01 X54.64417 Y0.93989
G01 X54.56104 Y0.88200
G01 X54.47084 Y0.83585
G01 X54.37526 Y0.80224
G01 X54.27605 Y0.78185
G01 X54.17498 Y0.77501
G01 X1.57499 Y0.77501
G01 X1.40405 Y0.79475
G01 X1.31662 Y0.82091
G01 X1.23305 Y0.85749
G01 X1.14616 Y0.90969
G01 X1.06709 Y0.97313
G01 X0.99732 Y1.04667
G01 X0.93811 Y1.12894
G01 X0.89051 Y1.21842
G01 X0.85541 Y1.31352
G01 X0.83346 Y1.41248
G01 X0.82505 Y1.51349
G01 X0.77496 Y28.82365
G01 Z-1.00000 F5.00000 ( plunge. )
G04 P0 ( dwell for no time -- G64 should not smooth over this point )
G01 F10.00000
G01 X0.78817 Y28.96518
G01 X0.82785 Y29.10168
G01 X0.89257 Y29.22822
G01 X0.97997 Y29.34029
G01 X1.08698 Y29.43386
G01 X1.21896 Y29.50978
G01 X1.35363 Y29.55520
G01 X1.49447 Y29.57442
G01 X22.27843 Y29.57503
G01 X22.32628 Y39.66897
G01 X22.34317 Y39.78916
G01 X22.37924 Y39.90506
G01 X22.43352 Y40.01362
G01 X22.50461 Y40.11202
G01 X22.59064 Y40.19764
G01 X22.68935 Y40.26828
G01 X22.79816 Y40.32205
G01 X22.91421 Y40.35759
G01 X23.07500 Y40.37501
G01 X54.12500 Y40.37501
G01 X54.29612 Y40.35522
G01 X54.38362 Y40.32901
G01 X54.46729 Y40.29233
G01 X54.55423 Y40.24004
G01 X54.63333 Y40.17643
G01 X54.70313 Y40.10277
G01 X54.76233 Y40.02035
G01 X54.80986 Y39.93069
G01 X54.84486 Y39.83541
G01 X54.86668 Y39.73633
G01 X54.87491 Y39.63516
G01 X54.87498 Y20.36502
G01 X54.86813 Y20.26377
G01 X54.85029 Y20.17419
G01 X54.81395 Y20.06865
G01 X54.75692 Y19.96111
G01 X54.68324 Y19.86418
G01 X54.59487 Y19.78046
G01 X54.50292 Y19.71722
G01 X54.39312 Y19.66461
G01 X54.28621 Y19.63256
G01 X54.16559 Y19.61612
G01 X45.87498 Y19.61503
G01 X45.87498 Y6.91503
G01 X54.13516 Y6.91496
G01 X54.23648 Y6.90670
G01 X54.33577 Y6.88481
G01 X54.43117 Y6.84968
G01 X54.52954 Y6.79657
G01 X54.60346 Y6.74259
G01 X54.67023 Y6.68003
G01 X54.77351 Y6.54175
G01 X54.84245 Y6.38356
G01 X54.86371 Y6.29456
G01 X54.87399 Y6.20363
G01 X54.92497 Y1.52294
G01 X54.91918 Y1.43196
G01 X54.90239 Y1.34232
G01 X54.84163 Y1.18144
G01 X54.78926 Y1.09472
G01 X54.71875 Y1.00847
G01 X54.64417 Y0.93989
G01 X54.56104 Y0.88200
G01 X54.47084 Y0.83585
G01 X54.37526 Y0.80224
G01 X54.27605 Y0.78185
G01 X54.17498 Y0.77501
G01 X1.57499 Y0.77501
G01 X1.40405 Y0.79475
G01 X1.31662 Y0.82091
G01 X1.23305 Y0.85749
G01 X1.14616 Y0.90969
G01 X1.06709 Y0.97313
G01 X0.99732 Y1.04667
G01 X0.93811 Y1.12894
G01 X0.89051 Y1.21842
G01 X0.85541 Y1.31352
G01 X0.83346 Y1.41248
G01 X0.82505 Y1.51349
G01 X0.77496 Y28.82365
G01 Z-1.50000 F5.00000 ( plunge. )
G04 P0 ( dwell for no time -- G64 should not smooth over this point )
G01 F10.00000
G01 X0.78817 Y28.96518
G01 X0.82785 Y29.10168
G01 X0.89257 Y29.22822
G01 X0.97997 Y29.34029
G01 X1.08698 Y29.43386
G01 X1.21896 Y29.50978
G01 X1.35363 Y29.55520
G01 X1.49447 Y29.57442
G01 X22.27843 Y29.57503
G01 X22.32628 Y39.66897
G01 X22.34317 Y39.78916
G01 X22.37924 Y39.90506
G01 X22.43352 Y40.01362
G01 X22.50461 Y40.11202
G01 X22.59064 Y40.19764
G01 X22.68935 Y40.26828
G01 X22.79816 Y40.32205
G01 X22.91421 Y40.35759
G01 X23.07500 Y40.37501
G01 X54.12500 Y40.37501
G01 X54.29612 Y40.35522
G01 X54.38362 Y40.32901
G01 X54.46729 Y40.29233
G01 X54.55423 Y40.24004
G01 X54.63333 Y40.17643
G01 X54.70313 Y40.10277
G01 X54.76233 Y40.02035
G01 X54.80986 Y39.93069
G01 X54.84486 Y39.83541
G01 X54.86668 Y39.73633
G01 X54.87491 Y39.63516
G01 X54.87498 Y20.36502
G01 X54.86813 Y20.26377
G01 X54.85029 Y20.17419
G01 X54.81395 Y20.06865
G01 X54.75692 Y19.96111
G01 X54.68324 Y19.86418
G01 X54.59487 Y19.78046
G01 X54.50292 Y19.71722
G01 X54.39312 Y19.66461
G01 X54.28621 Y19.63256
G01 X54.16559 Y19.61612
G01 X45.87498 Y19.61503
G01 X45.87498 Y6.91503
G01 X54.13516 Y6.91496
G01 X54.23648 Y6.90670
G01 X54.33577 Y6.88481
G01 X54.43117 Y6.84968
G01 X54.52954 Y6.79657
G01 X54.60346 Y6.74259
G01 X54.67023 Y6.68003
G01 X54.77351 Y6.54175
G01 X54.84245 Y6.38356
G01 X54.86371 Y6.29456
G01 X54.87399 Y6.20363
G01 X54.92497 Y1.52294
G01 X54.91918 Y1.43196
G01 X54.90239 Y1.34232
G01 X54.84163 Y1.18144
G01 X54.78926 Y1.09472
G01 X54.71875 Y1.00847
G01 X54.64417 Y0.93989
G01 X54.56104 Y0.88200
G01 X54.47084 Y0.83585
G01 X54.37526 Y0.80224
G01 X54.27605 Y0.78185
G01 X54.17498 Y0.77501
G01 X1.57499 Y0.77501
G01 X1.40405 Y0.79475
G01 X1.31662 Y0.82091
G01 X1.23305 Y0.85749
G01 X1.14616 Y0.90969
G01 X1.06709 Y0.97313
G01 X0.99732 Y1.04667
G01 X0.93811 Y1.12894
G01 X0.89051 Y1.21842
G01 X0.85541 Y1.31352
G01 X0.83346 Y1.41248
G01 X0.82505 Y1.51349
G01 X0.77496 Y28.82365

G04 P0 ( dwell for no time -- G64 should not smooth over this point )
G00 Z0.500000 ( retract )

M5 ( Spindle off. )
G04 P1.000000
M9 ( Coolant off. )
M2 ( Program end. )

