( pcb2gcode 2.5.0 )
( Software-independent Gcode )

G94 ( Millimeters per minute feed rate. )
G21 ( Units == Millimeters. )

G90 ( Absolute coordinates. )
G00 S12000 ( RPM spindle speed. )
G01 F20.00000 ( Feedrate. )


G00 Z0.50000 (Retract to tool change height)
T1
M5      (Spindle stop.)
G04 P1.00000 (Wait for spindle to stop)
(MSG, Change tool bit to mill diameter 0.50000mm)
M3 ( Spindle on clockwise. )
G04 P1.00000 (Wait for spindle to get up to speed)
G04 P0 ( dwell for no time -- G64 should not smooth over this point )
G00 Z0.50000 ( retract )

G00 X0.28046 Y19.66050 ( rapid move to begin. )
G01 F30.00000
( Mill infeed pass 1/12 )
G01 Z-0.05000
G04 P0 ( dwell for no time -- G64 should not smooth over this point )
G01 F20.00000
G01 X0.28046 Y19.66050
G01 X0.28046 Y22.96050
G01 X1.98048 Y22.96050
G01 X1.98048 Y19.66050
G01 X0.28046 Y19.66050
( Mill infeed pass 2/12 )
G01 Z-0.10000
G04 P0 ( dwell for no time -- G64 should not smooth over this point )
G01 F20.00000
G01 X0.28046 Y19.66050
G01 X0.28046 Y22.96050
G01 X1.98048 Y22.96050
G01 X1.98048 Y19.66050
G01 X0.28046 Y19.66050
( Mill infeed pass 3/12 )
G01 Z-0.15000
G04 P0 ( dwell for no time -- G64 should not smooth over this point )
G01 F20.00000
G01 X0.28046 Y19.66050
G01 X0.28046 Y22.96050
G01 X1.98048 Y22.96050
G01 X1.98048 Y19.66050
G01 X0.28046 Y19.66050
( Mill infeed pass 4/12 )
G01 Z-0.20000
G04 P0 ( dwell for no time -- G64 should not smooth over this point )
G01 F20.00000
G01 X0.28046 Y19.66050
G01 X0.28046 Y22.96050
G01 X1.98048 Y22.96050
G01 X1.98048 Y19.66050
G01 X0.28046 Y19.66050
( Mill infeed pass 5/12 )
G01 Z-0.25000
G04 P0 ( dwell for no time -- G64 should not smooth over this point )
G01 F20.00000
G01 X0.28046 Y19.66050
G01 X0.28046 Y22.96050
G01 X1.98048 Y22.96050
G01 X1.98048 Y19.66050
G01 X0.28046 Y19.66050
( Mill infeed pass 6/12 )
G01 Z-0.30000
G04 P0 ( dwell for no time -- G64 should not smooth over this point )
G01 F20.00000
G01 X0.28046 Y19.66050
G01 X0.28046 Y22.96050
G01 X1.98048 Y22.96050
G01 X1.98048 Y19.66050
G01 X0.28046 Y19.66050
( Mill infeed pass 7/12 )
G01 Z-0.35000
G04 P0 ( dwell for no time -- G64 should not smooth over this point )
G01 F20.00000
G01 X0.28046 Y19.66050
G01 X0.28046 Y22.96050
G01 X1.98048 Y22.96050
G01 X1.98048 Y19.66050
G01 X0.28046 Y19.66050
( Mill infeed pass 8/12 )
G01 Z-0.40000
G04 P0 ( dwell for no time -- G64 should not smooth over this point )
G01 F20.00000
G01 X0.28046 Y19.66050
G01 X0.28046 Y22.96050
G01 X1.98048 Y22.96050
G01 X1.98048 Y19.66050
G01 X0.28046 Y19.66050
( Mill infeed pass 9/12 )
G01 Z-0.45000
G04 P0 ( dwell for no time -- G64 should not smooth over this point )
G01 F20.00000
G01 X0.28046 Y19.66050
G01 X0.28046 Y22.96050
G01 X1.98048 Y22.96050
G01 X1.98048 Y19.66050
G01 X0.28046 Y19.66050
( Mill infeed pass 10/12 )
G01 Z-0.50000
G04 P0 ( dwell for no time -- G64 should not smooth over this point )
G01 F20.00000
G01 X0.28046 Y19.66050
G01 X0.28046 Y22.96050
G01 X1.98048 Y22.96050
G01 X1.98048 Y19.66050
G01 X0.28046 Y19.66050
( Mill infeed pass 11/12 )
G01 Z-0.55000
G04 P0 ( dwell for no time -- G64 should not smooth over this point )
G01 F20.00000
G01 X0.28046 Y19.66050
G01 X0.28046 Y22.96050
G01 X1.98048 Y22.96050
G01 X1.98048 Y19.66050
G01 X0.28046 Y19.66050
( Mill infeed pass 12/12 )
G01 Z-0.60000
G04 P0 ( dwell for no time -- G64 should not smooth over this point )
G01 F20.00000
G01 X0.28046 Y19.66050
G01 X0.28046 Y22.96050
G01 X1.98048 Y22.96050
G01 X1.98048 Y19.66050
G01 X0.28046 Y19.66050
G04 P0 ( dwell for no time -- G64 should not smooth over this point )
G00 Z0.50000 ( retract )

G00 X2.82046 Y19.66050 ( rapid move to begin. )
G01 F30.00000
( Mill infeed pass 1/12 )
G01 Z-0.05000
G04 P0 ( dwell for no time -- G64 should not smooth over this point )
G01 F20.00000
G01 X2.82046 Y19.66050
G01 X2.82046 Y22.96050
G01 X4.52048 Y22.96050
G01 X4.52048 Y19.66050
G01 X2.82046 Y19.66050
( Mill infeed pass 2/12 )
G01 Z-0.10000
G04 P0 ( dwell for no time -- G64 should not smooth over this point )
G01 F20.00000
G01 X2.82046 Y19.66050
G01 X2.82046 Y22.96050
G01 X4.52048 Y22.96050
G01 X4.52048 Y19.66050
G01 X2.82046 Y19.66050
( Mill infeed pass 3/12 )
G01 Z-0.15000
G04 P0 ( dwell for no time -- G64 should not smooth over this point )
G01 F20.00000
G01 X2.82046 Y19.66050
G01 X2.82046 Y22.96050
G01 X4.52048 Y22.96050
G01 X4.52048 Y19.66050
G01 X2.82046 Y19.66050
( Mill infeed pass 4/12 )
G01 Z-0.20000
G04 P0 ( dwell for no time -- G64 should not smooth over this point )
G01 F20.00000
G01 X2.82046 Y19.66050
G01 X2.82046 Y22.96050
G01 X4.52048 Y22.96050
G01 X4.52048 Y19.66050
G01 X2.82046 Y19.66050
( Mill infeed pass 5/12 )
G01 Z-0.25000
G04 P0 ( dwell for no time -- G64 should not smooth over this point )
G01 F20.00000
G01 X2.82046 Y19.66050
G01 X2.82046 Y22.96050
G01 X4.52048 Y22.96050
G01 X4.52048 Y19.66050
G01 X2.82046 Y19.66050
( Mill infeed pass 6/12 )
G01 Z-0.30000
G04 P0 ( dwell for no time -- G64 should not smooth over this point )
G01 F20.00000
G01 X2.82046 Y19.66050
G01 X2.82046 Y22.96050
G01 X4.52048 Y22.96050
G01 X4.52048 Y19.66050
G01 X2.82046 Y19.66050
( Mill infeed pass 7/12 )
G01 Z-0.35000
G04 P0 ( dwell for no time -- G64 should not smooth over this point )
G01 F20.00000
G01 X2.82046 Y19.66050
G01 X2.82046 Y22.96050
G01 X4.52048 Y22.96050
G01 X4.52048 Y19.66050
G01 X2.82046 Y19.66050
( Mill infeed pass 8/12 )
G01 Z-0.40000
G04 P0 ( dwell for no time -- G64 should not smooth over this point )
G01 F20.00000
G01 X2.82046 Y19.66050
G01 X2.82046 Y22.96050
G01 X4.52048 Y22.96050
G01 X4.52048 Y19.66050
G01 X2.82046 Y19.66050
( Mill infeed pass 9/12 )
G01 Z-0.45000
G04 P0 ( dwell for no time -- G64 should not smooth over this point )
G01 F20.00000
G01 X2.82046 Y19.66050
G01 X2.82046 Y22.96050
G01 X4.52048 Y22.96050
G01 X4.52048 Y19.66050
G01 X2.82046 Y19.66050
( Mill infeed pass 10/12 )
G01 Z-0.50000
G04 P0 ( dwell for no time -- G64 should not smooth over this point )
G01 F20.00000
G01 X2.82046 Y19.66050
G01 X2.82046 Y22.96050
G01 X4.52048 Y22.96050
G01 X4.52048 Y19.66050
G01 X2.82046 Y19.66050
( Mill infeed pass 11/12 )
G01 Z-0.55000
G04 P0 ( dwell for no time -- G64 should not smooth over this point )
G01 F20.00000
G01 X2.82046 Y19.66050
G01 X2.82046 Y22.96050
G01 X4.52048 Y22.96050
G01 X4.52048 Y19.66050
G01 X2.82046 Y19.66050
( Mill infeed pass 12/12 )
G01 Z-0.60000
G04 P0 ( dwell for no time -- G64 should not smooth over this point )
G01 F20.00000
G01 X2.82046 Y19.66050
G01 X2.82046 Y22.96050
G01 X4.52048 Y22.96050
G01 X4.52048 Y19.66050
G01 X2.82046 Y19.66050
G04 P0 ( dwell for no time -- G64 should not smooth over this point )
G00 Z0.50000 ( retract )

G00 X5.36046 Y19.66050 ( rapid move to begin. )
G01 F30.00000
( Mill infeed pass 1/12 )
G01 Z-0.05000
G04 P0 ( dwell for no time -- G64 should not smooth over this point )
G01 F20.00000
G01 X5.36046 Y19.66050
G01 X5.36046 Y22.96050
G01 X7.06045 Y22.96050
G01 X7.06045 Y19.66050
G01 X5.36046 Y19.66050
( Mill infeed pass 2/12 )
G01 Z-0.10000
G04 P0 ( dwell for no time -- G64 should not smooth over this point )
G01 F20.00000
G01 X5.36046 Y19.66050
G01 X5.36046 Y22.96050
G01 X7.06045 Y22.96050
G01 X7.06045 Y19.66050
G01 X5.36046 Y19.66050
( Mill infeed pass 3/12 )
G01 Z-0.15000
G04 P0 ( dwell for no time -- G64 should not smooth over this point )
G01 F20.00000
G01 X5.36046 Y19.66050
G01 X5.36046 Y22.96050
G01 X7.06045 Y22.96050
G01 X7.06045 Y19.66050
G01 X5.36046 Y19.66050
( Mill infeed pass 4/12 )
G01 Z-0.20000
G04 P0 ( dwell for no time -- G64 should not smooth over this point )
G01 F20.00000
G01 X5.36046 Y19.66050
G01 X5.36046 Y22.96050
G01 X7.06045 Y22.96050
G01 X7.06045 Y19.66050
G01 X5.36046 Y19.66050
( Mill infeed pass 5/12 )
G01 Z-0.25000
G04 P0 ( dwell for no time -- G64 should not smooth over this point )
G01 F20.00000
G01 X5.36046 Y19.66050
G01 X5.36046 Y22.96050
G01 X7.06045 Y22.96050
G01 X7.06045 Y19.66050
G01 X5.36046 Y19.66050
( Mill infeed pass 6/12 )
G01 Z-0.30000
G04 P0 ( dwell for no time -- G64 should not smooth over this point )
G01 F20.00000
G01 X5.36046 Y19.66050
G01 X5.36046 Y22.96050
G01 X7.06045 Y22.96050
G01 X7.06045 Y19.66050
G01 X5.36046 Y19.66050
( Mill infeed pass 7/12 )
G01 Z-0.35000
G04 P0 ( dwell for no time -- G64 should not smooth over this point )
G01 F20.00000
G01 X5.36046 Y19.66050
G01 X5.36046 Y22.96050
G01 X7.06045 Y22.96050
G01 X7.06045 Y19.66050
G01 X5.36046 Y19.66050
( Mill infeed pass 8/12 )
G01 Z-0.40000
G04 P0 ( dwell for no time -- G64 should not smooth over this point )
G01 F20.00000
G01 X5.36046 Y19.66050
G01 X5.36046 Y22.96050
G01 X7.06045 Y22.96050
G01 X7.06045 Y19.66050
G01 X5.36046 Y19.66050
( Mill infeed pass 9/12 )
G01 Z-0.45000
G04 P0 ( dwell for no time -- G64 should not smooth over this point )
G01 F20.00000
G01 X5.36046 Y19.66050
G01 X5.36046 Y22.96050
G01 X7.06045 Y22.96050
G01 X7.06045 Y19.66050
G01 X5.36046 Y19.66050
( Mill infeed pass 10/12 )
G01 Z-0.50000
G04 P0 ( dwell for no time -- G64 should not smooth over this point )
G01 F20.00000
G01 X5.36046 Y19.66050
G01 X5.36046 Y22.96050
G01 X7.06045 Y22.96050
G01 X7.06045 Y19.66050
G01 X5.36046 Y19.66050
( Mill infeed pass 11/12 )
G01 Z-0.55000
G04 P0 ( dwell for no time -- G64 should not smooth over this point )
G01 F20.00000
G01 X5.36046 Y19.66050
G01 X5.36046 Y22.96050
G01 X7.06045 Y22.96050
G01 X7.06045 Y19.66050
G01 X5.36046 Y19.66050
( Mill infeed pass 12/12 )
G01 Z-0.60000
G04 P0 ( dwell for no time -- G64 should not smooth over this point )
G01 F20.00000
G01 X5.36046 Y19.66050
G01 X5.36046 Y22.96050
G01 X7.06045 Y22.96050
G01 X7.06045 Y19.66050
G01 X5.36046 Y19.66050
G04 P0 ( dwell for no time -- G64 should not smooth over this point )
G00 Z0.50000 ( retract )

G00 X7.90046 Y19.66050 ( rapid move to begin. )
G01 F30.00000
( Mill infeed pass 1/12 )
G01 Z-0.05000
G04 P0 ( dwell for no time -- G64 should not smooth over this point )
G01 F20.00000
G01 X7.90046 Y19.66050
G01 X7.90046 Y22.96050
G01 X9.60048 Y22.96050
G01 X9.60048 Y19.66050
G01 X7.90046 Y19.66050
( Mill infeed pass 2/12 )
G01 Z-0.10000
G04 P0 ( dwell for no time -- G64 should not smooth over this point )
G01 F20.00000
G01 X7.90046 Y19.66050
G01 X7.90046 Y22.96050
G01 X9.60048 Y22.96050
G01 X9.60048 Y19.66050
G01 X7.90046 Y19.66050
( Mill infeed pass 3/12 )
G01 Z-0.15000
G04 P0 ( dwell for no time -- G64 should not smooth over this point )
G01 F20.00000
G01 X7.90046 Y19.66050
G01 X7.90046 Y22.96050
G01 X9.60048 Y22.96050
G01 X9.60048 Y19.66050
G01 X7.90046 Y19.66050
( Mill infeed pass 4/12 )
G01 Z-0.20000
G04 P0 ( dwell for no time -- G64 should not smooth over this point )
G01 F20.00000
G01 X7.90046 Y19.66050
G01 X7.90046 Y22.96050
G01 X9.60048 Y22.96050
G01 X9.60048 Y19.66050
G01 X7.90046 Y19.66050
( Mill infeed pass 5/12 )
G01 Z-0.25000
G04 P0 ( dwell for no time -- G64 should not smooth over this point )
G01 F20.00000
G01 X7.90046 Y19.66050
G01 X7.90046 Y22.96050
G01 X9.60048 Y22.96050
G01 X9.60048 Y19.66050
G01 X7.90046 Y19.66050
( Mill infeed pass 6/12 )
G01 Z-0.30000
G04 P0 ( dwell for no time -- G64 should not smooth over this point )
G01 F20.00000
G01 X7.90046 Y19.66050
G01 X7.90046 Y22.96050
G01 X9.60048 Y22.96050
G01 X9.60048 Y19.66050
G01 X7.90046 Y19.66050
( Mill infeed pass 7/12 )
G01 Z-0.35000
G04 P0 ( dwell for no time -- G64 should not smooth over this point )
G01 F20.00000
G01 X7.90046 Y19.66050
G01 X7.90046 Y22.96050
G01 X9.60048 Y22.96050
G01 X9.60048 Y19.66050
G01 X7.90046 Y19.66050
( Mill infeed pass 8/12 )
G01 Z-0.40000
G04 P0 ( dwell for no time -- G64 should not smooth over this point )
G01 F20.00000
G01 X7.90046 Y19.66050
G01 X7.90046 Y22.96050
G01 X9.60048 Y22.96050
G01 X9.60048 Y19.66050
G01 X7.90046 Y19.66050
( Mill infeed pass 9/12 )
G01 Z-0.45000
G04 P0 ( dwell for no time -- G64 should not smooth over this point )
G01 F20.00000
G01 X7.90046 Y19.66050
G01 X7.90046 Y22.96050
G01 X9.60048 Y22.96050
G01 X9.60048 Y19.66050
G01 X7.90046 Y19.66050
( Mill infeed pass 10/12 )
G01 Z-0.50000
G04 P0 ( dwell for no time -- G64 should not smooth over this point )
G01 F20.00000
G01 X7.90046 Y19.66050
G01 X7.90046 Y22.96050
G01 X9.60048 Y22.96050
G01 X9.60048 Y19.66050
G01 X7.90046 Y19.66050
( Mill infeed pass 11/12 )
G01 Z-0.55000
G04 P0 ( dwell for no time -- G64 should not smooth over this point )
G01 F20.00000
G01 X7.90046 Y19.66050
G01 X7.90046 Y22.96050
G01 X9.60048 Y22.96050
G01 X9.60048 Y19.66050
G01 X7.90046 Y19.66050
( Mill infeed pass 12/12 )
G01 Z-0.60000
G04 P0 ( dwell for no time -- G64 should not smooth over this point )
G01 F20.00000
G01 X7.90046 Y19.66050
G01 X7.90046 Y22.96050
G01 X9.60048 Y22.96050
G01 X9.60048 Y19.66050
G01 X7.90046 Y19.66050
G04 P0 ( dwell for no time -- G64 should not smooth over this point )
G00 Z0.50000 ( retract )

G00 X10.44046 Y19.66050 ( rapid move to begin. )
G01 F30.00000
( Mill infeed pass 1/12 )
G01 Z-0.05000
G04 P0 ( dwell for no time -- G64 should not smooth over this point )
G01 F20.00000
G01 X10.44046 Y19.66050
G01 X10.44046 Y22.96050
G01 X12.14048 Y22.96050
G01 X12.14048 Y19.66050
G01 X10.44046 Y19.66050
( Mill infeed pass 2/12 )
G01 Z-0.10000
G04 P0 ( dwell for no time -- G64 should not smooth over this point )
G01 F20.00000
G01 X10.44046 Y19.66050
G01 X10.44046 Y22.96050
G01 X12.14048 Y22.96050
G01 X12.14048 Y19.66050
G01 X10.44046 Y19.66050
( Mill infeed pass 3/12 )
G01 Z-0.15000
G04 P0 ( dwell for no time -- G64 should not smooth over this point )
G01 F20.00000
G01 X10.44046 Y19.66050
G01 X10.44046 Y22.96050
G01 X12.14048 Y22.96050
G01 X12.14048 Y19.66050
G01 X10.44046 Y19.66050
( Mill infeed pass 4/12 )
G01 Z-0.20000
G04 P0 ( dwell for no time -- G64 should not smooth over this point )
G01 F20.00000
G01 X10.44046 Y19.66050
G01 X10.44046 Y22.96050
G01 X12.14048 Y22.96050
G01 X12.14048 Y19.66050
G01 X10.44046 Y19.66050
( Mill infeed pass 5/12 )
G01 Z-0.25000
G04 P0 ( dwell for no time -- G64 should not smooth over this point )
G01 F20.00000
G01 X10.44046 Y19.66050
G01 X10.44046 Y22.96050
G01 X12.14048 Y22.96050
G01 X12.14048 Y19.66050
G01 X10.44046 Y19.66050
( Mill infeed pass 6/12 )
G01 Z-0.30000
G04 P0 ( dwell for no time -- G64 should not smooth over this point )
G01 F20.00000
G01 X10.44046 Y19.66050
G01 X10.44046 Y22.96050
G01 X12.14048 Y22.96050
G01 X12.14048 Y19.66050
G01 X10.44046 Y19.66050
( Mill infeed pass 7/12 )
G01 Z-0.35000
G04 P0 ( dwell for no time -- G64 should not smooth over this point )
G01 F20.00000
G01 X10.44046 Y19.66050
G01 X10.44046 Y22.96050
G01 X12.14048 Y22.96050
G01 X12.14048 Y19.66050
G01 X10.44046 Y19.66050
( Mill infeed pass 8/12 )
G01 Z-0.40000
G04 P0 ( dwell for no time -- G64 should not smooth over this point )
G01 F20.00000
G01 X10.44046 Y19.66050
G01 X10.44046 Y22.96050
G01 X12.14048 Y22.96050
G01 X12.14048 Y19.66050
G01 X10.44046 Y19.66050
( Mill infeed pass 9/12 )
G01 Z-0.45000
G04 P0 ( dwell for no time -- G64 should not smooth over this point )
G01 F20.00000
G01 X10.44046 Y19.66050
G01 X10.44046 Y22.96050
G01 X12.14048 Y22.96050
G01 X12.14048 Y19.66050
G01 X10.44046 Y19.66050
( Mill infeed pass 10/12 )
G01 Z-0.50000
G04 P0 ( dwell for no time -- G64 should not smooth over this point )
G01 F20.00000
G01 X10.44046 Y19.66050
G01 X10.44046 Y22.96050
G01 X12.14048 Y22.96050
G01 X12.14048 Y19.66050
G01 X10.44046 Y19.66050
( Mill infeed pass 11/12 )
G01 Z-0.55000
G04 P0 ( dwell for no time -- G64 should not smooth over this point )
G01 F20.00000
G01 X10.44046 Y19.66050
G01 X10.44046 Y22.96050
G01 X12.14048 Y22.96050
G01 X12.14048 Y19.66050
G01 X10.44046 Y19.66050
( Mill infeed pass 12/12 )
G01 Z-0.60000
G04 P0 ( dwell for no time -- G64 should not smooth over this point )
G01 F20.00000
G01 X10.44046 Y19.66050
G01 X10.44046 Y22.96050
G01 X12.14048 Y22.96050
G01 X12.14048 Y19.66050
G01 X10.44046 Y19.66050
G04 P0 ( dwell for no time -- G64 should not smooth over this point )
G00 Z0.50000 ( retract )

G00 X12.98046 Y19.66050 ( rapid move to begin. )
G01 F30.00000
( Mill infeed pass 1/12 )
G01 Z-0.05000
G04 P0 ( dwell for no time -- G64 should not smooth over this point )
G01 F20.00000
G01 X12.98046 Y19.66050
G01 X12.98046 Y22.96050
G01 X14.68048 Y22.96050
G01 X14.68048 Y19.66050
G01 X12.98046 Y19.66050
( Mill infeed pass 2/12 )
G01 Z-0.10000
G04 P0 ( dwell for no time -- G64 should not smooth over this point )
G01 F20.00000
G01 X12.98046 Y19.66050
G01 X12.98046 Y22.96050
G01 X14.68048 Y22.96050
G01 X14.68048 Y19.66050
G01 X12.98046 Y19.66050
( Mill infeed pass 3/12 )
G01 Z-0.15000
G04 P0 ( dwell for no time -- G64 should not smooth over this point )
G01 F20.00000
G01 X12.98046 Y19.66050
G01 X12.98046 Y22.96050
G01 X14.68048 Y22.96050
G01 X14.68048 Y19.66050
G01 X12.98046 Y19.66050
( Mill infeed pass 4/12 )
G01 Z-0.20000
G04 P0 ( dwell for no time -- G64 should not smooth over this point )
G01 F20.00000
G01 X12.98046 Y19.66050
G01 X12.98046 Y22.96050
G01 X14.68048 Y22.96050
G01 X14.68048 Y19.66050
G01 X12.98046 Y19.66050
( Mill infeed pass 5/12 )
G01 Z-0.25000
G04 P0 ( dwell for no time -- G64 should not smooth over this point )
G01 F20.00000
G01 X12.98046 Y19.66050
G01 X12.98046 Y22.96050
G01 X14.68048 Y22.96050
G01 X14.68048 Y19.66050
G01 X12.98046 Y19.66050
( Mill infeed pass 6/12 )
G01 Z-0.30000
G04 P0 ( dwell for no time -- G64 should not smooth over this point )
G01 F20.00000
G01 X12.98046 Y19.66050
G01 X12.98046 Y22.96050
G01 X14.68048 Y22.96050
G01 X14.68048 Y19.66050
G01 X12.98046 Y19.66050
( Mill infeed pass 7/12 )
G01 Z-0.35000
G04 P0 ( dwell for no time -- G64 should not smooth over this point )
G01 F20.00000
G01 X12.98046 Y19.66050
G01 X12.98046 Y22.96050
G01 X14.68048 Y22.96050
G01 X14.68048 Y19.66050
G01 X12.98046 Y19.66050
( Mill infeed pass 8/12 )
G01 Z-0.40000
G04 P0 ( dwell for no time -- G64 should not smooth over this point )
G01 F20.00000
G01 X12.98046 Y19.66050
G01 X12.98046 Y22.96050
G01 X14.68048 Y22.96050
G01 X14.68048 Y19.66050
G01 X12.98046 Y19.66050
( Mill infeed pass 9/12 )
G01 Z-0.45000
G04 P0 ( dwell for no time -- G64 should not smooth over this point )
G01 F20.00000
G01 X12.98046 Y19.66050
G01 X12.98046 Y22.96050
G01 X14.68048 Y22.96050
G01 X14.68048 Y19.66050
G01 X12.98046 Y19.66050
( Mill infeed pass 10/12 )
G01 Z-0.50000
G04 P0 ( dwell for no time -- G64 should not smooth over this point )
G01 F20.00000
G01 X12.98046 Y19.66050
G01 X12.98046 Y22.96050
G01 X14.68048 Y22.96050
G01 X14.68048 Y19.66050
G01 X12.98046 Y19.66050
( Mill infeed pass 11/12 )
G01 Z-0.55000
G04 P0 ( dwell for no time -- G64 should not smooth over this point )
G01 F20.00000
G01 X12.98046 Y19.66050
G01 X12.98046 Y22.96050
G01 X14.68048 Y22.96050
G01 X14.68048 Y19.66050
G01 X12.98046 Y19.66050
( Mill infeed pass 12/12 )
G01 Z-0.60000
G04 P0 ( dwell for no time -- G64 should not smooth over this point )
G01 F20.00000
G01 X12.98046 Y19.66050
G01 X12.98046 Y22.96050
G01 X14.68048 Y22.96050
G01 X14.68048 Y19.66050
G01 X12.98046 Y19.66050
G04 P0 ( dwell for no time -- G64 should not smooth over this point )
G00 Z0.50000 ( retract )

G00 X15.52046 Y19.66050 ( rapid move to begin. )
G01 F30.00000
( Mill infeed pass 1/12 )
G01 Z-0.05000
G04 P0 ( dwell for no time -- G64 should not smooth over this point )
G01 F20.00000
G01 X15.52046 Y19.66050
G01 X15.52046 Y22.96050
G01 X17.22048 Y22.96050
G01 X17.22048 Y19.66050
G01 X15.52046 Y19.66050
( Mill infeed pass 2/12 )
G01 Z-0.10000
G04 P0 ( dwell for no time -- G64 should not smooth over this point )
G01 F20.00000
G01 X15.52046 Y19.66050
G01 X15.52046 Y22.96050
G01 X17.22048 Y22.96050
G01 X17.22048 Y19.66050
G01 X15.52046 Y19.66050
( Mill infeed pass 3/12 )
G01 Z-0.15000
G04 P0 ( dwell for no time -- G64 should not smooth over this point )
G01 F20.00000
G01 X15.52046 Y19.66050
G01 X15.52046 Y22.96050
G01 X17.22048 Y22.96050
G01 X17.22048 Y19.66050
G01 X15.52046 Y19.66050
( Mill infeed pass 4/12 )
G01 Z-0.20000
G04 P0 ( dwell for no time -- G64 should not smooth over this point )
G01 F20.00000
G01 X15.52046 Y19.66050
G01 X15.52046 Y22.96050
G01 X17.22048 Y22.96050
G01 X17.22048 Y19.66050
G01 X15.52046 Y19.66050
( Mill infeed pass 5/12 )
G01 Z-0.25000
G04 P0 ( dwell for no time -- G64 should not smooth over this point )
G01 F20.00000
G01 X15.52046 Y19.66050
G01 X15.52046 Y22.96050
G01 X17.22048 Y22.96050
G01 X17.22048 Y19.66050
G01 X15.52046 Y19.66050
( Mill infeed pass 6/12 )
G01 Z-0.30000
G04 P0 ( dwell for no time -- G64 should not smooth over this point )
G01 F20.00000
G01 X15.52046 Y19.66050
G01 X15.52046 Y22.96050
G01 X17.22048 Y22.96050
G01 X17.22048 Y19.66050
G01 X15.52046 Y19.66050
( Mill infeed pass 7/12 )
G01 Z-0.35000
G04 P0 ( dwell for no time -- G64 should not smooth over this point )
G01 F20.00000
G01 X15.52046 Y19.66050
G01 X15.52046 Y22.96050
G01 X17.22048 Y22.96050
G01 X17.22048 Y19.66050
G01 X15.52046 Y19.66050
( Mill infeed pass 8/12 )
G01 Z-0.40000
G04 P0 ( dwell for no time -- G64 should not smooth over this point )
G01 F20.00000
G01 X15.52046 Y19.66050
G01 X15.52046 Y22.96050
G01 X17.22048 Y22.96050
G01 X17.22048 Y19.66050
G01 X15.52046 Y19.66050
( Mill infeed pass 9/12 )
G01 Z-0.45000
G04 P0 ( dwell for no time -- G64 should not smooth over this point )
G01 F20.00000
G01 X15.52046 Y19.66050
G01 X15.52046 Y22.96050
G01 X17.22048 Y22.96050
G01 X17.22048 Y19.66050
G01 X15.52046 Y19.66050
( Mill infeed pass 10/12 )
G01 Z-0.50000
G04 P0 ( dwell for no time -- G64 should not smooth over this point )
G01 F20.00000
G01 X15.52046 Y19.66050
G01 X15.52046 Y22.96050
G01 X17.22048 Y22.96050
G01 X17.22048 Y19.66050
G01 X15.52046 Y19.66050
( Mill infeed pass 11/12 )
G01 Z-0.55000
G04 P0 ( dwell for no time -- G64 should not smooth over this point )
G01 F20.00000
G01 X15.52046 Y19.66050
G01 X15.52046 Y22.96050
G01 X17.22048 Y22.96050
G01 X17.22048 Y19.66050
G01 X15.52046 Y19.66050
( Mill infeed pass 12/12 )
G01 Z-0.60000
G04 P0 ( dwell for no time -- G64 should not smooth over this point )
G01 F20.00000
G01 X15.52046 Y19.66050
G01 X15.52046 Y22.96050
G01 X17.22048 Y22.96050
G01 X17.22048 Y19.66050
G01 X15.52046 Y19.66050
G04 P0 ( dwell for no time -- G64 should not smooth over this point )
G00 Z0.50000 ( retract )

G00 X18.06046 Y19.66050 ( rapid move to begin. )
G01 F30.00000
( Mill infeed pass 1/12 )
G01 Z-0.05000
G04 P0 ( dwell for no time -- G64 should not smooth over this point )
G01 F20.00000
G01 X18.06046 Y19.66050
G01 X18.06046 Y22.96050
G01 X19.76048 Y22.96050
G01 X19.76048 Y19.66050
G01 X18.06046 Y19.66050
( Mill infeed pass 2/12 )
G01 Z-0.10000
G04 P0 ( dwell for no time -- G64 should not smooth over this point )
G01 F20.00000
G01 X18.06046 Y19.66050
G01 X18.06046 Y22.96050
G01 X19.76048 Y22.96050
G01 X19.76048 Y19.66050
G01 X18.06046 Y19.66050
( Mill infeed pass 3/12 )
G01 Z-0.15000
G04 P0 ( dwell for no time -- G64 should not smooth over this point )
G01 F20.00000
G01 X18.06046 Y19.66050
G01 X18.06046 Y22.96050
G01 X19.76048 Y22.96050
G01 X19.76048 Y19.66050
G01 X18.06046 Y19.66050
( Mill infeed pass 4/12 )
G01 Z-0.20000
G04 P0 ( dwell for no time -- G64 should not smooth over this point )
G01 F20.00000
G01 X18.06046 Y19.66050
G01 X18.06046 Y22.96050
G01 X19.76048 Y22.96050
G01 X19.76048 Y19.66050
G01 X18.06046 Y19.66050
( Mill infeed pass 5/12 )
G01 Z-0.25000
G04 P0 ( dwell for no time -- G64 should not smooth over this point )
G01 F20.00000
G01 X18.06046 Y19.66050
G01 X18.06046 Y22.96050
G01 X19.76048 Y22.96050
G01 X19.76048 Y19.66050
G01 X18.06046 Y19.66050
( Mill infeed pass 6/12 )
G01 Z-0.30000
G04 P0 ( dwell for no time -- G64 should not smooth over this point )
G01 F20.00000
G01 X18.06046 Y19.66050
G01 X18.06046 Y22.96050
G01 X19.76048 Y22.96050
G01 X19.76048 Y19.66050
G01 X18.06046 Y19.66050
( Mill infeed pass 7/12 )
G01 Z-0.35000
G04 P0 ( dwell for no time -- G64 should not smooth over this point )
G01 F20.00000
G01 X18.06046 Y19.66050
G01 X18.06046 Y22.96050
G01 X19.76048 Y22.96050
G01 X19.76048 Y19.66050
G01 X18.06046 Y19.66050
( Mill infeed pass 8/12 )
G01 Z-0.40000
G04 P0 ( dwell for no time -- G64 should not smooth over this point )
G01 F20.00000
G01 X18.06046 Y19.66050
G01 X18.06046 Y22.96050
G01 X19.76048 Y22.96050
G01 X19.76048 Y19.66050
G01 X18.06046 Y19.66050
( Mill infeed pass 9/12 )
G01 Z-0.45000
G04 P0 ( dwell for no time -- G64 should not smooth over this point )
G01 F20.00000
G01 X18.06046 Y19.66050
G01 X18.06046 Y22.96050
G01 X19.76048 Y22.96050
G01 X19.76048 Y19.66050
G01 X18.06046 Y19.66050
( Mill infeed pass 10/12 )
G01 Z-0.50000
G04 P0 ( dwell for no time -- G64 should not smooth over this point )
G01 F20.00000
G01 X18.06046 Y19.66050
G01 X18.06046 Y22.96050
G01 X19.76048 Y22.96050
G01 X19.76048 Y19.66050
G01 X18.06046 Y19.66050
( Mill infeed pass 11/12 )
G01 Z-0.55000
G04 P0 ( dwell for no time -- G64 should not smooth over this point )
G01 F20.00000
G01 X18.06046 Y19.66050
G01 X18.06046 Y22.96050
G01 X19.76048 Y22.96050
G01 X19.76048 Y19.66050
G01 X18.06046 Y19.66050
( Mill infeed pass 12/12 )
G01 Z-0.60000
G04 P0 ( dwell for no time -- G64 should not smooth over this point )
G01 F20.00000
G01 X18.06046 Y19.66050
G01 X18.06046 Y22.96050
G01 X19.76048 Y22.96050
G01 X19.76048 Y19.66050
G01 X18.06046 Y19.66050
G04 P0 ( dwell for no time -- G64 should not smooth over this point )
G00 Z0.50000 ( retract )

G00 X20.60046 Y19.66050 ( rapid move to begin. )
G01 F30.00000
( Mill infeed pass 1/12 )
G01 Z-0.05000
G04 P0 ( dwell for no time -- G64 should not smooth over this point )
G01 F20.00000
G01 X20.60046 Y19.66050
G01 X20.60046 Y22.96050
G01 X22.30048 Y22.96050
G01 X22.30048 Y19.66050
G01 X20.60046 Y19.66050
( Mill infeed pass 2/12 )
G01 Z-0.10000
G04 P0 ( dwell for no time -- G64 should not smooth over this point )
G01 F20.00000
G01 X20.60046 Y19.66050
G01 X20.60046 Y22.96050
G01 X22.30048 Y22.96050
G01 X22.30048 Y19.66050
G01 X20.60046 Y19.66050
( Mill infeed pass 3/12 )
G01 Z-0.15000
G04 P0 ( dwell for no time -- G64 should not smooth over this point )
G01 F20.00000
G01 X20.60046 Y19.66050
G01 X20.60046 Y22.96050
G01 X22.30048 Y22.96050
G01 X22.30048 Y19.66050
G01 X20.60046 Y19.66050
( Mill infeed pass 4/12 )
G01 Z-0.20000
G04 P0 ( dwell for no time -- G64 should not smooth over this point )
G01 F20.00000
G01 X20.60046 Y19.66050
G01 X20.60046 Y22.96050
G01 X22.30048 Y22.96050
G01 X22.30048 Y19.66050
G01 X20.60046 Y19.66050
( Mill infeed pass 5/12 )
G01 Z-0.25000
G04 P0 ( dwell for no time -- G64 should not smooth over this point )
G01 F20.00000
G01 X20.60046 Y19.66050
G01 X20.60046 Y22.96050
G01 X22.30048 Y22.96050
G01 X22.30048 Y19.66050
G01 X20.60046 Y19.66050
( Mill infeed pass 6/12 )
G01 Z-0.30000
G04 P0 ( dwell for no time -- G64 should not smooth over this point )
G01 F20.00000
G01 X20.60046 Y19.66050
G01 X20.60046 Y22.96050
G01 X22.30048 Y22.96050
G01 X22.30048 Y19.66050
G01 X20.60046 Y19.66050
( Mill infeed pass 7/12 )
G01 Z-0.35000
G04 P0 ( dwell for no time -- G64 should not smooth over this point )
G01 F20.00000
G01 X20.60046 Y19.66050
G01 X20.60046 Y22.96050
G01 X22.30048 Y22.96050
G01 X22.30048 Y19.66050
G01 X20.60046 Y19.66050
( Mill infeed pass 8/12 )
G01 Z-0.40000
G04 P0 ( dwell for no time -- G64 should not smooth over this point )
G01 F20.00000
G01 X20.60046 Y19.66050
G01 X20.60046 Y22.96050
G01 X22.30048 Y22.96050
G01 X22.30048 Y19.66050
G01 X20.60046 Y19.66050
( Mill infeed pass 9/12 )
G01 Z-0.45000
G04 P0 ( dwell for no time -- G64 should not smooth over this point )
G01 F20.00000
G01 X20.60046 Y19.66050
G01 X20.60046 Y22.96050
G01 X22.30048 Y22.96050
G01 X22.30048 Y19.66050
G01 X20.60046 Y19.66050
( Mill infeed pass 10/12 )
G01 Z-0.50000
G04 P0 ( dwell for no time -- G64 should not smooth over this point )
G01 F20.00000
G01 X20.60046 Y19.66050
G01 X20.60046 Y22.96050
G01 X22.30048 Y22.96050
G01 X22.30048 Y19.66050
G01 X20.60046 Y19.66050
( Mill infeed pass 11/12 )
G01 Z-0.55000
G04 P0 ( dwell for no time -- G64 should not smooth over this point )
G01 F20.00000
G01 X20.60046 Y19.66050
G01 X20.60046 Y22.96050
G01 X22.30048 Y22.96050
G01 X22.30048 Y19.66050
G01 X20.60046 Y19.66050
( Mill infeed pass 12/12 )
G01 Z-0.60000
G04 P0 ( dwell for no time -- G64 should not smooth over this point )
G01 F20.00000
G01 X20.60046 Y19.66050
G01 X20.60046 Y22.96050
G01 X22.30048 Y22.96050
G01 X22.30048 Y19.66050
G01 X20.60046 Y19.66050
G04 P0 ( dwell for no time -- G64 should not smooth over this point )
G00 Z0.50000 ( retract )

G00 X23.14046 Y19.66050 ( rapid move to begin. )
G01 F30.00000
( Mill infeed pass 1/12 )
G01 Z-0.05000
G04 P0 ( dwell for no time -- G64 should not smooth over this point )
G01 F20.00000
G01 X23.14046 Y19.66050
G01 X23.14046 Y22.96050
G01 X24.84048 Y22.96050
G01 X24.84048 Y19.66050
G01 X23.14046 Y19.66050
( Mill infeed pass 2/12 )
G01 Z-0.10000
G04 P0 ( dwell for no time -- G64 should not smooth over this point )
G01 F20.00000
G01 X23.14046 Y19.66050
G01 X23.14046 Y22.96050
G01 X24.84048 Y22.96050
G01 X24.84048 Y19.66050
G01 X23.14046 Y19.66050
( Mill infeed pass 3/12 )
G01 Z-0.15000
G04 P0 ( dwell for no time -- G64 should not smooth over this point )
G01 F20.00000
G01 X23.14046 Y19.66050
G01 X23.14046 Y22.96050
G01 X24.84048 Y22.96050
G01 X24.84048 Y19.66050
G01 X23.14046 Y19.66050
( Mill infeed pass 4/12 )
G01 Z-0.20000
G04 P0 ( dwell for no time -- G64 should not smooth over this point )
G01 F20.00000
G01 X23.14046 Y19.66050
G01 X23.14046 Y22.96050
G01 X24.84048 Y22.96050
G01 X24.84048 Y19.66050
G01 X23.14046 Y19.66050
( Mill infeed pass 5/12 )
G01 Z-0.25000
G04 P0 ( dwell for no time -- G64 should not smooth over this point )
G01 F20.00000
G01 X23.14046 Y19.66050
G01 X23.14046 Y22.96050
G01 X24.84048 Y22.96050
G01 X24.84048 Y19.66050
G01 X23.14046 Y19.66050
( Mill infeed pass 6/12 )
G01 Z-0.30000
G04 P0 ( dwell for no time -- G64 should not smooth over this point )
G01 F20.00000
G01 X23.14046 Y19.66050
G01 X23.14046 Y22.96050
G01 X24.84048 Y22.96050
G01 X24.84048 Y19.66050
G01 X23.14046 Y19.66050
( Mill infeed pass 7/12 )
G01 Z-0.35000
G04 P0 ( dwell for no time -- G64 should not smooth over this point )
G01 F20.00000
G01 X23.14046 Y19.66050
G01 X23.14046 Y22.96050
G01 X24.84048 Y22.96050
G01 X24.84048 Y19.66050
G01 X23.14046 Y19.66050
( Mill infeed pass 8/12 )
G01 Z-0.40000
G04 P0 ( dwell for no time -- G64 should not smooth over this point )
G01 F20.00000
G01 X23.14046 Y19.66050
G01 X23.14046 Y22.96050
G01 X24.84048 Y22.96050
G01 X24.84048 Y19.66050
G01 X23.14046 Y19.66050
( Mill infeed pass 9/12 )
G01 Z-0.45000
G04 P0 ( dwell for no time -- G64 should not smooth over this point )
G01 F20.00000
G01 X23.14046 Y19.66050
G01 X23.14046 Y22.96050
G01 X24.84048 Y22.96050
G01 X24.84048 Y19.66050
G01 X23.14046 Y19.66050
( Mill infeed pass 10/12 )
G01 Z-0.50000
G04 P0 ( dwell for no time -- G64 should not smooth over this point )
G01 F20.00000
G01 X23.14046 Y19.66050
G01 X23.14046 Y22.96050
G01 X24.84048 Y22.96050
G01 X24.84048 Y19.66050
G01 X23.14046 Y19.66050
( Mill infeed pass 11/12 )
G01 Z-0.55000
G04 P0 ( dwell for no time -- G64 should not smooth over this point )
G01 F20.00000
G01 X23.14046 Y19.66050
G01 X23.14046 Y22.96050
G01 X24.84048 Y22.96050
G01 X24.84048 Y19.66050
G01 X23.14046 Y19.66050
( Mill infeed pass 12/12 )
G01 Z-0.60000
G04 P0 ( dwell for no time -- G64 should not smooth over this point )
G01 F20.00000
G01 X23.14046 Y19.66050
G01 X23.14046 Y22.96050
G01 X24.84048 Y22.96050
G01 X24.84048 Y19.66050
G01 X23.14046 Y19.66050
G04 P0 ( dwell for no time -- G64 should not smooth over this point )
G00 Z0.50000 ( retract )

G00 X27.51568 Y24.89567 ( rapid move to begin. )
G01 F30.00000
( Mill infeed pass 1/12 )
G01 Z-0.05000
G04 P0 ( dwell for no time -- G64 should not smooth over this point )
G01 F20.00000
G01 X27.51568 Y24.89567
G01 X27.51833 Y24.88676
G01 X28.13910 Y24.88714
G01 X28.13882 Y26.13395
G01 X27.51703 Y26.13382
G01 X27.51568 Y24.89567
( Mill infeed pass 2/12 )
G01 Z-0.10000
G04 P0 ( dwell for no time -- G64 should not smooth over this point )
G01 F20.00000
G01 X27.51568 Y24.89567
G01 X27.51833 Y24.88676
G01 X28.13910 Y24.88714
G01 X28.13882 Y26.13395
G01 X27.51703 Y26.13382
G01 X27.51568 Y24.89567
( Mill infeed pass 3/12 )
G01 Z-0.15000
G04 P0 ( dwell for no time -- G64 should not smooth over this point )
G01 F20.00000
G01 X27.51568 Y24.89567
G01 X27.51833 Y24.88676
G01 X28.13910 Y24.88714
G01 X28.13882 Y26.13395
G01 X27.51703 Y26.13382
G01 X27.51568 Y24.89567
( Mill infeed pass 4/12 )
G01 Z-0.20000
G04 P0 ( dwell for no time -- G64 should not smooth over this point )
G01 F20.00000
G01 X27.51568 Y24.89567
G01 X27.51833 Y24.88676
G01 X28.13910 Y24.88714
G01 X28.13882 Y26.13395
G01 X27.51703 Y26.13382
G01 X27.51568 Y24.89567
( Mill infeed pass 5/12 )
G01 Z-0.25000
G04 P0 ( dwell for no time -- G64 should not smooth over this point )
G01 F20.00000
G01 X27.51568 Y24.89567
G01 X27.51833 Y24.88676
G01 X28.13910 Y24.88714
G01 X28.13882 Y26.13395
G01 X27.51703 Y26.13382
G01 X27.51568 Y24.89567
( Mill infeed pass 6/12 )
G01 Z-0.30000
G04 P0 ( dwell for no time -- G64 should not smooth over this point )
G01 F20.00000
G01 X27.51568 Y24.89567
G01 X27.51833 Y24.88676
G01 X28.13910 Y24.88714
G01 X28.13882 Y26.13395
G01 X27.51703 Y26.13382
G01 X27.51568 Y24.89567
( Mill infeed pass 7/12 )
G01 Z-0.35000
G04 P0 ( dwell for no time -- G64 should not smooth over this point )
G01 F20.00000
G01 X27.51568 Y24.89567
G01 X27.51833 Y24.88676
G01 X28.13910 Y24.88714
G01 X28.13882 Y26.13395
G01 X27.51703 Y26.13382
G01 X27.51568 Y24.89567
( Mill infeed pass 8/12 )
G01 Z-0.40000
G04 P0 ( dwell for no time -- G64 should not smooth over this point )
G01 F20.00000
G01 X27.51568 Y24.89567
G01 X27.51833 Y24.88676
G01 X28.13910 Y24.88714
G01 X28.13882 Y26.13395
G01 X27.51703 Y26.13382
G01 X27.51568 Y24.89567
( Mill infeed pass 9/12 )
G01 Z-0.45000
G04 P0 ( dwell for no time -- G64 should not smooth over this point )
G01 F20.00000
G01 X27.51568 Y24.89567
G01 X27.51833 Y24.88676
G01 X28.13910 Y24.88714
G01 X28.13882 Y26.13395
G01 X27.51703 Y26.13382
G01 X27.51568 Y24.89567
( Mill infeed pass 10/12 )
G01 Z-0.50000
G04 P0 ( dwell for no time -- G64 should not smooth over this point )
G01 F20.00000
G01 X27.51568 Y24.89567
G01 X27.51833 Y24.88676
G01 X28.13910 Y24.88714
G01 X28.13882 Y26.13395
G01 X27.51703 Y26.13382
G01 X27.51568 Y24.89567
( Mill infeed pass 11/12 )
G01 Z-0.55000
G04 P0 ( dwell for no time -- G64 should not smooth over this point )
G01 F20.00000
G01 X27.51568 Y24.89567
G01 X27.51833 Y24.88676
G01 X28.13910 Y24.88714
G01 X28.13882 Y26.13395
G01 X27.51703 Y26.13382
G01 X27.51568 Y24.89567
( Mill infeed pass 12/12 )
G01 Z-0.60000
G04 P0 ( dwell for no time -- G64 should not smooth over this point )
G01 F20.00000
G01 X27.51568 Y24.89567
G01 X27.51833 Y24.88676
G01 X28.13910 Y24.88714
G01 X28.13882 Y26.13395
G01 X27.51703 Y26.13382
G01 X27.51568 Y24.89567
G04 P0 ( dwell for no time -- G64 should not smooth over this point )
G00 Z0.50000 ( retract )

G00 X24.66568 Y29.25568 ( rapid move to begin. )
G01 F30.00000
( Mill infeed pass 1/12 )
G01 Z-0.05000
G04 P0 ( dwell for no time -- G64 should not smooth over this point )
G01 F20.00000
G01 X24.66568 Y29.25568
G01 X24.66702 Y30.49383
G01 X25.28881 Y30.49396
G01 X25.28909 Y29.24715
G01 X24.66834 Y29.24677
G01 X24.66568 Y29.25568
( Mill infeed pass 2/12 )
G01 Z-0.10000
G04 P0 ( dwell for no time -- G64 should not smooth over this point )
G01 F20.00000
G01 X24.66568 Y29.25568
G01 X24.66702 Y30.49383
G01 X25.28881 Y30.49396
G01 X25.28909 Y29.24715
G01 X24.66834 Y29.24677
G01 X24.66568 Y29.25568
( Mill infeed pass 3/12 )
G01 Z-0.15000
G04 P0 ( dwell for no time -- G64 should not smooth over this point )
G01 F20.00000
G01 X24.66568 Y29.25568
G01 X24.66702 Y30.49383
G01 X25.28881 Y30.49396
G01 X25.28909 Y29.24715
G01 X24.66834 Y29.24677
G01 X24.66568 Y29.25568
( Mill infeed pass 4/12 )
G01 Z-0.20000
G04 P0 ( dwell for no time -- G64 should not smooth over this point )
G01 F20.00000
G01 X24.66568 Y29.25568
G01 X24.66702 Y30.49383
G01 X25.28881 Y30.49396
G01 X25.28909 Y29.24715
G01 X24.66834 Y29.24677
G01 X24.66568 Y29.25568
( Mill infeed pass 5/12 )
G01 Z-0.25000
G04 P0 ( dwell for no time -- G64 should not smooth over this point )
G01 F20.00000
G01 X24.66568 Y29.25568
G01 X24.66702 Y30.49383
G01 X25.28881 Y30.49396
G01 X25.28909 Y29.24715
G01 X24.66834 Y29.24677
G01 X24.66568 Y29.25568
( Mill infeed pass 6/12 )
G01 Z-0.30000
G04 P0 ( dwell for no time -- G64 should not smooth over this point )
G01 F20.00000
G01 X24.66568 Y29.25568
G01 X24.66702 Y30.49383
G01 X25.28881 Y30.49396
G01 X25.28909 Y29.24715
G01 X24.66834 Y29.24677
G01 X24.66568 Y29.25568
( Mill infeed pass 7/12 )
G01 Z-0.35000
G04 P0 ( dwell for no time -- G64 should not smooth over this point )
G01 F20.00000
G01 X24.66568 Y29.25568
G01 X24.66702 Y30.49383
G01 X25.28881 Y30.49396
G01 X25.28909 Y29.24715
G01 X24.66834 Y29.24677
G01 X24.66568 Y29.25568
( Mill infeed pass 8/12 )
G01 Z-0.40000
G04 P0 ( dwell for no time -- G64 should not smooth over this point )
G01 F20.00000
G01 X24.66568 Y29.25568
G01 X24.66702 Y30.49383
G01 X25.28881 Y30.49396
G01 X25.28909 Y29.24715
G01 X24.66834 Y29.24677
G01 X24.66568 Y29.25568
( Mill infeed pass 9/12 )
G01 Z-0.45000
G04 P0 ( dwell for no time -- G64 should not smooth over this point )
G01 F20.00000
G01 X24.66568 Y29.25568
G01 X24.66702 Y30.49383
G01 X25.28881 Y30.49396
G01 X25.28909 Y29.24715
G01 X24.66834 Y29.24677
G01 X24.66568 Y29.25568
( Mill infeed pass 10/12 )
G01 Z-0.50000
G04 P0 ( dwell for no time -- G64 should not smooth over this point )
G01 F20.00000
G01 X24.66568 Y29.25568
G01 X24.66702 Y30.49383
G01 X25.28881 Y30.49396
G01 X25.28909 Y29.24715
G01 X24.66834 Y29.24677
G01 X24.66568 Y29.25568
( Mill infeed pass 11/12 )
G01 Z-0.55000
G04 P0 ( dwell for no time -- G64 should not smooth over this point )
G01 F20.00000
G01 X24.66568 Y29.25568
G01 X24.66702 Y30.49383
G01 X25.28881 Y30.49396
G01 X25.28909 Y29.24715
G01 X24.66834 Y29.24677
G01 X24.66568 Y29.25568
( Mill infeed pass 12/12 )
G01 Z-0.60000
G04 P0 ( dwell for no time -- G64 should not smooth over this point )
G01 F20.00000
G01 X24.66568 Y29.25568
G01 X24.66702 Y30.49383
G01 X25.28881 Y30.49396
G01 X25.28909 Y29.24715
G01 X24.66834 Y29.24677
G01 X24.66568 Y29.25568
G04 P0 ( dwell for no time -- G64 should not smooth over this point )
G00 Z0.50000 ( retract )

G00 X27.59069 Y29.25568 ( rapid move to begin. )
G01 F30.00000
( Mill infeed pass 1/12 )
G01 Z-0.05000
G04 P0 ( dwell for no time -- G64 should not smooth over this point )
G01 F20.00000
G01 X27.59069 Y29.25568
G01 X27.59204 Y30.49383
G01 X28.21383 Y30.49396
G01 X28.21411 Y29.24715
G01 X27.59333 Y29.24677
G01 X27.59069 Y29.25568
( Mill infeed pass 2/12 )
G01 Z-0.10000
G04 P0 ( dwell for no time -- G64 should not smooth over this point )
G01 F20.00000
G01 X27.59069 Y29.25568
G01 X27.59204 Y30.49383
G01 X28.21383 Y30.49396
G01 X28.21411 Y29.24715
G01 X27.59333 Y29.24677
G01 X27.59069 Y29.25568
( Mill infeed pass 3/12 )
G01 Z-0.15000
G04 P0 ( dwell for no time -- G64 should not smooth over this point )
G01 F20.00000
G01 X27.59069 Y29.25568
G01 X27.59204 Y30.49383
G01 X28.21383 Y30.49396
G01 X28.21411 Y29.24715
G01 X27.59333 Y29.24677
G01 X27.59069 Y29.25568
( Mill infeed pass 4/12 )
G01 Z-0.20000
G04 P0 ( dwell for no time -- G64 should not smooth over this point )
G01 F20.00000
G01 X27.59069 Y29.25568
G01 X27.59204 Y30.49383
G01 X28.21383 Y30.49396
G01 X28.21411 Y29.24715
G01 X27.59333 Y29.24677
G01 X27.59069 Y29.25568
( Mill infeed pass 5/12 )
G01 Z-0.25000
G04 P0 ( dwell for no time -- G64 should not smooth over this point )
G01 F20.00000
G01 X27.59069 Y29.25568
G01 X27.59204 Y30.49383
G01 X28.21383 Y30.49396
G01 X28.21411 Y29.24715
G01 X27.59333 Y29.24677
G01 X27.59069 Y29.25568
( Mill infeed pass 6/12 )
G01 Z-0.30000
G04 P0 ( dwell for no time -- G64 should not smooth over this point )
G01 F20.00000
G01 X27.59069 Y29.25568
G01 X27.59204 Y30.49383
G01 X28.21383 Y30.49396
G01 X28.21411 Y29.24715
G01 X27.59333 Y29.24677
G01 X27.59069 Y29.25568
( Mill infeed pass 7/12 )
G01 Z-0.35000
G04 P0 ( dwell for no time -- G64 should not smooth over this point )
G01 F20.00000
G01 X27.59069 Y29.25568
G01 X27.59204 Y30.49383
G01 X28.21383 Y30.49396
G01 X28.21411 Y29.24715
G01 X27.59333 Y29.24677
G01 X27.59069 Y29.25568
( Mill infeed pass 8/12 )
G01 Z-0.40000
G04 P0 ( dwell for no time -- G64 should not smooth over this point )
G01 F20.00000
G01 X27.59069 Y29.25568
G01 X27.59204 Y30.49383
G01 X28.21383 Y30.49396
G01 X28.21411 Y29.24715
G01 X27.59333 Y29.24677
G01 X27.59069 Y29.25568
( Mill infeed pass 9/12 )
G01 Z-0.45000
G04 P0 ( dwell for no time -- G64 should not smooth over this point )
G01 F20.00000
G01 X27.59069 Y29.25568
G01 X27.59204 Y30.49383
G01 X28.21383 Y30.49396
G01 X28.21411 Y29.24715
G01 X27.59333 Y29.24677
G01 X27.59069 Y29.25568
( Mill infeed pass 10/12 )
G01 Z-0.50000
G04 P0 ( dwell for no time -- G64 should not smooth over this point )
G01 F20.00000
G01 X27.59069 Y29.25568
G01 X27.59204 Y30.49383
G01 X28.21383 Y30.49396
G01 X28.21411 Y29.24715
G01 X27.59333 Y29.24677
G01 X27.59069 Y29.25568
( Mill infeed pass 11/12 )
G01 Z-0.55000
G04 P0 ( dwell for no time -- G64 should not smooth over this point )
G01 F20.00000
G01 X27.59069 Y29.25568
G01 X27.59204 Y30.49383
G01 X28.21383 Y30.49396
G01 X28.21411 Y29.24715
G01 X27.59333 Y29.24677
G01 X27.59069 Y29.25568
( Mill infeed pass 12/12 )
G01 Z-0.60000
G04 P0 ( dwell for no time -- G64 should not smooth over this point )
G01 F20.00000
G01 X27.59069 Y29.25568
G01 X27.59204 Y30.49383
G01 X28.21383 Y30.49396
G01 X28.21411 Y29.24715
G01 X27.59333 Y29.24677
G01 X27.59069 Y29.25568
G04 P0 ( dwell for no time -- G64 should not smooth over this point )
G00 Z0.50000 ( retract )

G00 X32.44547 Y31.77798 ( rapid move to begin. )
G01 F30.00000
( Mill infeed pass 1/12 )
G01 Z-0.05000
G04 P0 ( dwell for no time -- G64 should not smooth over this point )
G01 F20.00000
G01 X32.44547 Y31.77798
G01 X32.44547 Y32.80300
G01 X32.59545 Y32.80300
G01 X32.59545 Y31.77798
G01 X32.44547 Y31.77798
( Mill infeed pass 2/12 )
G01 Z-0.10000
G04 P0 ( dwell for no time -- G64 should not smooth over this point )
G01 F20.00000
G01 X32.44547 Y31.77798
G01 X32.44547 Y32.80300
G01 X32.59545 Y32.80300
G01 X32.59545 Y31.77798
G01 X32.44547 Y31.77798
( Mill infeed pass 3/12 )
G01 Z-0.15000
G04 P0 ( dwell for no time -- G64 should not smooth over this point )
G01 F20.00000
G01 X32.44547 Y31.77798
G01 X32.44547 Y32.80300
G01 X32.59545 Y32.80300
G01 X32.59545 Y31.77798
G01 X32.44547 Y31.77798
( Mill infeed pass 4/12 )
G01 Z-0.20000
G04 P0 ( dwell for no time -- G64 should not smooth over this point )
G01 F20.00000
G01 X32.44547 Y31.77798
G01 X32.44547 Y32.80300
G01 X32.59545 Y32.80300
G01 X32.59545 Y31.77798
G01 X32.44547 Y31.77798
( Mill infeed pass 5/12 )
G01 Z-0.25000
G04 P0 ( dwell for no time -- G64 should not smooth over this point )
G01 F20.00000
G01 X32.44547 Y31.77798
G01 X32.44547 Y32.80300
G01 X32.59545 Y32.80300
G01 X32.59545 Y31.77798
G01 X32.44547 Y31.77798
( Mill infeed pass 6/12 )
G01 Z-0.30000
G04 P0 ( dwell for no time -- G64 should not smooth over this point )
G01 F20.00000
G01 X32.44547 Y31.77798
G01 X32.44547 Y32.80300
G01 X32.59545 Y32.80300
G01 X32.59545 Y31.77798
G01 X32.44547 Y31.77798
( Mill infeed pass 7/12 )
G01 Z-0.35000
G04 P0 ( dwell for no time -- G64 should not smooth over this point )
G01 F20.00000
G01 X32.44547 Y31.77798
G01 X32.44547 Y32.80300
G01 X32.59545 Y32.80300
G01 X32.59545 Y31.77798
G01 X32.44547 Y31.77798
( Mill infeed pass 8/12 )
G01 Z-0.40000
G04 P0 ( dwell for no time -- G64 should not smooth over this point )
G01 F20.00000
G01 X32.44547 Y31.77798
G01 X32.44547 Y32.80300
G01 X32.59545 Y32.80300
G01 X32.59545 Y31.77798
G01 X32.44547 Y31.77798
( Mill infeed pass 9/12 )
G01 Z-0.45000
G04 P0 ( dwell for no time -- G64 should not smooth over this point )
G01 F20.00000
G01 X32.44547 Y31.77798
G01 X32.44547 Y32.80300
G01 X32.59545 Y32.80300
G01 X32.59545 Y31.77798
G01 X32.44547 Y31.77798
( Mill infeed pass 10/12 )
G01 Z-0.50000
G04 P0 ( dwell for no time -- G64 should not smooth over this point )
G01 F20.00000
G01 X32.44547 Y31.77798
G01 X32.44547 Y32.80300
G01 X32.59545 Y32.80300
G01 X32.59545 Y31.77798
G01 X32.44547 Y31.77798
( Mill infeed pass 11/12 )
G01 Z-0.55000
G04 P0 ( dwell for no time -- G64 should not smooth over this point )
G01 F20.00000
G01 X32.44547 Y31.77798
G01 X32.44547 Y32.80300
G01 X32.59545 Y32.80300
G01 X32.59545 Y31.77798
G01 X32.44547 Y31.77798
( Mill infeed pass 12/12 )
G01 Z-0.60000
G04 P0 ( dwell for no time -- G64 should not smooth over this point )
G01 F20.00000
G01 X32.44547 Y31.77798
G01 X32.44547 Y32.80300
G01 X32.59545 Y32.80300
G01 X32.59545 Y31.77798
G01 X32.44547 Y31.77798
G04 P0 ( dwell for no time -- G64 should not smooth over this point )
G00 Z0.50000 ( retract )

G00 X33.71547 Y31.77798 ( rapid move to begin. )
G01 F30.00000
( Mill infeed pass 1/12 )
G01 Z-0.05000
G04 P0 ( dwell for no time -- G64 should not smooth over this point )
G01 F20.00000
G01 X33.71547 Y31.77798
G01 X33.71547 Y32.80300
G01 X33.86545 Y32.80300
G01 X33.86545 Y31.77798
G01 X33.71547 Y31.77798
( Mill infeed pass 2/12 )
G01 Z-0.10000
G04 P0 ( dwell for no time -- G64 should not smooth over this point )
G01 F20.00000
G01 X33.71547 Y31.77798
G01 X33.71547 Y32.80300
G01 X33.86545 Y32.80300
G01 X33.86545 Y31.77798
G01 X33.71547 Y31.77798
( Mill infeed pass 3/12 )
G01 Z-0.15000
G04 P0 ( dwell for no time -- G64 should not smooth over this point )
G01 F20.00000
G01 X33.71547 Y31.77798
G01 X33.71547 Y32.80300
G01 X33.86545 Y32.80300
G01 X33.86545 Y31.77798
G01 X33.71547 Y31.77798
( Mill infeed pass 4/12 )
G01 Z-0.20000
G04 P0 ( dwell for no time -- G64 should not smooth over this point )
G01 F20.00000
G01 X33.71547 Y31.77798
G01 X33.71547 Y32.80300
G01 X33.86545 Y32.80300
G01 X33.86545 Y31.77798
G01 X33.71547 Y31.77798
( Mill infeed pass 5/12 )
G01 Z-0.25000
G04 P0 ( dwell for no time -- G64 should not smooth over this point )
G01 F20.00000
G01 X33.71547 Y31.77798
G01 X33.71547 Y32.80300
G01 X33.86545 Y32.80300
G01 X33.86545 Y31.77798
G01 X33.71547 Y31.77798
( Mill infeed pass 6/12 )
G01 Z-0.30000
G04 P0 ( dwell for no time -- G64 should not smooth over this point )
G01 F20.00000
G01 X33.71547 Y31.77798
G01 X33.71547 Y32.80300
G01 X33.86545 Y32.80300
G01 X33.86545 Y31.77798
G01 X33.71547 Y31.77798
( Mill infeed pass 7/12 )
G01 Z-0.35000
G04 P0 ( dwell for no time -- G64 should not smooth over this point )
G01 F20.00000
G01 X33.71547 Y31.77798
G01 X33.71547 Y32.80300
G01 X33.86545 Y32.80300
G01 X33.86545 Y31.77798
G01 X33.71547 Y31.77798
( Mill infeed pass 8/12 )
G01 Z-0.40000
G04 P0 ( dwell for no time -- G64 should not smooth over this point )
G01 F20.00000
G01 X33.71547 Y31.77798
G01 X33.71547 Y32.80300
G01 X33.86545 Y32.80300
G01 X33.86545 Y31.77798
G01 X33.71547 Y31.77798
( Mill infeed pass 9/12 )
G01 Z-0.45000
G04 P0 ( dwell for no time -- G64 should not smooth over this point )
G01 F20.00000
G01 X33.71547 Y31.77798
G01 X33.71547 Y32.80300
G01 X33.86545 Y32.80300
G01 X33.86545 Y31.77798
G01 X33.71547 Y31.77798
( Mill infeed pass 10/12 )
G01 Z-0.50000
G04 P0 ( dwell for no time -- G64 should not smooth over this point )
G01 F20.00000
G01 X33.71547 Y31.77798
G01 X33.71547 Y32.80300
G01 X33.86545 Y32.80300
G01 X33.86545 Y31.77798
G01 X33.71547 Y31.77798
( Mill infeed pass 11/12 )
G01 Z-0.55000
G04 P0 ( dwell for no time -- G64 should not smooth over this point )
G01 F20.00000
G01 X33.71547 Y31.77798
G01 X33.71547 Y32.80300
G01 X33.86545 Y32.80300
G01 X33.86545 Y31.77798
G01 X33.71547 Y31.77798
( Mill infeed pass 12/12 )
G01 Z-0.60000
G04 P0 ( dwell for no time -- G64 should not smooth over this point )
G01 F20.00000
G01 X33.71547 Y31.77798
G01 X33.71547 Y32.80300
G01 X33.86545 Y32.80300
G01 X33.86545 Y31.77798
G01 X33.71547 Y31.77798
G04 P0 ( dwell for no time -- G64 should not smooth over this point )
G00 Z0.50000 ( retract )

G00 X34.98547 Y31.77798 ( rapid move to begin. )
G01 F30.00000
( Mill infeed pass 1/12 )
G01 Z-0.05000
G04 P0 ( dwell for no time -- G64 should not smooth over this point )
G01 F20.00000
G01 X34.98547 Y31.77798
G01 X34.98547 Y32.80300
G01 X35.13546 Y32.80300
G01 X35.13546 Y31.77798
G01 X34.98547 Y31.77798
( Mill infeed pass 2/12 )
G01 Z-0.10000
G04 P0 ( dwell for no time -- G64 should not smooth over this point )
G01 F20.00000
G01 X34.98547 Y31.77798
G01 X34.98547 Y32.80300
G01 X35.13546 Y32.80300
G01 X35.13546 Y31.77798
G01 X34.98547 Y31.77798
( Mill infeed pass 3/12 )
G01 Z-0.15000
G04 P0 ( dwell for no time -- G64 should not smooth over this point )
G01 F20.00000
G01 X34.98547 Y31.77798
G01 X34.98547 Y32.80300
G01 X35.13546 Y32.80300
G01 X35.13546 Y31.77798
G01 X34.98547 Y31.77798
( Mill infeed pass 4/12 )
G01 Z-0.20000
G04 P0 ( dwell for no time -- G64 should not smooth over this point )
G01 F20.00000
G01 X34.98547 Y31.77798
G01 X34.98547 Y32.80300
G01 X35.13546 Y32.80300
G01 X35.13546 Y31.77798
G01 X34.98547 Y31.77798
( Mill infeed pass 5/12 )
G01 Z-0.25000
G04 P0 ( dwell for no time -- G64 should not smooth over this point )
G01 F20.00000
G01 X34.98547 Y31.77798
G01 X34.98547 Y32.80300
G01 X35.13546 Y32.80300
G01 X35.13546 Y31.77798
G01 X34.98547 Y31.77798
( Mill infeed pass 6/12 )
G01 Z-0.30000
G04 P0 ( dwell for no time -- G64 should not smooth over this point )
G01 F20.00000
G01 X34.98547 Y31.77798
G01 X34.98547 Y32.80300
G01 X35.13546 Y32.80300
G01 X35.13546 Y31.77798
G01 X34.98547 Y31.77798
( Mill infeed pass 7/12 )
G01 Z-0.35000
G04 P0 ( dwell for no time -- G64 should not smooth over this point )
G01 F20.00000
G01 X34.98547 Y31.77798
G01 X34.98547 Y32.80300
G01 X35.13546 Y32.80300
G01 X35.13546 Y31.77798
G01 X34.98547 Y31.77798
( Mill infeed pass 8/12 )
G01 Z-0.40000
G04 P0 ( dwell for no time -- G64 should not smooth over this point )
G01 F20.00000
G01 X34.98547 Y31.77798
G01 X34.98547 Y32.80300
G01 X35.13546 Y32.80300
G01 X35.13546 Y31.77798
G01 X34.98547 Y31.77798
( Mill infeed pass 9/12 )
G01 Z-0.45000
G04 P0 ( dwell for no time -- G64 should not smooth over this point )
G01 F20.00000
G01 X34.98547 Y31.77798
G01 X34.98547 Y32.80300
G01 X35.13546 Y32.80300
G01 X35.13546 Y31.77798
G01 X34.98547 Y31.77798
( Mill infeed pass 10/12 )
G01 Z-0.50000
G04 P0 ( dwell for no time -- G64 should not smooth over this point )
G01 F20.00000
G01 X34.98547 Y31.77798
G01 X34.98547 Y32.80300
G01 X35.13546 Y32.80300
G01 X35.13546 Y31.77798
G01 X34.98547 Y31.77798
( Mill infeed pass 11/12 )
G01 Z-0.55000
G04 P0 ( dwell for no time -- G64 should not smooth over this point )
G01 F20.00000
G01 X34.98547 Y31.77798
G01 X34.98547 Y32.80300
G01 X35.13546 Y32.80300
G01 X35.13546 Y31.77798
G01 X34.98547 Y31.77798
( Mill infeed pass 12/12 )
G01 Z-0.60000
G04 P0 ( dwell for no time -- G64 should not smooth over this point )
G01 F20.00000
G01 X34.98547 Y31.77798
G01 X34.98547 Y32.80300
G01 X35.13546 Y32.80300
G01 X35.13546 Y31.77798
G01 X34.98547 Y31.77798
G04 P0 ( dwell for no time -- G64 should not smooth over this point )
G00 Z0.50000 ( retract )

G00 X36.25547 Y31.77798 ( rapid move to begin. )
G01 F30.00000
( Mill infeed pass 1/12 )
G01 Z-0.05000
G04 P0 ( dwell for no time -- G64 should not smooth over this point )
G01 F20.00000
G01 X36.25547 Y31.77798
G01 X36.25547 Y32.80300
G01 X36.40545 Y32.80300
G01 X36.40545 Y31.77798
G01 X36.25547 Y31.77798
( Mill infeed pass 2/12 )
G01 Z-0.10000
G04 P0 ( dwell for no time -- G64 should not smooth over this point )
G01 F20.00000
G01 X36.25547 Y31.77798
G01 X36.25547 Y32.80300
G01 X36.40545 Y32.80300
G01 X36.40545 Y31.77798
G01 X36.25547 Y31.77798
( Mill infeed pass 3/12 )
G01 Z-0.15000
G04 P0 ( dwell for no time -- G64 should not smooth over this point )
G01 F20.00000
G01 X36.25547 Y31.77798
G01 X36.25547 Y32.80300
G01 X36.40545 Y32.80300
G01 X36.40545 Y31.77798
G01 X36.25547 Y31.77798
( Mill infeed pass 4/12 )
G01 Z-0.20000
G04 P0 ( dwell for no time -- G64 should not smooth over this point )
G01 F20.00000
G01 X36.25547 Y31.77798
G01 X36.25547 Y32.80300
G01 X36.40545 Y32.80300
G01 X36.40545 Y31.77798
G01 X36.25547 Y31.77798
( Mill infeed pass 5/12 )
G01 Z-0.25000
G04 P0 ( dwell for no time -- G64 should not smooth over this point )
G01 F20.00000
G01 X36.25547 Y31.77798
G01 X36.25547 Y32.80300
G01 X36.40545 Y32.80300
G01 X36.40545 Y31.77798
G01 X36.25547 Y31.77798
( Mill infeed pass 6/12 )
G01 Z-0.30000
G04 P0 ( dwell for no time -- G64 should not smooth over this point )
G01 F20.00000
G01 X36.25547 Y31.77798
G01 X36.25547 Y32.80300
G01 X36.40545 Y32.80300
G01 X36.40545 Y31.77798
G01 X36.25547 Y31.77798
( Mill infeed pass 7/12 )
G01 Z-0.35000
G04 P0 ( dwell for no time -- G64 should not smooth over this point )
G01 F20.00000
G01 X36.25547 Y31.77798
G01 X36.25547 Y32.80300
G01 X36.40545 Y32.80300
G01 X36.40545 Y31.77798
G01 X36.25547 Y31.77798
( Mill infeed pass 8/12 )
G01 Z-0.40000
G04 P0 ( dwell for no time -- G64 should not smooth over this point )
G01 F20.00000
G01 X36.25547 Y31.77798
G01 X36.25547 Y32.80300
G01 X36.40545 Y32.80300
G01 X36.40545 Y31.77798
G01 X36.25547 Y31.77798
( Mill infeed pass 9/12 )
G01 Z-0.45000
G04 P0 ( dwell for no time -- G64 should not smooth over this point )
G01 F20.00000
G01 X36.25547 Y31.77798
G01 X36.25547 Y32.80300
G01 X36.40545 Y32.80300
G01 X36.40545 Y31.77798
G01 X36.25547 Y31.77798
( Mill infeed pass 10/12 )
G01 Z-0.50000
G04 P0 ( dwell for no time -- G64 should not smooth over this point )
G01 F20.00000
G01 X36.25547 Y31.77798
G01 X36.25547 Y32.80300
G01 X36.40545 Y32.80300
G01 X36.40545 Y31.77798
G01 X36.25547 Y31.77798
( Mill infeed pass 11/12 )
G01 Z-0.55000
G04 P0 ( dwell for no time -- G64 should not smooth over this point )
G01 F20.00000
G01 X36.25547 Y31.77798
G01 X36.25547 Y32.80300
G01 X36.40545 Y32.80300
G01 X36.40545 Y31.77798
G01 X36.25547 Y31.77798
( Mill infeed pass 12/12 )
G01 Z-0.60000
G04 P0 ( dwell for no time -- G64 should not smooth over this point )
G01 F20.00000
G01 X36.25547 Y31.77798
G01 X36.25547 Y32.80300
G01 X36.40545 Y32.80300
G01 X36.40545 Y31.77798
G01 X36.25547 Y31.77798
G04 P0 ( dwell for no time -- G64 should not smooth over this point )
G00 Z0.50000 ( retract )

G00 X32.44547 Y26.35399 ( rapid move to begin. )
G01 F30.00000
( Mill infeed pass 1/12 )
G01 Z-0.05000
G04 P0 ( dwell for no time -- G64 should not smooth over this point )
G01 F20.00000
G01 X32.44547 Y26.35399
G01 X32.59545 Y26.35399
G01 X32.59545 Y27.37898
G01 X32.44547 Y27.37898
G01 X32.44547 Y26.35399
( Mill infeed pass 2/12 )
G01 Z-0.10000
G04 P0 ( dwell for no time -- G64 should not smooth over this point )
G01 F20.00000
G01 X32.44547 Y26.35399
G01 X32.59545 Y26.35399
G01 X32.59545 Y27.37898
G01 X32.44547 Y27.37898
G01 X32.44547 Y26.35399
( Mill infeed pass 3/12 )
G01 Z-0.15000
G04 P0 ( dwell for no time -- G64 should not smooth over this point )
G01 F20.00000
G01 X32.44547 Y26.35399
G01 X32.59545 Y26.35399
G01 X32.59545 Y27.37898
G01 X32.44547 Y27.37898
G01 X32.44547 Y26.35399
( Mill infeed pass 4/12 )
G01 Z-0.20000
G04 P0 ( dwell for no time -- G64 should not smooth over this point )
G01 F20.00000
G01 X32.44547 Y26.35399
G01 X32.59545 Y26.35399
G01 X32.59545 Y27.37898
G01 X32.44547 Y27.37898
G01 X32.44547 Y26.35399
( Mill infeed pass 5/12 )
G01 Z-0.25000
G04 P0 ( dwell for no time -- G64 should not smooth over this point )
G01 F20.00000
G01 X32.44547 Y26.35399
G01 X32.59545 Y26.35399
G01 X32.59545 Y27.37898
G01 X32.44547 Y27.37898
G01 X32.44547 Y26.35399
( Mill infeed pass 6/12 )
G01 Z-0.30000
G04 P0 ( dwell for no time -- G64 should not smooth over this point )
G01 F20.00000
G01 X32.44547 Y26.35399
G01 X32.59545 Y26.35399
G01 X32.59545 Y27.37898
G01 X32.44547 Y27.37898
G01 X32.44547 Y26.35399
( Mill infeed pass 7/12 )
G01 Z-0.35000
G04 P0 ( dwell for no time -- G64 should not smooth over this point )
G01 F20.00000
G01 X32.44547 Y26.35399
G01 X32.59545 Y26.35399
G01 X32.59545 Y27.37898
G01 X32.44547 Y27.37898
G01 X32.44547 Y26.35399
( Mill infeed pass 8/12 )
G01 Z-0.40000
G04 P0 ( dwell for no time -- G64 should not smooth over this point )
G01 F20.00000
G01 X32.44547 Y26.35399
G01 X32.59545 Y26.35399
G01 X32.59545 Y27.37898
G01 X32.44547 Y27.37898
G01 X32.44547 Y26.35399
( Mill infeed pass 9/12 )
G01 Z-0.45000
G04 P0 ( dwell for no time -- G64 should not smooth over this point )
G01 F20.00000
G01 X32.44547 Y26.35399
G01 X32.59545 Y26.35399
G01 X32.59545 Y27.37898
G01 X32.44547 Y27.37898
G01 X32.44547 Y26.35399
( Mill infeed pass 10/12 )
G01 Z-0.50000
G04 P0 ( dwell for no time -- G64 should not smooth over this point )
G01 F20.00000
G01 X32.44547 Y26.35399
G01 X32.59545 Y26.35399
G01 X32.59545 Y27.37898
G01 X32.44547 Y27.37898
G01 X32.44547 Y26.35399
( Mill infeed pass 11/12 )
G01 Z-0.55000
G04 P0 ( dwell for no time -- G64 should not smooth over this point )
G01 F20.00000
G01 X32.44547 Y26.35399
G01 X32.59545 Y26.35399
G01 X32.59545 Y27.37898
G01 X32.44547 Y27.37898
G01 X32.44547 Y26.35399
( Mill infeed pass 12/12 )
G01 Z-0.60000
G04 P0 ( dwell for no time -- G64 should not smooth over this point )
G01 F20.00000
G01 X32.44547 Y26.35399
G01 X32.59545 Y26.35399
G01 X32.59545 Y27.37898
G01 X32.44547 Y27.37898
G01 X32.44547 Y26.35399
G04 P0 ( dwell for no time -- G64 should not smooth over this point )
G00 Z0.50000 ( retract )

G00 X33.71547 Y26.35399 ( rapid move to begin. )
G01 F30.00000
( Mill infeed pass 1/12 )
G01 Z-0.05000
G04 P0 ( dwell for no time -- G64 should not smooth over this point )
G01 F20.00000
G01 X33.71547 Y26.35399
G01 X33.86545 Y26.35399
G01 X33.86545 Y27.37898
G01 X33.71547 Y27.37898
G01 X33.71547 Y26.35399
( Mill infeed pass 2/12 )
G01 Z-0.10000
G04 P0 ( dwell for no time -- G64 should not smooth over this point )
G01 F20.00000
G01 X33.71547 Y26.35399
G01 X33.86545 Y26.35399
G01 X33.86545 Y27.37898
G01 X33.71547 Y27.37898
G01 X33.71547 Y26.35399
( Mill infeed pass 3/12 )
G01 Z-0.15000
G04 P0 ( dwell for no time -- G64 should not smooth over this point )
G01 F20.00000
G01 X33.71547 Y26.35399
G01 X33.86545 Y26.35399
G01 X33.86545 Y27.37898
G01 X33.71547 Y27.37898
G01 X33.71547 Y26.35399
( Mill infeed pass 4/12 )
G01 Z-0.20000
G04 P0 ( dwell for no time -- G64 should not smooth over this point )
G01 F20.00000
G01 X33.71547 Y26.35399
G01 X33.86545 Y26.35399
G01 X33.86545 Y27.37898
G01 X33.71547 Y27.37898
G01 X33.71547 Y26.35399
( Mill infeed pass 5/12 )
G01 Z-0.25000
G04 P0 ( dwell for no time -- G64 should not smooth over this point )
G01 F20.00000
G01 X33.71547 Y26.35399
G01 X33.86545 Y26.35399
G01 X33.86545 Y27.37898
G01 X33.71547 Y27.37898
G01 X33.71547 Y26.35399
( Mill infeed pass 6/12 )
G01 Z-0.30000
G04 P0 ( dwell for no time -- G64 should not smooth over this point )
G01 F20.00000
G01 X33.71547 Y26.35399
G01 X33.86545 Y26.35399
G01 X33.86545 Y27.37898
G01 X33.71547 Y27.37898
G01 X33.71547 Y26.35399
( Mill infeed pass 7/12 )
G01 Z-0.35000
G04 P0 ( dwell for no time -- G64 should not smooth over this point )
G01 F20.00000
G01 X33.71547 Y26.35399
G01 X33.86545 Y26.35399
G01 X33.86545 Y27.37898
G01 X33.71547 Y27.37898
G01 X33.71547 Y26.35399
( Mill infeed pass 8/12 )
G01 Z-0.40000
G04 P0 ( dwell for no time -- G64 should not smooth over this point )
G01 F20.00000
G01 X33.71547 Y26.35399
G01 X33.86545 Y26.35399
G01 X33.86545 Y27.37898
G01 X33.71547 Y27.37898
G01 X33.71547 Y26.35399
( Mill infeed pass 9/12 )
G01 Z-0.45000
G04 P0 ( dwell for no time -- G64 should not smooth over this point )
G01 F20.00000
G01 X33.71547 Y26.35399
G01 X33.86545 Y26.35399
G01 X33.86545 Y27.37898
G01 X33.71547 Y27.37898
G01 X33.71547 Y26.35399
( Mill infeed pass 10/12 )
G01 Z-0.50000
G04 P0 ( dwell for no time -- G64 should not smooth over this point )
G01 F20.00000
G01 X33.71547 Y26.35399
G01 X33.86545 Y26.35399
G01 X33.86545 Y27.37898
G01 X33.71547 Y27.37898
G01 X33.71547 Y26.35399
( Mill infeed pass 11/12 )
G01 Z-0.55000
G04 P0 ( dwell for no time -- G64 should not smooth over this point )
G01 F20.00000
G01 X33.71547 Y26.35399
G01 X33.86545 Y26.35399
G01 X33.86545 Y27.37898
G01 X33.71547 Y27.37898
G01 X33.71547 Y26.35399
( Mill infeed pass 12/12 )
G01 Z-0.60000
G04 P0 ( dwell for no time -- G64 should not smooth over this point )
G01 F20.00000
G01 X33.71547 Y26.35399
G01 X33.86545 Y26.35399
G01 X33.86545 Y27.37898
G01 X33.71547 Y27.37898
G01 X33.71547 Y26.35399
G04 P0 ( dwell for no time -- G64 should not smooth over this point )
G00 Z0.50000 ( retract )

G00 X34.98547 Y26.35399 ( rapid move to begin. )
G01 F30.00000
( Mill infeed pass 1/12 )
G01 Z-0.05000
G04 P0 ( dwell for no time -- G64 should not smooth over this point )
G01 F20.00000
G01 X34.98547 Y26.35399
G01 X35.13546 Y26.35399
G01 X35.13546 Y27.37898
G01 X34.98547 Y27.37898
G01 X34.98547 Y26.35399
( Mill infeed pass 2/12 )
G01 Z-0.10000
G04 P0 ( dwell for no time -- G64 should not smooth over this point )
G01 F20.00000
G01 X34.98547 Y26.35399
G01 X35.13546 Y26.35399
G01 X35.13546 Y27.37898
G01 X34.98547 Y27.37898
G01 X34.98547 Y26.35399
( Mill infeed pass 3/12 )
G01 Z-0.15000
G04 P0 ( dwell for no time -- G64 should not smooth over this point )
G01 F20.00000
G01 X34.98547 Y26.35399
G01 X35.13546 Y26.35399
G01 X35.13546 Y27.37898
G01 X34.98547 Y27.37898
G01 X34.98547 Y26.35399
( Mill infeed pass 4/12 )
G01 Z-0.20000
G04 P0 ( dwell for no time -- G64 should not smooth over this point )
G01 F20.00000
G01 X34.98547 Y26.35399
G01 X35.13546 Y26.35399
G01 X35.13546 Y27.37898
G01 X34.98547 Y27.37898
G01 X34.98547 Y26.35399
( Mill infeed pass 5/12 )
G01 Z-0.25000
G04 P0 ( dwell for no time -- G64 should not smooth over this point )
G01 F20.00000
G01 X34.98547 Y26.35399
G01 X35.13546 Y26.35399
G01 X35.13546 Y27.37898
G01 X34.98547 Y27.37898
G01 X34.98547 Y26.35399
( Mill infeed pass 6/12 )
G01 Z-0.30000
G04 P0 ( dwell for no time -- G64 should not smooth over this point )
G01 F20.00000
G01 X34.98547 Y26.35399
G01 X35.13546 Y26.35399
G01 X35.13546 Y27.37898
G01 X34.98547 Y27.37898
G01 X34.98547 Y26.35399
( Mill infeed pass 7/12 )
G01 Z-0.35000
G04 P0 ( dwell for no time -- G64 should not smooth over this point )
G01 F20.00000
G01 X34.98547 Y26.35399
G01 X35.13546 Y26.35399
G01 X35.13546 Y27.37898
G01 X34.98547 Y27.37898
G01 X34.98547 Y26.35399
( Mill infeed pass 8/12 )
G01 Z-0.40000
G04 P0 ( dwell for no time -- G64 should not smooth over this point )
G01 F20.00000
G01 X34.98547 Y26.35399
G01 X35.13546 Y26.35399
G01 X35.13546 Y27.37898
G01 X34.98547 Y27.37898
G01 X34.98547 Y26.35399
( Mill infeed pass 9/12 )
G01 Z-0.45000
G04 P0 ( dwell for no time -- G64 should not smooth over this point )
G01 F20.00000
G01 X34.98547 Y26.35399
G01 X35.13546 Y26.35399
G01 X35.13546 Y27.37898
G01 X34.98547 Y27.37898
G01 X34.98547 Y26.35399
( Mill infeed pass 10/12 )
G01 Z-0.50000
G04 P0 ( dwell for no time -- G64 should not smooth over this point )
G01 F20.00000
G01 X34.98547 Y26.35399
G01 X35.13546 Y26.35399
G01 X35.13546 Y27.37898
G01 X34.98547 Y27.37898
G01 X34.98547 Y26.35399
( Mill infeed pass 11/12 )
G01 Z-0.55000
G04 P0 ( dwell for no time -- G64 should not smooth over this point )
G01 F20.00000
G01 X34.98547 Y26.35399
G01 X35.13546 Y26.35399
G01 X35.13546 Y27.37898
G01 X34.98547 Y27.37898
G01 X34.98547 Y26.35399
( Mill infeed pass 12/12 )
G01 Z-0.60000
G04 P0 ( dwell for no time -- G64 should not smooth over this point )
G01 F20.00000
G01 X34.98547 Y26.35399
G01 X35.13546 Y26.35399
G01 X35.13546 Y27.37898
G01 X34.98547 Y27.37898
G01 X34.98547 Y26.35399
G04 P0 ( dwell for no time -- G64 should not smooth over this point )
G00 Z0.50000 ( retract )

G00 X36.25547 Y26.35399 ( rapid move to begin. )
G01 F30.00000
( Mill infeed pass 1/12 )
G01 Z-0.05000
G04 P0 ( dwell for no time -- G64 should not smooth over this point )
G01 F20.00000
G01 X36.25547 Y26.35399
G01 X36.40545 Y26.35399
G01 X36.40545 Y27.37898
G01 X36.25547 Y27.37898
G01 X36.25547 Y26.35399
( Mill infeed pass 2/12 )
G01 Z-0.10000
G04 P0 ( dwell for no time -- G64 should not smooth over this point )
G01 F20.00000
G01 X36.25547 Y26.35399
G01 X36.40545 Y26.35399
G01 X36.40545 Y27.37898
G01 X36.25547 Y27.37898
G01 X36.25547 Y26.35399
( Mill infeed pass 3/12 )
G01 Z-0.15000
G04 P0 ( dwell for no time -- G64 should not smooth over this point )
G01 F20.00000
G01 X36.25547 Y26.35399
G01 X36.40545 Y26.35399
G01 X36.40545 Y27.37898
G01 X36.25547 Y27.37898
G01 X36.25547 Y26.35399
( Mill infeed pass 4/12 )
G01 Z-0.20000
G04 P0 ( dwell for no time -- G64 should not smooth over this point )
G01 F20.00000
G01 X36.25547 Y26.35399
G01 X36.40545 Y26.35399
G01 X36.40545 Y27.37898
G01 X36.25547 Y27.37898
G01 X36.25547 Y26.35399
( Mill infeed pass 5/12 )
G01 Z-0.25000
G04 P0 ( dwell for no time -- G64 should not smooth over this point )
G01 F20.00000
G01 X36.25547 Y26.35399
G01 X36.40545 Y26.35399
G01 X36.40545 Y27.37898
G01 X36.25547 Y27.37898
G01 X36.25547 Y26.35399
( Mill infeed pass 6/12 )
G01 Z-0.30000
G04 P0 ( dwell for no time -- G64 should not smooth over this point )
G01 F20.00000
G01 X36.25547 Y26.35399
G01 X36.40545 Y26.35399
G01 X36.40545 Y27.37898
G01 X36.25547 Y27.37898
G01 X36.25547 Y26.35399
( Mill infeed pass 7/12 )
G01 Z-0.35000
G04 P0 ( dwell for no time -- G64 should not smooth over this point )
G01 F20.00000
G01 X36.25547 Y26.35399
G01 X36.40545 Y26.35399
G01 X36.40545 Y27.37898
G01 X36.25547 Y27.37898
G01 X36.25547 Y26.35399
( Mill infeed pass 8/12 )
G01 Z-0.40000
G04 P0 ( dwell for no time -- G64 should not smooth over this point )
G01 F20.00000
G01 X36.25547 Y26.35399
G01 X36.40545 Y26.35399
G01 X36.40545 Y27.37898
G01 X36.25547 Y27.37898
G01 X36.25547 Y26.35399
( Mill infeed pass 9/12 )
G01 Z-0.45000
G04 P0 ( dwell for no time -- G64 should not smooth over this point )
G01 F20.00000
G01 X36.25547 Y26.35399
G01 X36.40545 Y26.35399
G01 X36.40545 Y27.37898
G01 X36.25547 Y27.37898
G01 X36.25547 Y26.35399
( Mill infeed pass 10/12 )
G01 Z-0.50000
G04 P0 ( dwell for no time -- G64 should not smooth over this point )
G01 F20.00000
G01 X36.25547 Y26.35399
G01 X36.40545 Y26.35399
G01 X36.40545 Y27.37898
G01 X36.25547 Y27.37898
G01 X36.25547 Y26.35399
( Mill infeed pass 11/12 )
G01 Z-0.55000
G04 P0 ( dwell for no time -- G64 should not smooth over this point )
G01 F20.00000
G01 X36.25547 Y26.35399
G01 X36.40545 Y26.35399
G01 X36.40545 Y27.37898
G01 X36.25547 Y27.37898
G01 X36.25547 Y26.35399
( Mill infeed pass 12/12 )
G01 Z-0.60000
G04 P0 ( dwell for no time -- G64 should not smooth over this point )
G01 F20.00000
G01 X36.25547 Y26.35399
G01 X36.40545 Y26.35399
G01 X36.40545 Y27.37898
G01 X36.25547 Y27.37898
G01 X36.25547 Y26.35399
G04 P0 ( dwell for no time -- G64 should not smooth over this point )
G00 Z0.50000 ( retract )

G00 X39.30629 Y27.14218 ( rapid move to begin. )
G01 F30.00000
( Mill infeed pass 1/12 )
G01 Z-0.05000
G04 P0 ( dwell for no time -- G64 should not smooth over this point )
G01 F20.00000
G01 X39.30629 Y27.14218
G01 X40.25368 Y27.14213
G01 X40.25383 Y27.63890
G01 X39.30702 Y27.63882
G01 X39.30629 Y27.14218
( Mill infeed pass 2/12 )
G01 Z-0.10000
G04 P0 ( dwell for no time -- G64 should not smooth over this point )
G01 F20.00000
G01 X39.30629 Y27.14218
G01 X40.25368 Y27.14213
G01 X40.25383 Y27.63890
G01 X39.30702 Y27.63882
G01 X39.30629 Y27.14218
( Mill infeed pass 3/12 )
G01 Z-0.15000
G04 P0 ( dwell for no time -- G64 should not smooth over this point )
G01 F20.00000
G01 X39.30629 Y27.14218
G01 X40.25368 Y27.14213
G01 X40.25383 Y27.63890
G01 X39.30702 Y27.63882
G01 X39.30629 Y27.14218
( Mill infeed pass 4/12 )
G01 Z-0.20000
G04 P0 ( dwell for no time -- G64 should not smooth over this point )
G01 F20.00000
G01 X39.30629 Y27.14218
G01 X40.25368 Y27.14213
G01 X40.25383 Y27.63890
G01 X39.30702 Y27.63882
G01 X39.30629 Y27.14218
( Mill infeed pass 5/12 )
G01 Z-0.25000
G04 P0 ( dwell for no time -- G64 should not smooth over this point )
G01 F20.00000
G01 X39.30629 Y27.14218
G01 X40.25368 Y27.14213
G01 X40.25383 Y27.63890
G01 X39.30702 Y27.63882
G01 X39.30629 Y27.14218
( Mill infeed pass 6/12 )
G01 Z-0.30000
G04 P0 ( dwell for no time -- G64 should not smooth over this point )
G01 F20.00000
G01 X39.30629 Y27.14218
G01 X40.25368 Y27.14213
G01 X40.25383 Y27.63890
G01 X39.30702 Y27.63882
G01 X39.30629 Y27.14218
( Mill infeed pass 7/12 )
G01 Z-0.35000
G04 P0 ( dwell for no time -- G64 should not smooth over this point )
G01 F20.00000
G01 X39.30629 Y27.14218
G01 X40.25368 Y27.14213
G01 X40.25383 Y27.63890
G01 X39.30702 Y27.63882
G01 X39.30629 Y27.14218
( Mill infeed pass 8/12 )
G01 Z-0.40000
G04 P0 ( dwell for no time -- G64 should not smooth over this point )
G01 F20.00000
G01 X39.30629 Y27.14218
G01 X40.25368 Y27.14213
G01 X40.25383 Y27.63890
G01 X39.30702 Y27.63882
G01 X39.30629 Y27.14218
( Mill infeed pass 9/12 )
G01 Z-0.45000
G04 P0 ( dwell for no time -- G64 should not smooth over this point )
G01 F20.00000
G01 X39.30629 Y27.14218
G01 X40.25368 Y27.14213
G01 X40.25383 Y27.63890
G01 X39.30702 Y27.63882
G01 X39.30629 Y27.14218
( Mill infeed pass 10/12 )
G01 Z-0.50000
G04 P0 ( dwell for no time -- G64 should not smooth over this point )
G01 F20.00000
G01 X39.30629 Y27.14218
G01 X40.25368 Y27.14213
G01 X40.25383 Y27.63890
G01 X39.30702 Y27.63882
G01 X39.30629 Y27.14218
( Mill infeed pass 11/12 )
G01 Z-0.55000
G04 P0 ( dwell for no time -- G64 should not smooth over this point )
G01 F20.00000
G01 X39.30629 Y27.14218
G01 X40.25368 Y27.14213
G01 X40.25383 Y27.63890
G01 X39.30702 Y27.63882
G01 X39.30629 Y27.14218
( Mill infeed pass 12/12 )
G01 Z-0.60000
G04 P0 ( dwell for no time -- G64 should not smooth over this point )
G01 F20.00000
G01 X39.30629 Y27.14218
G01 X40.25368 Y27.14213
G01 X40.25383 Y27.63890
G01 X39.30702 Y27.63882
G01 X39.30629 Y27.14218
G04 P0 ( dwell for no time -- G64 should not smooth over this point )
G00 Z0.50000 ( retract )

G00 X39.30629 Y25.24218 ( rapid move to begin. )
G01 F30.00000
( Mill infeed pass 1/12 )
G01 Z-0.05000
G04 P0 ( dwell for no time -- G64 should not smooth over this point )
G01 F20.00000
G01 X39.30629 Y25.24218
G01 X40.25368 Y25.24213
G01 X40.25383 Y25.73890
G01 X39.30702 Y25.73883
G01 X39.30629 Y25.24218
( Mill infeed pass 2/12 )
G01 Z-0.10000
G04 P0 ( dwell for no time -- G64 should not smooth over this point )
G01 F20.00000
G01 X39.30629 Y25.24218
G01 X40.25368 Y25.24213
G01 X40.25383 Y25.73890
G01 X39.30702 Y25.73883
G01 X39.30629 Y25.24218
( Mill infeed pass 3/12 )
G01 Z-0.15000
G04 P0 ( dwell for no time -- G64 should not smooth over this point )
G01 F20.00000
G01 X39.30629 Y25.24218
G01 X40.25368 Y25.24213
G01 X40.25383 Y25.73890
G01 X39.30702 Y25.73883
G01 X39.30629 Y25.24218
( Mill infeed pass 4/12 )
G01 Z-0.20000
G04 P0 ( dwell for no time -- G64 should not smooth over this point )
G01 F20.00000
G01 X39.30629 Y25.24218
G01 X40.25368 Y25.24213
G01 X40.25383 Y25.73890
G01 X39.30702 Y25.73883
G01 X39.30629 Y25.24218
( Mill infeed pass 5/12 )
G01 Z-0.25000
G04 P0 ( dwell for no time -- G64 should not smooth over this point )
G01 F20.00000
G01 X39.30629 Y25.24218
G01 X40.25368 Y25.24213
G01 X40.25383 Y25.73890
G01 X39.30702 Y25.73883
G01 X39.30629 Y25.24218
( Mill infeed pass 6/12 )
G01 Z-0.30000
G04 P0 ( dwell for no time -- G64 should not smooth over this point )
G01 F20.00000
G01 X39.30629 Y25.24218
G01 X40.25368 Y25.24213
G01 X40.25383 Y25.73890
G01 X39.30702 Y25.73883
G01 X39.30629 Y25.24218
( Mill infeed pass 7/12 )
G01 Z-0.35000
G04 P0 ( dwell for no time -- G64 should not smooth over this point )
G01 F20.00000
G01 X39.30629 Y25.24218
G01 X40.25368 Y25.24213
G01 X40.25383 Y25.73890
G01 X39.30702 Y25.73883
G01 X39.30629 Y25.24218
( Mill infeed pass 8/12 )
G01 Z-0.40000
G04 P0 ( dwell for no time -- G64 should not smooth over this point )
G01 F20.00000
G01 X39.30629 Y25.24218
G01 X40.25368 Y25.24213
G01 X40.25383 Y25.73890
G01 X39.30702 Y25.73883
G01 X39.30629 Y25.24218
( Mill infeed pass 9/12 )
G01 Z-0.45000
G04 P0 ( dwell for no time -- G64 should not smooth over this point )
G01 F20.00000
G01 X39.30629 Y25.24218
G01 X40.25368 Y25.24213
G01 X40.25383 Y25.73890
G01 X39.30702 Y25.73883
G01 X39.30629 Y25.24218
( Mill infeed pass 10/12 )
G01 Z-0.50000
G04 P0 ( dwell for no time -- G64 should not smooth over this point )
G01 F20.00000
G01 X39.30629 Y25.24218
G01 X40.25368 Y25.24213
G01 X40.25383 Y25.73890
G01 X39.30702 Y25.73883
G01 X39.30629 Y25.24218
( Mill infeed pass 11/12 )
G01 Z-0.55000
G04 P0 ( dwell for no time -- G64 should not smooth over this point )
G01 F20.00000
G01 X39.30629 Y25.24218
G01 X40.25368 Y25.24213
G01 X40.25383 Y25.73890
G01 X39.30702 Y25.73883
G01 X39.30629 Y25.24218
( Mill infeed pass 12/12 )
G01 Z-0.60000
G04 P0 ( dwell for no time -- G64 should not smooth over this point )
G01 F20.00000
G01 X39.30629 Y25.24218
G01 X40.25368 Y25.24213
G01 X40.25383 Y25.73890
G01 X39.30702 Y25.73883
G01 X39.30629 Y25.24218
G04 P0 ( dwell for no time -- G64 should not smooth over this point )
G00 Z0.50000 ( retract )

G00 X48.54046 Y19.66050 ( rapid move to begin. )
G01 F30.00000
( Mill infeed pass 1/12 )
G01 Z-0.05000
G04 P0 ( dwell for no time -- G64 should not smooth over this point )
G01 F20.00000
G01 X48.54046 Y19.66050
G01 X50.24048 Y19.66050
G01 X50.24048 Y22.96050
G01 X48.54046 Y22.96050
G01 X48.54046 Y19.66050
( Mill infeed pass 2/12 )
G01 Z-0.10000
G04 P0 ( dwell for no time -- G64 should not smooth over this point )
G01 F20.00000
G01 X48.54046 Y19.66050
G01 X50.24048 Y19.66050
G01 X50.24048 Y22.96050
G01 X48.54046 Y22.96050
G01 X48.54046 Y19.66050
( Mill infeed pass 3/12 )
G01 Z-0.15000
G04 P0 ( dwell for no time -- G64 should not smooth over this point )
G01 F20.00000
G01 X48.54046 Y19.66050
G01 X50.24048 Y19.66050
G01 X50.24048 Y22.96050
G01 X48.54046 Y22.96050
G01 X48.54046 Y19.66050
( Mill infeed pass 4/12 )
G01 Z-0.20000
G04 P0 ( dwell for no time -- G64 should not smooth over this point )
G01 F20.00000
G01 X48.54046 Y19.66050
G01 X50.24048 Y19.66050
G01 X50.24048 Y22.96050
G01 X48.54046 Y22.96050
G01 X48.54046 Y19.66050
( Mill infeed pass 5/12 )
G01 Z-0.25000
G04 P0 ( dwell for no time -- G64 should not smooth over this point )
G01 F20.00000
G01 X48.54046 Y19.66050
G01 X50.24048 Y19.66050
G01 X50.24048 Y22.96050
G01 X48.54046 Y22.96050
G01 X48.54046 Y19.66050
( Mill infeed pass 6/12 )
G01 Z-0.30000
G04 P0 ( dwell for no time -- G64 should not smooth over this point )
G01 F20.00000
G01 X48.54046 Y19.66050
G01 X50.24048 Y19.66050
G01 X50.24048 Y22.96050
G01 X48.54046 Y22.96050
G01 X48.54046 Y19.66050
( Mill infeed pass 7/12 )
G01 Z-0.35000
G04 P0 ( dwell for no time -- G64 should not smooth over this point )
G01 F20.00000
G01 X48.54046 Y19.66050
G01 X50.24048 Y19.66050
G01 X50.24048 Y22.96050
G01 X48.54046 Y22.96050
G01 X48.54046 Y19.66050
( Mill infeed pass 8/12 )
G01 Z-0.40000
G04 P0 ( dwell for no time -- G64 should not smooth over this point )
G01 F20.00000
G01 X48.54046 Y19.66050
G01 X50.24048 Y19.66050
G01 X50.24048 Y22.96050
G01 X48.54046 Y22.96050
G01 X48.54046 Y19.66050
( Mill infeed pass 9/12 )
G01 Z-0.45000
G04 P0 ( dwell for no time -- G64 should not smooth over this point )
G01 F20.00000
G01 X48.54046 Y19.66050
G01 X50.24048 Y19.66050
G01 X50.24048 Y22.96050
G01 X48.54046 Y22.96050
G01 X48.54046 Y19.66050
( Mill infeed pass 10/12 )
G01 Z-0.50000
G04 P0 ( dwell for no time -- G64 should not smooth over this point )
G01 F20.00000
G01 X48.54046 Y19.66050
G01 X50.24048 Y19.66050
G01 X50.24048 Y22.96050
G01 X48.54046 Y22.96050
G01 X48.54046 Y19.66050
( Mill infeed pass 11/12 )
G01 Z-0.55000
G04 P0 ( dwell for no time -- G64 should not smooth over this point )
G01 F20.00000
G01 X48.54046 Y19.66050
G01 X50.24048 Y19.66050
G01 X50.24048 Y22.96050
G01 X48.54046 Y22.96050
G01 X48.54046 Y19.66050
( Mill infeed pass 12/12 )
G01 Z-0.60000
G04 P0 ( dwell for no time -- G64 should not smooth over this point )
G01 F20.00000
G01 X48.54046 Y19.66050
G01 X50.24048 Y19.66050
G01 X50.24048 Y22.96050
G01 X48.54046 Y22.96050
G01 X48.54046 Y19.66050
G04 P0 ( dwell for no time -- G64 should not smooth over this point )
G00 Z0.50000 ( retract )

G00 X46.00046 Y19.66050 ( rapid move to begin. )
G01 F30.00000
( Mill infeed pass 1/12 )
G01 Z-0.05000
G04 P0 ( dwell for no time -- G64 should not smooth over this point )
G01 F20.00000
G01 X46.00046 Y19.66050
G01 X47.70048 Y19.66050
G01 X47.70048 Y22.96050
G01 X46.00046 Y22.96050
G01 X46.00046 Y19.66050
( Mill infeed pass 2/12 )
G01 Z-0.10000
G04 P0 ( dwell for no time -- G64 should not smooth over this point )
G01 F20.00000
G01 X46.00046 Y19.66050
G01 X47.70048 Y19.66050
G01 X47.70048 Y22.96050
G01 X46.00046 Y22.96050
G01 X46.00046 Y19.66050
( Mill infeed pass 3/12 )
G01 Z-0.15000
G04 P0 ( dwell for no time -- G64 should not smooth over this point )
G01 F20.00000
G01 X46.00046 Y19.66050
G01 X47.70048 Y19.66050
G01 X47.70048 Y22.96050
G01 X46.00046 Y22.96050
G01 X46.00046 Y19.66050
( Mill infeed pass 4/12 )
G01 Z-0.20000
G04 P0 ( dwell for no time -- G64 should not smooth over this point )
G01 F20.00000
G01 X46.00046 Y19.66050
G01 X47.70048 Y19.66050
G01 X47.70048 Y22.96050
G01 X46.00046 Y22.96050
G01 X46.00046 Y19.66050
( Mill infeed pass 5/12 )
G01 Z-0.25000
G04 P0 ( dwell for no time -- G64 should not smooth over this point )
G01 F20.00000
G01 X46.00046 Y19.66050
G01 X47.70048 Y19.66050
G01 X47.70048 Y22.96050
G01 X46.00046 Y22.96050
G01 X46.00046 Y19.66050
( Mill infeed pass 6/12 )
G01 Z-0.30000
G04 P0 ( dwell for no time -- G64 should not smooth over this point )
G01 F20.00000
G01 X46.00046 Y19.66050
G01 X47.70048 Y19.66050
G01 X47.70048 Y22.96050
G01 X46.00046 Y22.96050
G01 X46.00046 Y19.66050
( Mill infeed pass 7/12 )
G01 Z-0.35000
G04 P0 ( dwell for no time -- G64 should not smooth over this point )
G01 F20.00000
G01 X46.00046 Y19.66050
G01 X47.70048 Y19.66050
G01 X47.70048 Y22.96050
G01 X46.00046 Y22.96050
G01 X46.00046 Y19.66050
( Mill infeed pass 8/12 )
G01 Z-0.40000
G04 P0 ( dwell for no time -- G64 should not smooth over this point )
G01 F20.00000
G01 X46.00046 Y19.66050
G01 X47.70048 Y19.66050
G01 X47.70048 Y22.96050
G01 X46.00046 Y22.96050
G01 X46.00046 Y19.66050
( Mill infeed pass 9/12 )
G01 Z-0.45000
G04 P0 ( dwell for no time -- G64 should not smooth over this point )
G01 F20.00000
G01 X46.00046 Y19.66050
G01 X47.70048 Y19.66050
G01 X47.70048 Y22.96050
G01 X46.00046 Y22.96050
G01 X46.00046 Y19.66050
( Mill infeed pass 10/12 )
G01 Z-0.50000
G04 P0 ( dwell for no time -- G64 should not smooth over this point )
G01 F20.00000
G01 X46.00046 Y19.66050
G01 X47.70048 Y19.66050
G01 X47.70048 Y22.96050
G01 X46.00046 Y22.96050
G01 X46.00046 Y19.66050
( Mill infeed pass 11/12 )
G01 Z-0.55000
G04 P0 ( dwell for no time -- G64 should not smooth over this point )
G01 F20.00000
G01 X46.00046 Y19.66050
G01 X47.70048 Y19.66050
G01 X47.70048 Y22.96050
G01 X46.00046 Y22.96050
G01 X46.00046 Y19.66050
( Mill infeed pass 12/12 )
G01 Z-0.60000
G04 P0 ( dwell for no time -- G64 should not smooth over this point )
G01 F20.00000
G01 X46.00046 Y19.66050
G01 X47.70048 Y19.66050
G01 X47.70048 Y22.96050
G01 X46.00046 Y22.96050
G01 X46.00046 Y19.66050
G04 P0 ( dwell for no time -- G64 should not smooth over this point )
G00 Z0.50000 ( retract )

G00 X43.46046 Y19.66050 ( rapid move to begin. )
G01 F30.00000
( Mill infeed pass 1/12 )
G01 Z-0.05000
G04 P0 ( dwell for no time -- G64 should not smooth over this point )
G01 F20.00000
G01 X43.46046 Y19.66050
G01 X45.16048 Y19.66050
G01 X45.16048 Y22.96050
G01 X43.46046 Y22.96050
G01 X43.46046 Y19.66050
( Mill infeed pass 2/12 )
G01 Z-0.10000
G04 P0 ( dwell for no time -- G64 should not smooth over this point )
G01 F20.00000
G01 X43.46046 Y19.66050
G01 X45.16048 Y19.66050
G01 X45.16048 Y22.96050
G01 X43.46046 Y22.96050
G01 X43.46046 Y19.66050
( Mill infeed pass 3/12 )
G01 Z-0.15000
G04 P0 ( dwell for no time -- G64 should not smooth over this point )
G01 F20.00000
G01 X43.46046 Y19.66050
G01 X45.16048 Y19.66050
G01 X45.16048 Y22.96050
G01 X43.46046 Y22.96050
G01 X43.46046 Y19.66050
( Mill infeed pass 4/12 )
G01 Z-0.20000
G04 P0 ( dwell for no time -- G64 should not smooth over this point )
G01 F20.00000
G01 X43.46046 Y19.66050
G01 X45.16048 Y19.66050
G01 X45.16048 Y22.96050
G01 X43.46046 Y22.96050
G01 X43.46046 Y19.66050
( Mill infeed pass 5/12 )
G01 Z-0.25000
G04 P0 ( dwell for no time -- G64 should not smooth over this point )
G01 F20.00000
G01 X43.46046 Y19.66050
G01 X45.16048 Y19.66050
G01 X45.16048 Y22.96050
G01 X43.46046 Y22.96050
G01 X43.46046 Y19.66050
( Mill infeed pass 6/12 )
G01 Z-0.30000
G04 P0 ( dwell for no time -- G64 should not smooth over this point )
G01 F20.00000
G01 X43.46046 Y19.66050
G01 X45.16048 Y19.66050
G01 X45.16048 Y22.96050
G01 X43.46046 Y22.96050
G01 X43.46046 Y19.66050
( Mill infeed pass 7/12 )
G01 Z-0.35000
G04 P0 ( dwell for no time -- G64 should not smooth over this point )
G01 F20.00000
G01 X43.46046 Y19.66050
G01 X45.16048 Y19.66050
G01 X45.16048 Y22.96050
G01 X43.46046 Y22.96050
G01 X43.46046 Y19.66050
( Mill infeed pass 8/12 )
G01 Z-0.40000
G04 P0 ( dwell for no time -- G64 should not smooth over this point )
G01 F20.00000
G01 X43.46046 Y19.66050
G01 X45.16048 Y19.66050
G01 X45.16048 Y22.96050
G01 X43.46046 Y22.96050
G01 X43.46046 Y19.66050
( Mill infeed pass 9/12 )
G01 Z-0.45000
G04 P0 ( dwell for no time -- G64 should not smooth over this point )
G01 F20.00000
G01 X43.46046 Y19.66050
G01 X45.16048 Y19.66050
G01 X45.16048 Y22.96050
G01 X43.46046 Y22.96050
G01 X43.46046 Y19.66050
( Mill infeed pass 10/12 )
G01 Z-0.50000
G04 P0 ( dwell for no time -- G64 should not smooth over this point )
G01 F20.00000
G01 X43.46046 Y19.66050
G01 X45.16048 Y19.66050
G01 X45.16048 Y22.96050
G01 X43.46046 Y22.96050
G01 X43.46046 Y19.66050
( Mill infeed pass 11/12 )
G01 Z-0.55000
G04 P0 ( dwell for no time -- G64 should not smooth over this point )
G01 F20.00000
G01 X43.46046 Y19.66050
G01 X45.16048 Y19.66050
G01 X45.16048 Y22.96050
G01 X43.46046 Y22.96050
G01 X43.46046 Y19.66050
( Mill infeed pass 12/12 )
G01 Z-0.60000
G04 P0 ( dwell for no time -- G64 should not smooth over this point )
G01 F20.00000
G01 X43.46046 Y19.66050
G01 X45.16048 Y19.66050
G01 X45.16048 Y22.96050
G01 X43.46046 Y22.96050
G01 X43.46046 Y19.66050
G04 P0 ( dwell for no time -- G64 should not smooth over this point )
G00 Z0.50000 ( retract )

G00 X40.92046 Y19.66050 ( rapid move to begin. )
G01 F30.00000
( Mill infeed pass 1/12 )
G01 Z-0.05000
G04 P0 ( dwell for no time -- G64 should not smooth over this point )
G01 F20.00000
G01 X40.92046 Y19.66050
G01 X42.62048 Y19.66050
G01 X42.62048 Y22.96050
G01 X40.92046 Y22.96050
G01 X40.92046 Y19.66050
( Mill infeed pass 2/12 )
G01 Z-0.10000
G04 P0 ( dwell for no time -- G64 should not smooth over this point )
G01 F20.00000
G01 X40.92046 Y19.66050
G01 X42.62048 Y19.66050
G01 X42.62048 Y22.96050
G01 X40.92046 Y22.96050
G01 X40.92046 Y19.66050
( Mill infeed pass 3/12 )
G01 Z-0.15000
G04 P0 ( dwell for no time -- G64 should not smooth over this point )
G01 F20.00000
G01 X40.92046 Y19.66050
G01 X42.62048 Y19.66050
G01 X42.62048 Y22.96050
G01 X40.92046 Y22.96050
G01 X40.92046 Y19.66050
( Mill infeed pass 4/12 )
G01 Z-0.20000
G04 P0 ( dwell for no time -- G64 should not smooth over this point )
G01 F20.00000
G01 X40.92046 Y19.66050
G01 X42.62048 Y19.66050
G01 X42.62048 Y22.96050
G01 X40.92046 Y22.96050
G01 X40.92046 Y19.66050
( Mill infeed pass 5/12 )
G01 Z-0.25000
G04 P0 ( dwell for no time -- G64 should not smooth over this point )
G01 F20.00000
G01 X40.92046 Y19.66050
G01 X42.62048 Y19.66050
G01 X42.62048 Y22.96050
G01 X40.92046 Y22.96050
G01 X40.92046 Y19.66050
( Mill infeed pass 6/12 )
G01 Z-0.30000
G04 P0 ( dwell for no time -- G64 should not smooth over this point )
G01 F20.00000
G01 X40.92046 Y19.66050
G01 X42.62048 Y19.66050
G01 X42.62048 Y22.96050
G01 X40.92046 Y22.96050
G01 X40.92046 Y19.66050
( Mill infeed pass 7/12 )
G01 Z-0.35000
G04 P0 ( dwell for no time -- G64 should not smooth over this point )
G01 F20.00000
G01 X40.92046 Y19.66050
G01 X42.62048 Y19.66050
G01 X42.62048 Y22.96050
G01 X40.92046 Y22.96050
G01 X40.92046 Y19.66050
( Mill infeed pass 8/12 )
G01 Z-0.40000
G04 P0 ( dwell for no time -- G64 should not smooth over this point )
G01 F20.00000
G01 X40.92046 Y19.66050
G01 X42.62048 Y19.66050
G01 X42.62048 Y22.96050
G01 X40.92046 Y22.96050
G01 X40.92046 Y19.66050
( Mill infeed pass 9/12 )
G01 Z-0.45000
G04 P0 ( dwell for no time -- G64 should not smooth over this point )
G01 F20.00000
G01 X40.92046 Y19.66050
G01 X42.62048 Y19.66050
G01 X42.62048 Y22.96050
G01 X40.92046 Y22.96050
G01 X40.92046 Y19.66050
( Mill infeed pass 10/12 )
G01 Z-0.50000
G04 P0 ( dwell for no time -- G64 should not smooth over this point )
G01 F20.00000
G01 X40.92046 Y19.66050
G01 X42.62048 Y19.66050
G01 X42.62048 Y22.96050
G01 X40.92046 Y22.96050
G01 X40.92046 Y19.66050
( Mill infeed pass 11/12 )
G01 Z-0.55000
G04 P0 ( dwell for no time -- G64 should not smooth over this point )
G01 F20.00000
G01 X40.92046 Y19.66050
G01 X42.62048 Y19.66050
G01 X42.62048 Y22.96050
G01 X40.92046 Y22.96050
G01 X40.92046 Y19.66050
( Mill infeed pass 12/12 )
G01 Z-0.60000
G04 P0 ( dwell for no time -- G64 should not smooth over this point )
G01 F20.00000
G01 X40.92046 Y19.66050
G01 X42.62048 Y19.66050
G01 X42.62048 Y22.96050
G01 X40.92046 Y22.96050
G01 X40.92046 Y19.66050
G04 P0 ( dwell for no time -- G64 should not smooth over this point )
G00 Z0.50000 ( retract )

G00 X38.38046 Y19.66050 ( rapid move to begin. )
G01 F30.00000
( Mill infeed pass 1/12 )
G01 Z-0.05000
G04 P0 ( dwell for no time -- G64 should not smooth over this point )
G01 F20.00000
G01 X38.38046 Y19.66050
G01 X40.08048 Y19.66050
G01 X40.08048 Y22.96050
G01 X38.38046 Y22.96050
G01 X38.38046 Y19.66050
( Mill infeed pass 2/12 )
G01 Z-0.10000
G04 P0 ( dwell for no time -- G64 should not smooth over this point )
G01 F20.00000
G01 X38.38046 Y19.66050
G01 X40.08048 Y19.66050
G01 X40.08048 Y22.96050
G01 X38.38046 Y22.96050
G01 X38.38046 Y19.66050
( Mill infeed pass 3/12 )
G01 Z-0.15000
G04 P0 ( dwell for no time -- G64 should not smooth over this point )
G01 F20.00000
G01 X38.38046 Y19.66050
G01 X40.08048 Y19.66050
G01 X40.08048 Y22.96050
G01 X38.38046 Y22.96050
G01 X38.38046 Y19.66050
( Mill infeed pass 4/12 )
G01 Z-0.20000
G04 P0 ( dwell for no time -- G64 should not smooth over this point )
G01 F20.00000
G01 X38.38046 Y19.66050
G01 X40.08048 Y19.66050
G01 X40.08048 Y22.96050
G01 X38.38046 Y22.96050
G01 X38.38046 Y19.66050
( Mill infeed pass 5/12 )
G01 Z-0.25000
G04 P0 ( dwell for no time -- G64 should not smooth over this point )
G01 F20.00000
G01 X38.38046 Y19.66050
G01 X40.08048 Y19.66050
G01 X40.08048 Y22.96050
G01 X38.38046 Y22.96050
G01 X38.38046 Y19.66050
( Mill infeed pass 6/12 )
G01 Z-0.30000
G04 P0 ( dwell for no time -- G64 should not smooth over this point )
G01 F20.00000
G01 X38.38046 Y19.66050
G01 X40.08048 Y19.66050
G01 X40.08048 Y22.96050
G01 X38.38046 Y22.96050
G01 X38.38046 Y19.66050
( Mill infeed pass 7/12 )
G01 Z-0.35000
G04 P0 ( dwell for no time -- G64 should not smooth over this point )
G01 F20.00000
G01 X38.38046 Y19.66050
G01 X40.08048 Y19.66050
G01 X40.08048 Y22.96050
G01 X38.38046 Y22.96050
G01 X38.38046 Y19.66050
( Mill infeed pass 8/12 )
G01 Z-0.40000
G04 P0 ( dwell for no time -- G64 should not smooth over this point )
G01 F20.00000
G01 X38.38046 Y19.66050
G01 X40.08048 Y19.66050
G01 X40.08048 Y22.96050
G01 X38.38046 Y22.96050
G01 X38.38046 Y19.66050
( Mill infeed pass 9/12 )
G01 Z-0.45000
G04 P0 ( dwell for no time -- G64 should not smooth over this point )
G01 F20.00000
G01 X38.38046 Y19.66050
G01 X40.08048 Y19.66050
G01 X40.08048 Y22.96050
G01 X38.38046 Y22.96050
G01 X38.38046 Y19.66050
( Mill infeed pass 10/12 )
G01 Z-0.50000
G04 P0 ( dwell for no time -- G64 should not smooth over this point )
G01 F20.00000
G01 X38.38046 Y19.66050
G01 X40.08048 Y19.66050
G01 X40.08048 Y22.96050
G01 X38.38046 Y22.96050
G01 X38.38046 Y19.66050
( Mill infeed pass 11/12 )
G01 Z-0.55000
G04 P0 ( dwell for no time -- G64 should not smooth over this point )
G01 F20.00000
G01 X38.38046 Y19.66050
G01 X40.08048 Y19.66050
G01 X40.08048 Y22.96050
G01 X38.38046 Y22.96050
G01 X38.38046 Y19.66050
( Mill infeed pass 12/12 )
G01 Z-0.60000
G04 P0 ( dwell for no time -- G64 should not smooth over this point )
G01 F20.00000
G01 X38.38046 Y19.66050
G01 X40.08048 Y19.66050
G01 X40.08048 Y22.96050
G01 X38.38046 Y22.96050
G01 X38.38046 Y19.66050
G04 P0 ( dwell for no time -- G64 should not smooth over this point )
G00 Z0.50000 ( retract )

G00 X35.84046 Y19.66050 ( rapid move to begin. )
G01 F30.00000
( Mill infeed pass 1/12 )
G01 Z-0.05000
G04 P0 ( dwell for no time -- G64 should not smooth over this point )
G01 F20.00000
G01 X35.84046 Y19.66050
G01 X37.54048 Y19.66050
G01 X37.54048 Y22.96050
G01 X35.84046 Y22.96050
G01 X35.84046 Y19.66050
( Mill infeed pass 2/12 )
G01 Z-0.10000
G04 P0 ( dwell for no time -- G64 should not smooth over this point )
G01 F20.00000
G01 X35.84046 Y19.66050
G01 X37.54048 Y19.66050
G01 X37.54048 Y22.96050
G01 X35.84046 Y22.96050
G01 X35.84046 Y19.66050
( Mill infeed pass 3/12 )
G01 Z-0.15000
G04 P0 ( dwell for no time -- G64 should not smooth over this point )
G01 F20.00000
G01 X35.84046 Y19.66050
G01 X37.54048 Y19.66050
G01 X37.54048 Y22.96050
G01 X35.84046 Y22.96050
G01 X35.84046 Y19.66050
( Mill infeed pass 4/12 )
G01 Z-0.20000
G04 P0 ( dwell for no time -- G64 should not smooth over this point )
G01 F20.00000
G01 X35.84046 Y19.66050
G01 X37.54048 Y19.66050
G01 X37.54048 Y22.96050
G01 X35.84046 Y22.96050
G01 X35.84046 Y19.66050
( Mill infeed pass 5/12 )
G01 Z-0.25000
G04 P0 ( dwell for no time -- G64 should not smooth over this point )
G01 F20.00000
G01 X35.84046 Y19.66050
G01 X37.54048 Y19.66050
G01 X37.54048 Y22.96050
G01 X35.84046 Y22.96050
G01 X35.84046 Y19.66050
( Mill infeed pass 6/12 )
G01 Z-0.30000
G04 P0 ( dwell for no time -- G64 should not smooth over this point )
G01 F20.00000
G01 X35.84046 Y19.66050
G01 X37.54048 Y19.66050
G01 X37.54048 Y22.96050
G01 X35.84046 Y22.96050
G01 X35.84046 Y19.66050
( Mill infeed pass 7/12 )
G01 Z-0.35000
G04 P0 ( dwell for no time -- G64 should not smooth over this point )
G01 F20.00000
G01 X35.84046 Y19.66050
G01 X37.54048 Y19.66050
G01 X37.54048 Y22.96050
G01 X35.84046 Y22.96050
G01 X35.84046 Y19.66050
( Mill infeed pass 8/12 )
G01 Z-0.40000
G04 P0 ( dwell for no time -- G64 should not smooth over this point )
G01 F20.00000
G01 X35.84046 Y19.66050
G01 X37.54048 Y19.66050
G01 X37.54048 Y22.96050
G01 X35.84046 Y22.96050
G01 X35.84046 Y19.66050
( Mill infeed pass 9/12 )
G01 Z-0.45000
G04 P0 ( dwell for no time -- G64 should not smooth over this point )
G01 F20.00000
G01 X35.84046 Y19.66050
G01 X37.54048 Y19.66050
G01 X37.54048 Y22.96050
G01 X35.84046 Y22.96050
G01 X35.84046 Y19.66050
( Mill infeed pass 10/12 )
G01 Z-0.50000
G04 P0 ( dwell for no time -- G64 should not smooth over this point )
G01 F20.00000
G01 X35.84046 Y19.66050
G01 X37.54048 Y19.66050
G01 X37.54048 Y22.96050
G01 X35.84046 Y22.96050
G01 X35.84046 Y19.66050
( Mill infeed pass 11/12 )
G01 Z-0.55000
G04 P0 ( dwell for no time -- G64 should not smooth over this point )
G01 F20.00000
G01 X35.84046 Y19.66050
G01 X37.54048 Y19.66050
G01 X37.54048 Y22.96050
G01 X35.84046 Y22.96050
G01 X35.84046 Y19.66050
( Mill infeed pass 12/12 )
G01 Z-0.60000
G04 P0 ( dwell for no time -- G64 should not smooth over this point )
G01 F20.00000
G01 X35.84046 Y19.66050
G01 X37.54048 Y19.66050
G01 X37.54048 Y22.96050
G01 X35.84046 Y22.96050
G01 X35.84046 Y19.66050
G04 P0 ( dwell for no time -- G64 should not smooth over this point )
G00 Z0.50000 ( retract )

G00 X33.30046 Y19.66050 ( rapid move to begin. )
G01 F30.00000
( Mill infeed pass 1/12 )
G01 Z-0.05000
G04 P0 ( dwell for no time -- G64 should not smooth over this point )
G01 F20.00000
G01 X33.30046 Y19.66050
G01 X33.30046 Y22.96050
G01 X35.00048 Y22.96050
G01 X35.00048 Y19.66050
G01 X33.30046 Y19.66050
( Mill infeed pass 2/12 )
G01 Z-0.10000
G04 P0 ( dwell for no time -- G64 should not smooth over this point )
G01 F20.00000
G01 X33.30046 Y19.66050
G01 X33.30046 Y22.96050
G01 X35.00048 Y22.96050
G01 X35.00048 Y19.66050
G01 X33.30046 Y19.66050
( Mill infeed pass 3/12 )
G01 Z-0.15000
G04 P0 ( dwell for no time -- G64 should not smooth over this point )
G01 F20.00000
G01 X33.30046 Y19.66050
G01 X33.30046 Y22.96050
G01 X35.00048 Y22.96050
G01 X35.00048 Y19.66050
G01 X33.30046 Y19.66050
( Mill infeed pass 4/12 )
G01 Z-0.20000
G04 P0 ( dwell for no time -- G64 should not smooth over this point )
G01 F20.00000
G01 X33.30046 Y19.66050
G01 X33.30046 Y22.96050
G01 X35.00048 Y22.96050
G01 X35.00048 Y19.66050
G01 X33.30046 Y19.66050
( Mill infeed pass 5/12 )
G01 Z-0.25000
G04 P0 ( dwell for no time -- G64 should not smooth over this point )
G01 F20.00000
G01 X33.30046 Y19.66050
G01 X33.30046 Y22.96050
G01 X35.00048 Y22.96050
G01 X35.00048 Y19.66050
G01 X33.30046 Y19.66050
( Mill infeed pass 6/12 )
G01 Z-0.30000
G04 P0 ( dwell for no time -- G64 should not smooth over this point )
G01 F20.00000
G01 X33.30046 Y19.66050
G01 X33.30046 Y22.96050
G01 X35.00048 Y22.96050
G01 X35.00048 Y19.66050
G01 X33.30046 Y19.66050
( Mill infeed pass 7/12 )
G01 Z-0.35000
G04 P0 ( dwell for no time -- G64 should not smooth over this point )
G01 F20.00000
G01 X33.30046 Y19.66050
G01 X33.30046 Y22.96050
G01 X35.00048 Y22.96050
G01 X35.00048 Y19.66050
G01 X33.30046 Y19.66050
( Mill infeed pass 8/12 )
G01 Z-0.40000
G04 P0 ( dwell for no time -- G64 should not smooth over this point )
G01 F20.00000
G01 X33.30046 Y19.66050
G01 X33.30046 Y22.96050
G01 X35.00048 Y22.96050
G01 X35.00048 Y19.66050
G01 X33.30046 Y19.66050
( Mill infeed pass 9/12 )
G01 Z-0.45000
G04 P0 ( dwell for no time -- G64 should not smooth over this point )
G01 F20.00000
G01 X33.30046 Y19.66050
G01 X33.30046 Y22.96050
G01 X35.00048 Y22.96050
G01 X35.00048 Y19.66050
G01 X33.30046 Y19.66050
( Mill infeed pass 10/12 )
G01 Z-0.50000
G04 P0 ( dwell for no time -- G64 should not smooth over this point )
G01 F20.00000
G01 X33.30046 Y19.66050
G01 X33.30046 Y22.96050
G01 X35.00048 Y22.96050
G01 X35.00048 Y19.66050
G01 X33.30046 Y19.66050
( Mill infeed pass 11/12 )
G01 Z-0.55000
G04 P0 ( dwell for no time -- G64 should not smooth over this point )
G01 F20.00000
G01 X33.30046 Y19.66050
G01 X33.30046 Y22.96050
G01 X35.00048 Y22.96050
G01 X35.00048 Y19.66050
G01 X33.30046 Y19.66050
( Mill infeed pass 12/12 )
G01 Z-0.60000
G04 P0 ( dwell for no time -- G64 should not smooth over this point )
G01 F20.00000
G01 X33.30046 Y19.66050
G01 X33.30046 Y22.96050
G01 X35.00048 Y22.96050
G01 X35.00048 Y19.66050
G01 X33.30046 Y19.66050
G04 P0 ( dwell for no time -- G64 should not smooth over this point )
G00 Z0.50000 ( retract )

G00 X30.44070 Y24.89567 ( rapid move to begin. )
G01 F30.00000
( Mill infeed pass 1/12 )
G01 Z-0.05000
G04 P0 ( dwell for no time -- G64 should not smooth over this point )
G01 F20.00000
G01 X30.44070 Y24.89567
G01 X30.44204 Y26.13382
G01 X31.06383 Y26.13395
G01 X31.06409 Y24.88714
G01 X30.44334 Y24.88676
G01 X30.44070 Y24.89567
( Mill infeed pass 2/12 )
G01 Z-0.10000
G04 P0 ( dwell for no time -- G64 should not smooth over this point )
G01 F20.00000
G01 X30.44070 Y24.89567
G01 X30.44204 Y26.13382
G01 X31.06383 Y26.13395
G01 X31.06409 Y24.88714
G01 X30.44334 Y24.88676
G01 X30.44070 Y24.89567
( Mill infeed pass 3/12 )
G01 Z-0.15000
G04 P0 ( dwell for no time -- G64 should not smooth over this point )
G01 F20.00000
G01 X30.44070 Y24.89567
G01 X30.44204 Y26.13382
G01 X31.06383 Y26.13395
G01 X31.06409 Y24.88714
G01 X30.44334 Y24.88676
G01 X30.44070 Y24.89567
( Mill infeed pass 4/12 )
G01 Z-0.20000
G04 P0 ( dwell for no time -- G64 should not smooth over this point )
G01 F20.00000
G01 X30.44070 Y24.89567
G01 X30.44204 Y26.13382
G01 X31.06383 Y26.13395
G01 X31.06409 Y24.88714
G01 X30.44334 Y24.88676
G01 X30.44070 Y24.89567
( Mill infeed pass 5/12 )
G01 Z-0.25000
G04 P0 ( dwell for no time -- G64 should not smooth over this point )
G01 F20.00000
G01 X30.44070 Y24.89567
G01 X30.44204 Y26.13382
G01 X31.06383 Y26.13395
G01 X31.06409 Y24.88714
G01 X30.44334 Y24.88676
G01 X30.44070 Y24.89567
( Mill infeed pass 6/12 )
G01 Z-0.30000
G04 P0 ( dwell for no time -- G64 should not smooth over this point )
G01 F20.00000
G01 X30.44070 Y24.89567
G01 X30.44204 Y26.13382
G01 X31.06383 Y26.13395
G01 X31.06409 Y24.88714
G01 X30.44334 Y24.88676
G01 X30.44070 Y24.89567
( Mill infeed pass 7/12 )
G01 Z-0.35000
G04 P0 ( dwell for no time -- G64 should not smooth over this point )
G01 F20.00000
G01 X30.44070 Y24.89567
G01 X30.44204 Y26.13382
G01 X31.06383 Y26.13395
G01 X31.06409 Y24.88714
G01 X30.44334 Y24.88676
G01 X30.44070 Y24.89567
( Mill infeed pass 8/12 )
G01 Z-0.40000
G04 P0 ( dwell for no time -- G64 should not smooth over this point )
G01 F20.00000
G01 X30.44070 Y24.89567
G01 X30.44204 Y26.13382
G01 X31.06383 Y26.13395
G01 X31.06409 Y24.88714
G01 X30.44334 Y24.88676
G01 X30.44070 Y24.89567
( Mill infeed pass 9/12 )
G01 Z-0.45000
G04 P0 ( dwell for no time -- G64 should not smooth over this point )
G01 F20.00000
G01 X30.44070 Y24.89567
G01 X30.44204 Y26.13382
G01 X31.06383 Y26.13395
G01 X31.06409 Y24.88714
G01 X30.44334 Y24.88676
G01 X30.44070 Y24.89567
( Mill infeed pass 10/12 )
G01 Z-0.50000
G04 P0 ( dwell for no time -- G64 should not smooth over this point )
G01 F20.00000
G01 X30.44070 Y24.89567
G01 X30.44204 Y26.13382
G01 X31.06383 Y26.13395
G01 X31.06409 Y24.88714
G01 X30.44334 Y24.88676
G01 X30.44070 Y24.89567
( Mill infeed pass 11/12 )
G01 Z-0.55000
G04 P0 ( dwell for no time -- G64 should not smooth over this point )
G01 F20.00000
G01 X30.44070 Y24.89567
G01 X30.44204 Y26.13382
G01 X31.06383 Y26.13395
G01 X31.06409 Y24.88714
G01 X30.44334 Y24.88676
G01 X30.44070 Y24.89567
( Mill infeed pass 12/12 )
G01 Z-0.60000
G04 P0 ( dwell for no time -- G64 should not smooth over this point )
G01 F20.00000
G01 X30.44070 Y24.89567
G01 X30.44204 Y26.13382
G01 X31.06383 Y26.13395
G01 X31.06409 Y24.88714
G01 X30.44334 Y24.88676
G01 X30.44070 Y24.89567
G04 P0 ( dwell for no time -- G64 should not smooth over this point )
G00 Z0.50000 ( retract )

G00 X30.76046 Y19.66050 ( rapid move to begin. )
G01 F30.00000
( Mill infeed pass 1/12 )
G01 Z-0.05000
G04 P0 ( dwell for no time -- G64 should not smooth over this point )
G01 F20.00000
G01 X30.76046 Y19.66050
G01 X30.76046 Y22.96050
G01 X32.46048 Y22.96050
G01 X32.46048 Y19.66050
G01 X30.76046 Y19.66050
( Mill infeed pass 2/12 )
G01 Z-0.10000
G04 P0 ( dwell for no time -- G64 should not smooth over this point )
G01 F20.00000
G01 X30.76046 Y19.66050
G01 X30.76046 Y22.96050
G01 X32.46048 Y22.96050
G01 X32.46048 Y19.66050
G01 X30.76046 Y19.66050
( Mill infeed pass 3/12 )
G01 Z-0.15000
G04 P0 ( dwell for no time -- G64 should not smooth over this point )
G01 F20.00000
G01 X30.76046 Y19.66050
G01 X30.76046 Y22.96050
G01 X32.46048 Y22.96050
G01 X32.46048 Y19.66050
G01 X30.76046 Y19.66050
( Mill infeed pass 4/12 )
G01 Z-0.20000
G04 P0 ( dwell for no time -- G64 should not smooth over this point )
G01 F20.00000
G01 X30.76046 Y19.66050
G01 X30.76046 Y22.96050
G01 X32.46048 Y22.96050
G01 X32.46048 Y19.66050
G01 X30.76046 Y19.66050
( Mill infeed pass 5/12 )
G01 Z-0.25000
G04 P0 ( dwell for no time -- G64 should not smooth over this point )
G01 F20.00000
G01 X30.76046 Y19.66050
G01 X30.76046 Y22.96050
G01 X32.46048 Y22.96050
G01 X32.46048 Y19.66050
G01 X30.76046 Y19.66050
( Mill infeed pass 6/12 )
G01 Z-0.30000
G04 P0 ( dwell for no time -- G64 should not smooth over this point )
G01 F20.00000
G01 X30.76046 Y19.66050
G01 X30.76046 Y22.96050
G01 X32.46048 Y22.96050
G01 X32.46048 Y19.66050
G01 X30.76046 Y19.66050
( Mill infeed pass 7/12 )
G01 Z-0.35000
G04 P0 ( dwell for no time -- G64 should not smooth over this point )
G01 F20.00000
G01 X30.76046 Y19.66050
G01 X30.76046 Y22.96050
G01 X32.46048 Y22.96050
G01 X32.46048 Y19.66050
G01 X30.76046 Y19.66050
( Mill infeed pass 8/12 )
G01 Z-0.40000
G04 P0 ( dwell for no time -- G64 should not smooth over this point )
G01 F20.00000
G01 X30.76046 Y19.66050
G01 X30.76046 Y22.96050
G01 X32.46048 Y22.96050
G01 X32.46048 Y19.66050
G01 X30.76046 Y19.66050
( Mill infeed pass 9/12 )
G01 Z-0.45000
G04 P0 ( dwell for no time -- G64 should not smooth over this point )
G01 F20.00000
G01 X30.76046 Y19.66050
G01 X30.76046 Y22.96050
G01 X32.46048 Y22.96050
G01 X32.46048 Y19.66050
G01 X30.76046 Y19.66050
( Mill infeed pass 10/12 )
G01 Z-0.50000
G04 P0 ( dwell for no time -- G64 should not smooth over this point )
G01 F20.00000
G01 X30.76046 Y19.66050
G01 X30.76046 Y22.96050
G01 X32.46048 Y22.96050
G01 X32.46048 Y19.66050
G01 X30.76046 Y19.66050
( Mill infeed pass 11/12 )
G01 Z-0.55000
G04 P0 ( dwell for no time -- G64 should not smooth over this point )
G01 F20.00000
G01 X30.76046 Y19.66050
G01 X30.76046 Y22.96050
G01 X32.46048 Y22.96050
G01 X32.46048 Y19.66050
