( pcb2gcode 2.5.0 )
( Software-independent Gcode )

G94 ( Millimeters per minute feed rate. )
G21 ( Units == Millimeters. )

G90 ( Absolute coordinates. )
G00 S10000 ( RPM spindle speed. )
G01 F50.00000 ( Feedrate. )


G00 Z0.50000 (Retract to tool change height)
T1
M5      (Spindle stop.)
G04 P1.00000 (Wait for spindle to stop)
(MSG, Change tool bit to mill diameter 0.50000mm)
M3 ( Spindle on clockwise. )
G04 P1.00000 (Wait for spindle to get up to speed)
G04 P0 ( dwell for no time -- G64 should not smooth over this point )
G00 Z0.50000 ( retract )

G00 X6.25021 Y15.63902 ( rapid move to begin. )
G01 F10.00000
( Mill infeed pass 1/5 )
G01 Z-0.03000
G04 P0 ( dwell for no time -- G64 should not smooth over this point )
G01 F50.00000
G01 X6.25021 Y15.63902
G01 X6.25217 Y15.58885
G01 X6.27704 Y15.45957
G01 X6.33444 Y15.31763
G01 X6.40688 Y15.20773
G01 X6.47734 Y15.13272
G01 X6.51420 Y15.09858
G01 X6.62443 Y15.02408
G01 X6.76403 Y14.96467
G01 X6.90373 Y14.93663
G01 X7.41082 Y14.93544
G01 X7.58585 Y14.96488
G01 X7.71770 Y15.01888
G01 X7.83568 Y15.09868
G01 X7.93688 Y15.19886
G01 X8.01511 Y15.31786
G01 X8.06896 Y15.44951
G01 X8.09654 Y15.58895
G01 X8.09827 Y15.72469
G01 X8.07066 Y15.87110
G01 X8.01508 Y16.00216
G01 X7.98039 Y16.05832
G01 X7.93535 Y16.11992
G01 X7.86306 Y16.19629
G01 X7.71732 Y16.30051
G01 X7.58597 Y16.35563
G01 X7.44620 Y16.38344
G01 X6.90381 Y16.38276
G01 X6.76441 Y16.35416
G01 X6.63294 Y16.29990
G01 X6.51473 Y16.22083
G01 X6.42654 Y16.13539
G01 X6.33972 Y16.01181
G01 X6.28328 Y15.88111
G01 X6.25344 Y15.74189
G01 X6.25021 Y15.63902
( Mill infeed pass 2/5 )
G01 Z-0.06000
G04 P0 ( dwell for no time -- G64 should not smooth over this point )
G01 F50.00000
G01 X6.25021 Y15.63902
G01 X6.25217 Y15.58885
G01 X6.27704 Y15.45957
G01 X6.33444 Y15.31763
G01 X6.40688 Y15.20773
G01 X6.47734 Y15.13272
G01 X6.51420 Y15.09858
G01 X6.62443 Y15.02408
G01 X6.76403 Y14.96467
G01 X6.90373 Y14.93663
G01 X7.41082 Y14.93544
G01 X7.58585 Y14.96488
G01 X7.71770 Y15.01888
G01 X7.83568 Y15.09868
G01 X7.93688 Y15.19886
G01 X8.01511 Y15.31786
G01 X8.06896 Y15.44951
G01 X8.09654 Y15.58895
G01 X8.09827 Y15.72469
G01 X8.07066 Y15.87110
G01 X8.01508 Y16.00216
G01 X7.98039 Y16.05832
G01 X7.93535 Y16.11992
G01 X7.86306 Y16.19629
G01 X7.71732 Y16.30051
G01 X7.58597 Y16.35563
G01 X7.44620 Y16.38344
G01 X6.90381 Y16.38276
G01 X6.76441 Y16.35416
G01 X6.63294 Y16.29990
G01 X6.51473 Y16.22083
G01 X6.42654 Y16.13539
G01 X6.33972 Y16.01181
G01 X6.28328 Y15.88111
G01 X6.25344 Y15.74189
G01 X6.25021 Y15.63902
( Mill infeed pass 3/5 )
G01 Z-0.09000
G04 P0 ( dwell for no time -- G64 should not smooth over this point )
G01 F50.00000
G01 X6.25021 Y15.63902
G01 X6.25217 Y15.58885
G01 X6.27704 Y15.45957
G01 X6.33444 Y15.31763
G01 X6.40688 Y15.20773
G01 X6.47734 Y15.13272
G01 X6.51420 Y15.09858
G01 X6.62443 Y15.02408
G01 X6.76403 Y14.96467
G01 X6.90373 Y14.93663
G01 X7.41082 Y14.93544
G01 X7.58585 Y14.96488
G01 X7.71770 Y15.01888
G01 X7.83568 Y15.09868
G01 X7.93688 Y15.19886
G01 X8.01511 Y15.31786
G01 X8.06896 Y15.44951
G01 X8.09654 Y15.58895
G01 X8.09827 Y15.72469
G01 X8.07066 Y15.87110
G01 X8.01508 Y16.00216
G01 X7.98039 Y16.05832
G01 X7.93535 Y16.11992
G01 X7.86306 Y16.19629
G01 X7.71732 Y16.30051
G01 X7.58597 Y16.35563
G01 X7.44620 Y16.38344
G01 X6.90381 Y16.38276
G01 X6.76441 Y16.35416
G01 X6.63294 Y16.29990
G01 X6.51473 Y16.22083
G01 X6.42654 Y16.13539
G01 X6.33972 Y16.01181
G01 X6.28328 Y15.88111
G01 X6.25344 Y15.74189
G01 X6.25021 Y15.63902
( Mill infeed pass 4/5 )
G01 Z-0.12000
G04 P0 ( dwell for no time -- G64 should not smooth over this point )
G01 F50.00000
G01 X6.25021 Y15.63902
G01 X6.25217 Y15.58885
G01 X6.27704 Y15.45957
G01 X6.33444 Y15.31763
G01 X6.40688 Y15.20773
G01 X6.47734 Y15.13272
G01 X6.51420 Y15.09858
G01 X6.62443 Y15.02408
G01 X6.76403 Y14.96467
G01 X6.90373 Y14.93663
G01 X7.41082 Y14.93544
G01 X7.58585 Y14.96488
G01 X7.71770 Y15.01888
G01 X7.83568 Y15.09868
G01 X7.93688 Y15.19886
G01 X8.01511 Y15.31786
G01 X8.06896 Y15.44951
G01 X8.09654 Y15.58895
G01 X8.09827 Y15.72469
G01 X8.07066 Y15.87110
G01 X8.01508 Y16.00216
G01 X7.98039 Y16.05832
G01 X7.93535 Y16.11992
G01 X7.86306 Y16.19629
G01 X7.71732 Y16.30051
G01 X7.58597 Y16.35563
G01 X7.44620 Y16.38344
G01 X6.90381 Y16.38276
G01 X6.76441 Y16.35416
G01 X6.63294 Y16.29990
G01 X6.51473 Y16.22083
G01 X6.42654 Y16.13539
G01 X6.33972 Y16.01181
G01 X6.28328 Y15.88111
G01 X6.25344 Y15.74189
G01 X6.25021 Y15.63902
( Mill infeed pass 5/5 )
G01 Z-0.15000
G04 P0 ( dwell for no time -- G64 should not smooth over this point )
G01 F50.00000
G01 X6.25021 Y15.63902
G01 X6.25217 Y15.58885
G01 X6.27704 Y15.45957
G01 X6.33444 Y15.31763
G01 X6.40688 Y15.20773
G01 X6.47734 Y15.13272
G01 X6.51420 Y15.09858
G01 X6.62443 Y15.02408
G01 X6.76403 Y14.96467
G01 X6.90373 Y14.93663
G01 X7.41082 Y14.93544
G01 X7.58585 Y14.96488
G01 X7.71770 Y15.01888
G01 X7.83568 Y15.09868
G01 X7.93688 Y15.19886
G01 X8.01511 Y15.31786
G01 X8.06896 Y15.44951
G01 X8.09654 Y15.58895
G01 X8.09827 Y15.72469
G01 X8.07066 Y15.87110
G01 X8.01508 Y16.00216
G01 X7.98039 Y16.05832
G01 X7.93535 Y16.11992
G01 X7.86306 Y16.19629
G01 X7.71732 Y16.30051
G01 X7.58597 Y16.35563
G01 X7.44620 Y16.38344
G01 X6.90381 Y16.38276
G01 X6.76441 Y16.35416
G01 X6.63294 Y16.29990
G01 X6.51473 Y16.22083
G01 X6.42654 Y16.13539
G01 X6.33972 Y16.01181
G01 X6.28328 Y15.88111
G01 X6.25344 Y15.74189
G01 X6.25021 Y15.63902
G04 P0 ( dwell for no time -- G64 should not smooth over this point )
G00 Z0.50000 ( retract )

G00 X4.55847 Y15.16381 ( rapid move to begin. )
G01 F10.00000
( Mill infeed pass 1/5 )
G01 Z-0.03000
G04 P0 ( dwell for no time -- G64 should not smooth over this point )
G01 F50.00000
G01 X4.55847 Y15.16381
G01 X4.70912 Y15.19104
G01 X4.67691 Y15.08748
G01 X4.68494 Y15.05436
G01 X4.67709 Y15.07854
G01 X4.61313 Y15.13313
G01 X4.55847 Y15.16381
G01 X4.50114 Y15.17638
G01 X4.30775 Y15.19741
G01 X3.78250 Y15.19752
G01 X3.58474 Y15.21215
G01 X3.46137 Y15.23493
G01 X3.43429 Y15.24626
G01 X3.28149 Y15.34702
G01 X3.25220 Y15.21573
G01 X3.28149 Y15.34702
G01 X3.20493 Y15.48967
G01 X3.13173 Y15.60554
G01 X3.07529 Y15.74171
G01 X3.04654 Y15.88631
G01 X3.04656 Y16.03373
G01 X3.07529 Y16.17834
G01 X3.13302 Y16.31385
G01 X3.21524 Y16.43577
G01 X3.29183 Y16.51641
G01 X3.44067 Y16.62291
G01 X3.57661 Y16.67902
G01 X3.72142 Y16.70689
G01 X4.50968 Y16.71001
G01 X4.59025 Y16.70490
G01 X4.71329 Y16.67971
G01 X4.84912 Y16.62261
G01 X4.89601 Y16.59355
G01 X5.00424 Y16.51054
G01 X5.07485 Y16.43592
G01 X5.14618 Y16.33323
G01 X5.20267 Y16.20910
G01 X5.24295 Y16.03368
G01 X5.24163 Y15.88649
G01 X5.22789 Y15.80191
G01 X5.18943 Y15.67747
G01 X5.15679 Y15.60628
G01 X5.07617 Y15.48306
G01 X4.97188 Y15.37892
G01 X4.79281 Y15.25840
G01 X4.70856 Y15.19056
G01 X4.67902 Y15.09724
G01 X4.67595 Y15.08200
G01 X4.68494 Y15.05436
G01 X4.77137 Y14.83899
G01 X4.79345 Y14.73252
G01 X4.79396 Y13.73755
G01 X4.75278 Y13.57903
G01 X4.68248 Y13.46544
G01 X4.54547 Y13.29650
G01 X4.54186 Y13.17679
G01 X4.58484 Y13.11931
G01 X4.54186 Y13.17679
G01 X4.54547 Y13.29650
G01 X4.41583 Y13.24850
G01 X4.29718 Y13.23504
G01 X3.35731 Y13.23651
G01 X3.20404 Y13.27131
G01 X3.14793 Y13.29406
G01 X3.14433 Y13.17303
G01 X3.25850 Y13.21766
G01 X3.37145 Y13.23440
G01 X4.34664 Y13.23173
G01 X4.47356 Y13.20511
G01 X4.54676 Y13.17024
G01 X4.66175 Y13.02980
G01 X4.75314 Y12.88876
G01 X4.78857 Y12.77237
G01 X4.79512 Y12.69511
G01 X4.79396 Y11.73753
G01 X4.76566 Y11.61881
G01 X4.67950 Y11.39282
G01 X4.69015 Y11.32328
G01 X4.70848 Y11.27837
G01 X4.97084 Y11.08988
G01 X5.07485 Y10.98592
G01 X5.14615 Y10.88325
G01 X5.20267 Y10.75912
G01 X5.24295 Y10.58368
G01 X5.24163 Y10.43649
G01 X5.22789 Y10.35193
G01 X5.18943 Y10.22747
G01 X5.15679 Y10.15630
G01 X5.07617 Y10.03306
G01 X5.00490 Y9.95976
G01 X4.97170 Y9.92915
G01 X4.84915 Y9.84739
G01 X4.71306 Y9.79107
G01 X4.56863 Y9.76217
G01 X3.72131 Y9.76219
G01 X3.57666 Y9.79034
G01 X3.46152 Y9.83738
G01 X3.31789 Y9.92874
G01 X3.21367 Y10.03301
G01 X3.14522 Y10.13413
G01 X3.07534 Y10.29176
G01 X3.04654 Y10.43634
G01 X3.04913 Y10.59824
G01 X3.07529 Y10.72833
G01 X3.13269 Y10.86402
G01 X3.20475 Y10.97604
G01 X3.28014 Y11.12000
G01 X3.26142 Y11.23194
G01 X3.24735 Y11.25963
G01 X3.26142 Y11.23194
G01 X3.27874 Y11.13430
G01 X3.26940 Y11.09623
G01 X3.27918 Y11.11779
G01 X3.41842 Y11.21500
G01 X3.46945 Y11.23621
G01 X3.62218 Y11.26267
G01 X3.78250 Y11.27286
G01 X4.32103 Y11.27316
G01 X4.42652 Y11.28129
G01 X4.56167 Y11.30578
G01 X4.70536 Y11.28119
G01 X4.68783 Y11.33321
G01 X4.67950 Y11.39282
G01 X4.61859 Y11.34032
G01 X4.56167 Y11.30578
G01 X4.42652 Y11.28129
G01 X4.29723 Y11.27253
G01 X3.75240 Y11.27177
G01 X3.62218 Y11.26267
G01 X3.46945 Y11.23621
G01 X3.32020 Y11.24075
G01 X3.24735 Y11.25963
G01 X3.07112 Y11.40392
G01 X2.99172 Y11.48777
G01 X2.93729 Y11.57906
G01 X2.92502 Y11.61363
G01 X2.90041 Y11.69752
G01 X2.89515 Y11.76625
G01 X2.89586 Y12.73252
G01 X2.93711 Y12.89107
G01 X3.00783 Y13.00448
G01 X3.14433 Y13.17303
G01 X3.15012 Y13.26346
G01 X3.14793 Y13.29406
G01 X3.02893 Y13.43930
G01 X2.93976 Y13.57540
G01 X2.90041 Y13.69752
G01 X2.89472 Y13.78530
G01 X2.89985 Y14.76155
G01 X2.93714 Y14.89109
G01 X2.95472 Y14.92139
G01 X3.00013 Y14.99241
G01 X3.08375 Y15.07712
G01 X3.25220 Y15.21573
G01 X3.36350 Y15.23379
G01 X3.46137 Y15.23493
( Mill infeed pass 2/5 )
G00 Z0.50000 ( retract )
G00 X4.55847 Y15.16381 ( rapid move to begin. )
G01 Z-0.06000
G04 P0 ( dwell for no time -- G64 should not smooth over this point )
G01 F50.00000
G01 X4.55847 Y15.16381
G01 X4.70912 Y15.19104
G01 X4.67691 Y15.08748
G01 X4.68494 Y15.05436
G01 X4.67709 Y15.07854
G01 X4.61313 Y15.13313
G01 X4.55847 Y15.16381
G01 X4.50114 Y15.17638
G01 X4.30775 Y15.19741
G01 X3.78250 Y15.19752
G01 X3.58474 Y15.21215
G01 X3.46137 Y15.23493
G01 X3.43429 Y15.24626
G01 X3.28149 Y15.34702
G01 X3.25220 Y15.21573
G01 X3.28149 Y15.34702
G01 X3.20493 Y15.48967
G01 X3.13173 Y15.60554
G01 X3.07529 Y15.74171
G01 X3.04654 Y15.88631
G01 X3.04656 Y16.03373
G01 X3.07529 Y16.17834
G01 X3.13302 Y16.31385
G01 X3.21524 Y16.43577
G01 X3.29183 Y16.51641
G01 X3.44067 Y16.62291
G01 X3.57661 Y16.67902
G01 X3.72142 Y16.70689
G01 X4.50968 Y16.71001
G01 X4.59025 Y16.70490
G01 X4.71329 Y16.67971
G01 X4.84912 Y16.62261
G01 X4.89601 Y16.59355
G01 X5.00424 Y16.51054
G01 X5.07485 Y16.43592
G01 X5.14618 Y16.33323
G01 X5.20267 Y16.20910
G01 X5.24295 Y16.03368
G01 X5.24163 Y15.88649
G01 X5.22789 Y15.80191
G01 X5.18943 Y15.67747
G01 X5.15679 Y15.60628
G01 X5.07617 Y15.48306
G01 X4.97188 Y15.37892
G01 X4.79281 Y15.25840
G01 X4.70856 Y15.19056
G01 X4.67902 Y15.09724
G01 X4.67595 Y15.08200
G01 X4.68494 Y15.05436
G01 X4.77137 Y14.83899
G01 X4.79345 Y14.73252
G01 X4.79396 Y13.73755
G01 X4.75278 Y13.57903
G01 X4.68248 Y13.46544
G01 X4.54547 Y13.29650
G01 X4.54186 Y13.17679
G01 X4.58484 Y13.11931
G01 X4.54186 Y13.17679
G01 X4.54547 Y13.29650
G01 X4.41583 Y13.24850
G01 X4.29718 Y13.23504
G01 X3.35731 Y13.23651
G01 X3.20404 Y13.27131
G01 X3.14793 Y13.29406
G01 X3.14433 Y13.17303
G01 X3.25850 Y13.21766
G01 X3.37145 Y13.23440
G01 X4.34664 Y13.23173
G01 X4.47356 Y13.20511
G01 X4.54676 Y13.17024
G01 X4.66175 Y13.02980
G01 X4.75314 Y12.88876
G01 X4.78857 Y12.77237
G01 X4.79512 Y12.69511
G01 X4.79396 Y11.73753
G01 X4.76566 Y11.61881
G01 X4.67950 Y11.39282
G01 X4.69015 Y11.32328
G01 X4.70848 Y11.27837
G01 X4.97084 Y11.08988
G01 X5.07485 Y10.98592
G01 X5.14615 Y10.88325
G01 X5.20267 Y10.75912
G01 X5.24295 Y10.58368
G01 X5.24163 Y10.43649
G01 X5.22789 Y10.35193
G01 X5.18943 Y10.22747
G01 X5.15679 Y10.15630
G01 X5.07617 Y10.03306
G01 X5.00490 Y9.95976
G01 X4.97170 Y9.92915
G01 X4.84915 Y9.84739
G01 X4.71306 Y9.79107
G01 X4.56863 Y9.76217
G01 X3.72131 Y9.76219
G01 X3.57666 Y9.79034
G01 X3.46152 Y9.83738
G01 X3.31789 Y9.92874
G01 X3.21367 Y10.03301
G01 X3.14522 Y10.13413
G01 X3.07534 Y10.29176
G01 X3.04654 Y10.43634
G01 X3.04913 Y10.59824
G01 X3.07529 Y10.72833
G01 X3.13269 Y10.86402
G01 X3.20475 Y10.97604
G01 X3.28014 Y11.12000
G01 X3.26142 Y11.23194
G01 X3.24735 Y11.25963
G01 X3.26142 Y11.23194
G01 X3.27874 Y11.13430
G01 X3.26940 Y11.09623
G01 X3.27918 Y11.11779
G01 X3.41842 Y11.21500
G01 X3.46945 Y11.23621
G01 X3.62218 Y11.26267
G01 X3.78250 Y11.27286
G01 X4.32103 Y11.27316
G01 X4.42652 Y11.28129
G01 X4.56167 Y11.30578
G01 X4.70536 Y11.28119
G01 X4.68783 Y11.33321
G01 X4.67950 Y11.39282
G01 X4.61859 Y11.34032
G01 X4.56167 Y11.30578
G01 X4.42652 Y11.28129
G01 X4.29723 Y11.27253
G01 X3.75240 Y11.27177
G01 X3.62218 Y11.26267
G01 X3.46945 Y11.23621
G01 X3.32020 Y11.24075
G01 X3.24735 Y11.25963
G01 X3.07112 Y11.40392
G01 X2.99172 Y11.48777
G01 X2.93729 Y11.57906
G01 X2.92502 Y11.61363
G01 X2.90041 Y11.69752
G01 X2.89515 Y11.76625
G01 X2.89586 Y12.73252
G01 X2.93711 Y12.89107
G01 X3.00783 Y13.00448
G01 X3.14433 Y13.17303
G01 X3.15012 Y13.26346
G01 X3.14793 Y13.29406
G01 X3.02893 Y13.43930
G01 X2.93976 Y13.57540
G01 X2.90041 Y13.69752
G01 X2.89472 Y13.78530
G01 X2.89985 Y14.76155
G01 X2.93714 Y14.89109
G01 X2.95472 Y14.92139
G01 X3.00013 Y14.99241
G01 X3.08375 Y15.07712
G01 X3.25220 Y15.21573
G01 X3.36350 Y15.23379
G01 X3.46137 Y15.23493
( Mill infeed pass 3/5 )
G00 Z0.50000 ( retract )
G00 X4.55847 Y15.16381 ( rapid move to begin. )
G01 Z-0.09000
G04 P0 ( dwell for no time -- G64 should not smooth over this point )
G01 F50.00000
G01 X4.55847 Y15.16381
G01 X4.70912 Y15.19104
G01 X4.67691 Y15.08748
G01 X4.68494 Y15.05436
G01 X4.67709 Y15.07854
G01 X4.61313 Y15.13313
G01 X4.55847 Y15.16381
G01 X4.50114 Y15.17638
G01 X4.30775 Y15.19741
G01 X3.78250 Y15.19752
G01 X3.58474 Y15.21215
G01 X3.46137 Y15.23493
G01 X3.43429 Y15.24626
G01 X3.28149 Y15.34702
G01 X3.25220 Y15.21573
G01 X3.28149 Y15.34702
G01 X3.20493 Y15.48967
G01 X3.13173 Y15.60554
G01 X3.07529 Y15.74171
G01 X3.04654 Y15.88631
G01 X3.04656 Y16.03373
G01 X3.07529 Y16.17834
G01 X3.13302 Y16.31385
G01 X3.21524 Y16.43577
G01 X3.29183 Y16.51641
G01 X3.44067 Y16.62291
G01 X3.57661 Y16.67902
G01 X3.72142 Y16.70689
G01 X4.50968 Y16.71001
G01 X4.59025 Y16.70490
G01 X4.71329 Y16.67971
G01 X4.84912 Y16.62261
G01 X4.89601 Y16.59355
G01 X5.00424 Y16.51054
G01 X5.07485 Y16.43592
G01 X5.14618 Y16.33323
G01 X5.20267 Y16.20910
G01 X5.24295 Y16.03368
G01 X5.24163 Y15.88649
G01 X5.22789 Y15.80191
G01 X5.18943 Y15.67747
G01 X5.15679 Y15.60628
G01 X5.07617 Y15.48306
G01 X4.97188 Y15.37892
G01 X4.79281 Y15.25840
G01 X4.70856 Y15.19056
G01 X4.67902 Y15.09724
G01 X4.67595 Y15.08200
G01 X4.68494 Y15.05436
G01 X4.77137 Y14.83899
G01 X4.79345 Y14.73252
G01 X4.79396 Y13.73755
G01 X4.75278 Y13.57903
G01 X4.68248 Y13.46544
G01 X4.54547 Y13.29650
G01 X4.54186 Y13.17679
G01 X4.58484 Y13.11931
G01 X4.54186 Y13.17679
G01 X4.54547 Y13.29650
G01 X4.41583 Y13.24850
G01 X4.29718 Y13.23504
G01 X3.35731 Y13.23651
G01 X3.20404 Y13.27131
G01 X3.14793 Y13.29406
G01 X3.14433 Y13.17303
G01 X3.25850 Y13.21766
G01 X3.37145 Y13.23440
G01 X4.34664 Y13.23173
G01 X4.47356 Y13.20511
G01 X4.54676 Y13.17024
G01 X4.66175 Y13.02980
G01 X4.75314 Y12.88876
G01 X4.78857 Y12.77237
G01 X4.79512 Y12.69511
G01 X4.79396 Y11.73753
G01 X4.76566 Y11.61881
G01 X4.67950 Y11.39282
G01 X4.69015 Y11.32328
G01 X4.70848 Y11.27837
G01 X4.97084 Y11.08988
G01 X5.07485 Y10.98592
G01 X5.14615 Y10.88325
G01 X5.20267 Y10.75912
G01 X5.24295 Y10.58368
G01 X5.24163 Y10.43649
G01 X5.22789 Y10.35193
G01 X5.18943 Y10.22747
G01 X5.15679 Y10.15630
G01 X5.07617 Y10.03306
G01 X5.00490 Y9.95976
G01 X4.97170 Y9.92915
G01 X4.84915 Y9.84739
G01 X4.71306 Y9.79107
G01 X4.56863 Y9.76217
G01 X3.72131 Y9.76219
G01 X3.57666 Y9.79034
G01 X3.46152 Y9.83738
G01 X3.31789 Y9.92874
G01 X3.21367 Y10.03301
G01 X3.14522 Y10.13413
G01 X3.07534 Y10.29176
G01 X3.04654 Y10.43634
G01 X3.04913 Y10.59824
G01 X3.07529 Y10.72833
G01 X3.13269 Y10.86402
G01 X3.20475 Y10.97604
G01 X3.28014 Y11.12000
G01 X3.26142 Y11.23194
G01 X3.24735 Y11.25963
G01 X3.26142 Y11.23194
G01 X3.27874 Y11.13430
G01 X3.26940 Y11.09623
G01 X3.27918 Y11.11779
G01 X3.41842 Y11.21500
G01 X3.46945 Y11.23621
G01 X3.62218 Y11.26267
G01 X3.78250 Y11.27286
G01 X4.32103 Y11.27316
G01 X4.42652 Y11.28129
G01 X4.56167 Y11.30578
G01 X4.70536 Y11.28119
G01 X4.68783 Y11.33321
G01 X4.67950 Y11.39282
G01 X4.61859 Y11.34032
G01 X4.56167 Y11.30578
G01 X4.42652 Y11.28129
G01 X4.29723 Y11.27253
G01 X3.75240 Y11.27177
G01 X3.62218 Y11.26267
G01 X3.46945 Y11.23621
G01 X3.32020 Y11.24075
G01 X3.24735 Y11.25963
G01 X3.07112 Y11.40392
G01 X2.99172 Y11.48777
G01 X2.93729 Y11.57906
G01 X2.92502 Y11.61363
G01 X2.90041 Y11.69752
G01 X2.89515 Y11.76625
G01 X2.89586 Y12.73252
G01 X2.93711 Y12.89107
G01 X3.00783 Y13.00448
G01 X3.14433 Y13.17303
G01 X3.15012 Y13.26346
G01 X3.14793 Y13.29406
G01 X3.02893 Y13.43930
G01 X2.93976 Y13.57540
G01 X2.90041 Y13.69752
G01 X2.89472 Y13.78530
G01 X2.89985 Y14.76155
G01 X2.93714 Y14.89109
G01 X2.95472 Y14.92139
G01 X3.00013 Y14.99241
G01 X3.08375 Y15.07712
G01 X3.25220 Y15.21573
G01 X3.36350 Y15.23379
G01 X3.46137 Y15.23493
( Mill infeed pass 4/5 )
G00 Z0.50000 ( retract )
G00 X4.55847 Y15.16381 ( rapid move to begin. )
G01 Z-0.12000
G04 P0 ( dwell for no time -- G64 should not smooth over this point )
G01 F50.00000
G01 X4.55847 Y15.16381
G01 X4.70912 Y15.19104
G01 X4.67691 Y15.08748
G01 X4.68494 Y15.05436
G01 X4.67709 Y15.07854
G01 X4.61313 Y15.13313
G01 X4.55847 Y15.16381
G01 X4.50114 Y15.17638
G01 X4.30775 Y15.19741
G01 X3.78250 Y15.19752
G01 X3.58474 Y15.21215
G01 X3.46137 Y15.23493
G01 X3.43429 Y15.24626
G01 X3.28149 Y15.34702
G01 X3.25220 Y15.21573
G01 X3.28149 Y15.34702
G01 X3.20493 Y15.48967
G01 X3.13173 Y15.60554
G01 X3.07529 Y15.74171
G01 X3.04654 Y15.88631
G01 X3.04656 Y16.03373
G01 X3.07529 Y16.17834
G01 X3.13302 Y16.31385
G01 X3.21524 Y16.43577
G01 X3.29183 Y16.51641
G01 X3.44067 Y16.62291
G01 X3.57661 Y16.67902
G01 X3.72142 Y16.70689
G01 X4.50968 Y16.71001
G01 X4.59025 Y16.70490
G01 X4.71329 Y16.67971
G01 X4.84912 Y16.62261
G01 X4.89601 Y16.59355
G01 X5.00424 Y16.51054
G01 X5.07485 Y16.43592
G01 X5.14618 Y16.33323
G01 X5.20267 Y16.20910
G01 X5.24295 Y16.03368
G01 X5.24163 Y15.88649
G01 X5.22789 Y15.80191
G01 X5.18943 Y15.67747
G01 X5.15679 Y15.60628
G01 X5.07617 Y15.48306
G01 X4.97188 Y15.37892
G01 X4.79281 Y15.25840
G01 X4.70856 Y15.19056
G01 X4.67902 Y15.09724
G01 X4.67595 Y15.08200
G01 X4.68494 Y15.05436
G01 X4.77137 Y14.83899
G01 X4.79345 Y14.73252
G01 X4.79396 Y13.73755
G01 X4.75278 Y13.57903
G01 X4.68248 Y13.46544
G01 X4.54547 Y13.29650
G01 X4.54186 Y13.17679
G01 X4.58484 Y13.11931
G01 X4.54186 Y13.17679
G01 X4.54547 Y13.29650
G01 X4.41583 Y13.24850
G01 X4.29718 Y13.23504
G01 X3.35731 Y13.23651
G01 X3.20404 Y13.27131
G01 X3.14793 Y13.29406
G01 X3.14433 Y13.17303
G01 X3.25850 Y13.21766
G01 X3.37145 Y13.23440
G01 X4.34664 Y13.23173
G01 X4.47356 Y13.20511
G01 X4.54676 Y13.17024
G01 X4.66175 Y13.02980
G01 X4.75314 Y12.88876
G01 X4.78857 Y12.77237
G01 X4.79512 Y12.69511
G01 X4.79396 Y11.73753
G01 X4.76566 Y11.61881
G01 X4.67950 Y11.39282
G01 X4.69015 Y11.32328
G01 X4.70848 Y11.27837
G01 X4.97084 Y11.08988
G01 X5.07485 Y10.98592
G01 X5.14615 Y10.88325
G01 X5.20267 Y10.75912
G01 X5.24295 Y10.58368
G01 X5.24163 Y10.43649
G01 X5.22789 Y10.35193
G01 X5.18943 Y10.22747
G01 X5.15679 Y10.15630
G01 X5.07617 Y10.03306
G01 X5.00490 Y9.95976
G01 X4.97170 Y9.92915
G01 X4.84915 Y9.84739
G01 X4.71306 Y9.79107
G01 X4.56863 Y9.76217
G01 X3.72131 Y9.76219
G01 X3.57666 Y9.79034
G01 X3.46152 Y9.83738
G01 X3.31789 Y9.92874
G01 X3.21367 Y10.03301
G01 X3.14522 Y10.13413
G01 X3.07534 Y10.29176
G01 X3.04654 Y10.43634
G01 X3.04913 Y10.59824
G01 X3.07529 Y10.72833
G01 X3.13269 Y10.86402
G01 X3.20475 Y10.97604
G01 X3.28014 Y11.12000
G01 X3.26142 Y11.23194
G01 X3.24735 Y11.25963
G01 X3.26142 Y11.23194
G01 X3.27874 Y11.13430
G01 X3.26940 Y11.09623
G01 X3.27918 Y11.11779
G01 X3.41842 Y11.21500
G01 X3.46945 Y11.23621
G01 X3.62218 Y11.26267
G01 X3.78250 Y11.27286
G01 X4.32103 Y11.27316
G01 X4.42652 Y11.28129
G01 X4.56167 Y11.30578
G01 X4.70536 Y11.28119
G01 X4.68783 Y11.33321
G01 X4.67950 Y11.39282
G01 X4.61859 Y11.34032
G01 X4.56167 Y11.30578
G01 X4.42652 Y11.28129
G01 X4.29723 Y11.27253
G01 X3.75240 Y11.27177
G01 X3.62218 Y11.26267
G01 X3.46945 Y11.23621
G01 X3.32020 Y11.24075
G01 X3.24735 Y11.25963
G01 X3.07112 Y11.40392
G01 X2.99172 Y11.48777
G01 X2.93729 Y11.57906
G01 X2.92502 Y11.61363
G01 X2.90041 Y11.69752
G01 X2.89515 Y11.76625
G01 X2.89586 Y12.73252
G01 X2.93711 Y12.89107
G01 X3.00783 Y13.00448
G01 X3.14433 Y13.17303
G01 X3.15012 Y13.26346
G01 X3.14793 Y13.29406
G01 X3.02893 Y13.43930
G01 X2.93976 Y13.57540
G01 X2.90041 Y13.69752
G01 X2.89472 Y13.78530
G01 X2.89985 Y14.76155
G01 X2.93714 Y14.89109
G01 X2.95472 Y14.92139
G01 X3.00013 Y14.99241
G01 X3.08375 Y15.07712
G01 X3.25220 Y15.21573
G01 X3.36350 Y15.23379
G01 X3.46137 Y15.23493
( Mill infeed pass 5/5 )
G00 Z0.50000 ( retract )
G00 X4.55847 Y15.16381 ( rapid move to begin. )
G01 Z-0.15000
G04 P0 ( dwell for no time -- G64 should not smooth over this point )
G01 F50.00000
G01 X4.55847 Y15.16381
G01 X4.70912 Y15.19104
G01 X4.67691 Y15.08748
G01 X4.68494 Y15.05436
G01 X4.67709 Y15.07854
G01 X4.61313 Y15.13313
G01 X4.55847 Y15.16381
G01 X4.50114 Y15.17638
G01 X4.30775 Y15.19741
G01 X3.78250 Y15.19752
G01 X3.58474 Y15.21215
G01 X3.46137 Y15.23493
G01 X3.43429 Y15.24626
G01 X3.28149 Y15.34702
G01 X3.25220 Y15.21573
G01 X3.28149 Y15.34702
G01 X3.20493 Y15.48967
G01 X3.13173 Y15.60554
G01 X3.07529 Y15.74171
G01 X3.04654 Y15.88631
G01 X3.04656 Y16.03373
G01 X3.07529 Y16.17834
G01 X3.13302 Y16.31385
G01 X3.21524 Y16.43577
G01 X3.29183 Y16.51641
G01 X3.44067 Y16.62291
G01 X3.57661 Y16.67902
G01 X3.72142 Y16.70689
G01 X4.50968 Y16.71001
G01 X4.59025 Y16.70490
G01 X4.71329 Y16.67971
G01 X4.84912 Y16.62261
G01 X4.89601 Y16.59355
G01 X5.00424 Y16.51054
G01 X5.07485 Y16.43592
G01 X5.14618 Y16.33323
G01 X5.20267 Y16.20910
G01 X5.24295 Y16.03368
G01 X5.24163 Y15.88649
G01 X5.22789 Y15.80191
G01 X5.18943 Y15.67747
G01 X5.15679 Y15.60628
G01 X5.07617 Y15.48306
G01 X4.97188 Y15.37892
G01 X4.79281 Y15.25840
G01 X4.70856 Y15.19056
G01 X4.67902 Y15.09724
G01 X4.67595 Y15.08200
G01 X4.68494 Y15.05436
G01 X4.77137 Y14.83899
G01 X4.79345 Y14.73252
G01 X4.79396 Y13.73755
G01 X4.75278 Y13.57903
G01 X4.68248 Y13.46544
G01 X4.54547 Y13.29650
G01 X4.54186 Y13.17679
G01 X4.58484 Y13.11931
G01 X4.54186 Y13.17679
G01 X4.54547 Y13.29650
G01 X4.41583 Y13.24850
G01 X4.29718 Y13.23504
G01 X3.35731 Y13.23651
G01 X3.20404 Y13.27131
G01 X3.14793 Y13.29406
G01 X3.14433 Y13.17303
G01 X3.25850 Y13.21766
G01 X3.37145 Y13.23440
G01 X4.34664 Y13.23173
G01 X4.47356 Y13.20511
G01 X4.54676 Y13.17024
G01 X4.66175 Y13.02980
G01 X4.75314 Y12.88876
G01 X4.78857 Y12.77237
G01 X4.79512 Y12.69511
G01 X4.79396 Y11.73753
G01 X4.76566 Y11.61881
G01 X4.67950 Y11.39282
G01 X4.69015 Y11.32328
G01 X4.70848 Y11.27837
G01 X4.97084 Y11.08988
G01 X5.07485 Y10.98592
G01 X5.14615 Y10.88325
G01 X5.20267 Y10.75912
G01 X5.24295 Y10.58368
G01 X5.24163 Y10.43649
G01 X5.22789 Y10.35193
G01 X5.18943 Y10.22747
G01 X5.15679 Y10.15630
G01 X5.07617 Y10.03306
G01 X5.00490 Y9.95976
G01 X4.97170 Y9.92915
G01 X4.84915 Y9.84739
G01 X4.71306 Y9.79107
G01 X4.56863 Y9.76217
G01 X3.72131 Y9.76219
G01 X3.57666 Y9.79034
G01 X3.46152 Y9.83738
G01 X3.31789 Y9.92874
G01 X3.21367 Y10.03301
G01 X3.14522 Y10.13413
G01 X3.07534 Y10.29176
G01 X3.04654 Y10.43634
G01 X3.04913 Y10.59824
G01 X3.07529 Y10.72833
G01 X3.13269 Y10.86402
G01 X3.20475 Y10.97604
G01 X3.28014 Y11.12000
G01 X3.26142 Y11.23194
G01 X3.24735 Y11.25963
G01 X3.26142 Y11.23194
G01 X3.27874 Y11.13430
G01 X3.26940 Y11.09623
G01 X3.27918 Y11.11779
G01 X3.41842 Y11.21500
G01 X3.46945 Y11.23621
G01 X3.62218 Y11.26267
G01 X3.78250 Y11.27286
G01 X4.32103 Y11.27316
G01 X4.42652 Y11.28129
G01 X4.56167 Y11.30578
G01 X4.70536 Y11.28119
G01 X4.68783 Y11.33321
G01 X4.67950 Y11.39282
G01 X4.61859 Y11.34032
G01 X4.56167 Y11.30578
G01 X4.42652 Y11.28129
G01 X4.29723 Y11.27253
G01 X3.75240 Y11.27177
G01 X3.62218 Y11.26267
G01 X3.46945 Y11.23621
G01 X3.32020 Y11.24075
G01 X3.24735 Y11.25963
G01 X3.07112 Y11.40392
G01 X2.99172 Y11.48777
G01 X2.93729 Y11.57906
G01 X2.92502 Y11.61363
G01 X2.90041 Y11.69752
G01 X2.89515 Y11.76625
G01 X2.89586 Y12.73252
G01 X2.93711 Y12.89107
G01 X3.00783 Y13.00448
G01 X3.14433 Y13.17303
G01 X3.15012 Y13.26346
G01 X3.14793 Y13.29406
G01 X3.02893 Y13.43930
G01 X2.93976 Y13.57540
G01 X2.90041 Y13.69752
G01 X2.89472 Y13.78530
G01 X2.89985 Y14.76155
G01 X2.93714 Y14.89109
G01 X2.95472 Y14.92139
G01 X3.00013 Y14.99241
G01 X3.08375 Y15.07712
G01 X3.25220 Y15.21573
G01 X3.36350 Y15.23379
G01 X3.46137 Y15.23493
G04 P0 ( dwell for no time -- G64 should not smooth over this point )
G00 Z0.50000 ( retract )

G00 X6.19474 Y12.78530 ( rapid move to begin. )
G01 F10.00000
( Mill infeed pass 1/5 )
G01 Z-0.03000
G04 P0 ( dwell for no time -- G64 should not smooth over this point )
G01 F50.00000
G01 X6.19474 Y12.78530
G01 X6.20040 Y12.69755
G01 X6.22504 Y12.61362
G01 X6.23731 Y12.57908
G01 X6.30028 Y12.47578
G01 X6.37109 Y12.40385
G01 X6.45496 Y12.34685
G01 X6.48892 Y12.32719
G01 X6.60769 Y12.29160
G01 X6.66670 Y12.28546
G01 X7.64244 Y12.28665
G01 X7.68247 Y12.29069
G01 X7.80104 Y12.32719
G01 X7.90289 Y12.38901
G01 X7.98925 Y12.47613
G01 X8.05278 Y12.57903
G01 X8.09397 Y12.73758
G01 X8.09347 Y13.73247
G01 X8.08308 Y13.79617
G01 X8.05239 Y13.89091
G01 X7.98986 Y13.99442
G01 X7.90462 Y14.08022
G01 X7.80063 Y14.14199
G01 X7.73632 Y14.16419
G01 X7.64241 Y14.18365
G01 X6.64755 Y14.18352
G01 X6.60114 Y14.17773
G01 X6.48895 Y14.14281
G01 X6.39410 Y14.08586
G01 X6.31095 Y14.00582
G01 X6.25474 Y13.92144
G01 X6.23713 Y13.89112
G01 X6.19985 Y13.76153
G01 X6.19474 Y12.78530
( Mill infeed pass 2/5 )
G01 Z-0.06000
G04 P0 ( dwell for no time -- G64 should not smooth over this point )
G01 F50.00000
G01 X6.19474 Y12.78530
G01 X6.20040 Y12.69755
G01 X6.22504 Y12.61362
G01 X6.23731 Y12.57908
G01 X6.30028 Y12.47578
G01 X6.37109 Y12.40385
G01 X6.45496 Y12.34685
G01 X6.48892 Y12.32719
G01 X6.60769 Y12.29160
G01 X6.66670 Y12.28546
G01 X7.64244 Y12.28665
G01 X7.68247 Y12.29069
G01 X7.80104 Y12.32719
G01 X7.90289 Y12.38901
G01 X7.98925 Y12.47613
G01 X8.05278 Y12.57903
G01 X8.09397 Y12.73758
G01 X8.09347 Y13.73247
G01 X8.08308 Y13.79617
G01 X8.05239 Y13.89091
G01 X7.98986 Y13.99442
G01 X7.90462 Y14.08022
G01 X7.80063 Y14.14199
G01 X7.73632 Y14.16419
G01 X7.64241 Y14.18365
G01 X6.64755 Y14.18352
G01 X6.60114 Y14.17773
G01 X6.48895 Y14.14281
G01 X6.39410 Y14.08586
G01 X6.31095 Y14.00582
G01 X6.25474 Y13.92144
G01 X6.23713 Y13.89112
G01 X6.19985 Y13.76153
G01 X6.19474 Y12.78530
( Mill infeed pass 3/5 )
G01 Z-0.09000
G04 P0 ( dwell for no time -- G64 should not smooth over this point )
G01 F50.00000
G01 X6.19474 Y12.78530
G01 X6.20040 Y12.69755
G01 X6.22504 Y12.61362
G01 X6.23731 Y12.57908
G01 X6.30028 Y12.47578
G01 X6.37109 Y12.40385
G01 X6.45496 Y12.34685
G01 X6.48892 Y12.32719
G01 X6.60769 Y12.29160
G01 X6.66670 Y12.28546
G01 X7.64244 Y12.28665
G01 X7.68247 Y12.29069
G01 X7.80104 Y12.32719
G01 X7.90289 Y12.38901
G01 X7.98925 Y12.47613
G01 X8.05278 Y12.57903
G01 X8.09397 Y12.73758
G01 X8.09347 Y13.73247
G01 X8.08308 Y13.79617
G01 X8.05239 Y13.89091
G01 X7.98986 Y13.99442
G01 X7.90462 Y14.08022
G01 X7.80063 Y14.14199
G01 X7.73632 Y14.16419
G01 X7.64241 Y14.18365
G01 X6.64755 Y14.18352
G01 X6.60114 Y14.17773
G01 X6.48895 Y14.14281
G01 X6.39410 Y14.08586
G01 X6.31095 Y14.00582
G01 X6.25474 Y13.92144
G01 X6.23713 Y13.89112
G01 X6.19985 Y13.76153
G01 X6.19474 Y12.78530
( Mill infeed pass 4/5 )
G01 Z-0.12000
G04 P0 ( dwell for no time -- G64 should not smooth over this point )
G01 F50.00000
G01 X6.19474 Y12.78530
G01 X6.20040 Y12.69755
G01 X6.22504 Y12.61362
G01 X6.23731 Y12.57908
G01 X6.30028 Y12.47578
G01 X6.37109 Y12.40385
G01 X6.45496 Y12.34685
G01 X6.48892 Y12.32719
G01 X6.60769 Y12.29160
G01 X6.66670 Y12.28546
G01 X7.64244 Y12.28665
G01 X7.68247 Y12.29069
G01 X7.80104 Y12.32719
G01 X7.90289 Y12.38901
G01 X7.98925 Y12.47613
G01 X8.05278 Y12.57903
G01 X8.09397 Y12.73758
G01 X8.09347 Y13.73247
G01 X8.08308 Y13.79617
G01 X8.05239 Y13.89091
G01 X7.98986 Y13.99442
G01 X7.90462 Y14.08022
G01 X7.80063 Y14.14199
G01 X7.73632 Y14.16419
G01 X7.64241 Y14.18365
G01 X6.64755 Y14.18352
G01 X6.60114 Y14.17773
G01 X6.48895 Y14.14281
G01 X6.39410 Y14.08586
G01 X6.31095 Y14.00582
G01 X6.25474 Y13.92144
G01 X6.23713 Y13.89112
G01 X6.19985 Y13.76153
G01 X6.19474 Y12.78530
( Mill infeed pass 5/5 )
G01 Z-0.15000
G04 P0 ( dwell for no time -- G64 should not smooth over this point )
G01 F50.00000
G01 X6.19474 Y12.78530
G01 X6.20040 Y12.69755
G01 X6.22504 Y12.61362
G01 X6.23731 Y12.57908
G01 X6.30028 Y12.47578
G01 X6.37109 Y12.40385
G01 X6.45496 Y12.34685
G01 X6.48892 Y12.32719
G01 X6.60769 Y12.29160
G01 X6.66670 Y12.28546
G01 X7.64244 Y12.28665
G01 X7.68247 Y12.29069
G01 X7.80104 Y12.32719
G01 X7.90289 Y12.38901
G01 X7.98925 Y12.47613
G01 X8.05278 Y12.57903
G01 X8.09397 Y12.73758
G01 X8.09347 Y13.73247
G01 X8.08308 Y13.79617
G01 X8.05239 Y13.89091
G01 X7.98986 Y13.99442
G01 X7.90462 Y14.08022
G01 X7.80063 Y14.14199
G01 X7.73632 Y14.16419
G01 X7.64241 Y14.18365
G01 X6.64755 Y14.18352
G01 X6.60114 Y14.17773
G01 X6.48895 Y14.14281
G01 X6.39410 Y14.08586
G01 X6.31095 Y14.00582
G01 X6.25474 Y13.92144
G01 X6.23713 Y13.89112
G01 X6.19985 Y13.76153
G01 X6.19474 Y12.78530
G04 P0 ( dwell for no time -- G64 should not smooth over this point )
G00 Z0.50000 ( retract )

G00 X6.25021 Y10.78902 ( rapid move to begin. )
G01 F10.00000
( Mill infeed pass 1/5 )
G01 Z-0.03000
G04 P0 ( dwell for no time -- G64 should not smooth over this point )
G01 F50.00000
G01 X6.25021 Y10.78902
G01 X6.25217 Y10.73885
G01 X6.27704 Y10.60954
G01 X6.33444 Y10.46763
G01 X6.40688 Y10.35772
G01 X6.47734 Y10.28272
G01 X6.51422 Y10.24861
G01 X6.62443 Y10.17408
G01 X6.76403 Y10.11467
G01 X6.90373 Y10.08663
G01 X7.41077 Y10.08546
G01 X7.58585 Y10.11487
G01 X7.71770 Y10.16890
G01 X7.83566 Y10.24868
G01 X7.93688 Y10.34888
G01 X8.01511 Y10.46786
G01 X8.06870 Y10.59958
G01 X8.09682 Y10.73895
G01 X8.09827 Y10.87471
G01 X8.07066 Y11.02107
G01 X8.01508 Y11.15216
G01 X7.98039 Y11.20832
G01 X7.93535 Y11.26994
G01 X7.86304 Y11.34632
G01 X7.71732 Y11.45053
G01 X7.58597 Y11.50563
G01 X7.44620 Y11.53344
G01 X6.90381 Y11.53275
G01 X6.76441 Y11.50418
G01 X6.63294 Y11.44992
G01 X6.51463 Y11.37095
G01 X6.43259 Y11.29176
G01 X6.33970 Y11.16181
G01 X6.28328 Y11.03110
G01 X6.25344 Y10.89189
G01 X6.25021 Y10.78902
( Mill infeed pass 2/5 )
G01 Z-0.06000
G04 P0 ( dwell for no time -- G64 should not smooth over this point )
G01 F50.00000
G01 X6.25021 Y10.78902
G01 X6.25217 Y10.73885
G01 X6.27704 Y10.60954
G01 X6.33444 Y10.46763
G01 X6.40688 Y10.35772
G01 X6.47734 Y10.28272
G01 X6.51422 Y10.24861
G01 X6.62443 Y10.17408
G01 X6.76403 Y10.11467
G01 X6.90373 Y10.08663
G01 X7.41077 Y10.08546
G01 X7.58585 Y10.11487
G01 X7.71770 Y10.16890
G01 X7.83566 Y10.24868
G01 X7.93688 Y10.34888
G01 X8.01511 Y10.46786
G01 X8.06870 Y10.59958
G01 X8.09682 Y10.73895
G01 X8.09827 Y10.87471
G01 X8.07066 Y11.02107
G01 X8.01508 Y11.15216
G01 X7.98039 Y11.20832
G01 X7.93535 Y11.26994
G01 X7.86304 Y11.34632
G01 X7.71732 Y11.45053
G01 X7.58597 Y11.50563
G01 X7.44620 Y11.53344
G01 X6.90381 Y11.53275
G01 X6.76441 Y11.50418
G01 X6.63294 Y11.44992
G01 X6.51463 Y11.37095
G01 X6.43259 Y11.29176
G01 X6.33970 Y11.16181
G01 X6.28328 Y11.03110
G01 X6.25344 Y10.89189
G01 X6.25021 Y10.78902
( Mill infeed pass 3/5 )
G01 Z-0.09000
G04 P0 ( dwell for no time -- G64 should not smooth over this point )
G01 F50.00000
G01 X6.25021 Y10.78902
G01 X6.25217 Y10.73885
G01 X6.27704 Y10.60954
G01 X6.33444 Y10.46763
G01 X6.40688 Y10.35772
G01 X6.47734 Y10.28272
G01 X6.51422 Y10.24861
G01 X6.62443 Y10.17408
G01 X6.76403 Y10.11467
G01 X6.90373 Y10.08663
G01 X7.41077 Y10.08546
G01 X7.58585 Y10.11487
G01 X7.71770 Y10.16890
G01 X7.83566 Y10.24868
G01 X7.93688 Y10.34888
G01 X8.01511 Y10.46786
G01 X8.06870 Y10.59958
G01 X8.09682 Y10.73895
G01 X8.09827 Y10.87471
G01 X8.07066 Y11.02107
G01 X8.01508 Y11.15216
G01 X7.98039 Y11.20832
G01 X7.93535 Y11.26994
G01 X7.86304 Y11.34632
G01 X7.71732 Y11.45053
G01 X7.58597 Y11.50563
G01 X7.44620 Y11.53344
G01 X6.90381 Y11.53275
G01 X6.76441 Y11.50418
G01 X6.63294 Y11.44992
G01 X6.51463 Y11.37095
G01 X6.43259 Y11.29176
G01 X6.33970 Y11.16181
G01 X6.28328 Y11.03110
G01 X6.25344 Y10.89189
G01 X6.25021 Y10.78902
( Mill infeed pass 4/5 )
G01 Z-0.12000
G04 P0 ( dwell for no time -- G64 should not smooth over this point )
G01 F50.00000
G01 X6.25021 Y10.78902
G01 X6.25217 Y10.73885
G01 X6.27704 Y10.60954
G01 X6.33444 Y10.46763
G01 X6.40688 Y10.35772
G01 X6.47734 Y10.28272
G01 X6.51422 Y10.24861
G01 X6.62443 Y10.17408
G01 X6.76403 Y10.11467
G01 X6.90373 Y10.08663
G01 X7.41077 Y10.08546
G01 X7.58585 Y10.11487
G01 X7.71770 Y10.16890
G01 X7.83566 Y10.24868
G01 X7.93688 Y10.34888
G01 X8.01511 Y10.46786
G01 X8.06870 Y10.59958
G01 X8.09682 Y10.73895
G01 X8.09827 Y10.87471
G01 X8.07066 Y11.02107
G01 X8.01508 Y11.15216
G01 X7.98039 Y11.20832
G01 X7.93535 Y11.26994
G01 X7.86304 Y11.34632
G01 X7.71732 Y11.45053
G01 X7.58597 Y11.50563
G01 X7.44620 Y11.53344
G01 X6.90381 Y11.53275
G01 X6.76441 Y11.50418
G01 X6.63294 Y11.44992
G01 X6.51463 Y11.37095
G01 X6.43259 Y11.29176
G01 X6.33970 Y11.16181
G01 X6.28328 Y11.03110
G01 X6.25344 Y10.89189
G01 X6.25021 Y10.78902
( Mill infeed pass 5/5 )
G01 Z-0.15000
G04 P0 ( dwell for no time -- G64 should not smooth over this point )
G01 F50.00000
G01 X6.25021 Y10.78902
G01 X6.25217 Y10.73885
G01 X6.27704 Y10.60954
G01 X6.33444 Y10.46763
G01 X6.40688 Y10.35772
G01 X6.47734 Y10.28272
G01 X6.51422 Y10.24861
G01 X6.62443 Y10.17408
G01 X6.76403 Y10.11467
G01 X6.90373 Y10.08663
G01 X7.41077 Y10.08546
G01 X7.58585 Y10.11487
G01 X7.71770 Y10.16890
G01 X7.83566 Y10.24868
G01 X7.93688 Y10.34888
G01 X8.01511 Y10.46786
G01 X8.06870 Y10.59958
G01 X8.09682 Y10.73895
G01 X8.09827 Y10.87471
G01 X8.07066 Y11.02107
G01 X8.01508 Y11.15216
G01 X7.98039 Y11.20832
G01 X7.93535 Y11.26994
G01 X7.86304 Y11.34632
G01 X7.71732 Y11.45053
G01 X7.58597 Y11.50563
G01 X7.44620 Y11.53344
G01 X6.90381 Y11.53275
G01 X6.76441 Y11.50418
G01 X6.63294 Y11.44992
G01 X6.51463 Y11.37095
G01 X6.43259 Y11.29176
G01 X6.33970 Y11.16181
G01 X6.28328 Y11.03110
G01 X6.25344 Y10.89189
G01 X6.25021 Y10.78902
G04 P0 ( dwell for no time -- G64 should not smooth over this point )
G00 Z0.50000 ( retract )

G00 X10.58521 Y4.32817 ( rapid move to begin. )
G01 F10.00000
( Mill infeed pass 1/5 )
G01 Z-0.03000
G04 P0 ( dwell for no time -- G64 should not smooth over this point )
G01 F50.00000
G01 X10.58521 Y4.32817
G01 X10.58493 Y2.76213
G01 X10.63898 Y2.61189
G01 X10.68612 Y2.42701
G01 X10.77164 Y2.22695
G01 X10.81216 Y2.09792
G01 X10.89900 Y1.99620
G01 X11.06412 Y1.86376
G01 X11.24223 Y1.77128
G01 X11.44403 Y1.71286
G01 X11.63707 Y1.69503
G01 X11.81993 Y1.71200
G01 X11.95767 Y1.74583
G01 X12.09831 Y1.80349
G01 X12.24576 Y1.89109
G01 X12.38396 Y2.00910
G01 X12.49811 Y2.14806
G01 X12.57085 Y2.26892
G01 X12.62572 Y2.39886
G01 X12.67055 Y2.57140
G01 X12.68474 Y2.72462
G01 X12.68500 Y4.34498
G01 X12.67646 Y4.44067
G01 X12.63247 Y4.52858
G01 X12.56463 Y4.71118
G01 X12.50811 Y4.83307
G01 X12.40474 Y4.98425
G01 X12.27405 Y5.11466
G01 X12.12191 Y5.21928
G01 X11.99559 Y5.27821
G01 X11.81149 Y5.32992
G01 X11.65465 Y5.34402
G01 X11.49455 Y5.33711
G01 X11.31642 Y5.29533
G01 X11.14754 Y5.22017
G01 X11.03253 Y5.14381
G01 X10.93286 Y5.05707
G01 X10.83169 Y4.94125
G01 X10.74962 Y4.81267
G01 X10.68452 Y4.66358
G01 X10.63791 Y4.47877
G01 X10.58521 Y4.32817
G01 X10.14495 Y3.88794
G01 X10.14495 Y3.20211
G01 X10.58493 Y2.76213
G01 X10.63898 Y2.61189
G01 X10.68612 Y2.42701
G01 X10.77164 Y2.22695
G01 X10.81711 Y2.07875
G01 X10.77052 Y1.96310
G01 X10.73867 Y1.91177
G01 X10.69544 Y1.86958
G01 X10.61185 Y1.81512
G01 X10.54919 Y1.78893
G01 X10.45005 Y1.77552
G01 X10.28178 Y1.77740
G01 X10.16575 Y1.80819
G01 X10.08335 Y1.85469
G01 X9.88226 Y2.05281
G01 X9.75727 Y1.93031
G01 X9.58556 Y1.81672
G01 X9.39506 Y1.73887
G01 X9.19303 Y1.69965
G01 X8.98719 Y1.70062
G01 X8.76713 Y1.74849
G01 X8.57891 Y1.83163
G01 X8.43268 Y1.93031
G01 X8.30881 Y2.05175
G01 X8.12222 Y1.86719
G01 X8.03172 Y1.81075
G01 X7.96812 Y1.78680
G01 X7.70795 Y1.77758
G01 X7.58437 Y1.81139
G01 X7.51094 Y1.85472
G01 X7.40891 Y1.97598
G01 X7.38585 Y2.03247
G01 X7.37528 Y2.09264
G01 X7.41653 Y2.22482
G01 X7.50538 Y2.42647
G01 X7.54706 Y2.59396
G01 X7.59568 Y2.74003
G01 X7.60472 Y2.76188
G01 X8.04498 Y3.20214
G01 X8.04498 Y3.88791
G01 X7.60497 Y4.32794
G01 X7.60472 Y2.76188
G01 X7.55204 Y2.61121
G01 X7.50538 Y2.42647
G01 X7.41653 Y2.22482
G01 X7.37528 Y2.09264
G01 X7.30396 Y2.00910
G01 X7.18943 Y1.90918
G01 X7.04508 Y1.81654
G01 X6.87767 Y1.74583
G01 X6.72085 Y1.70819
G01 X6.54816 Y1.69510
G01 X6.34496 Y1.71626
G01 X6.15253 Y1.77527
G01 X5.96614 Y1.87570
G01 X5.81087 Y2.00427
G01 X5.66741 Y2.18563
G01 X5.58374 Y2.34608
G01 X5.53256 Y2.50971
G01 X5.50556 Y2.72807
G01 X5.50523 Y4.36541
G01 X5.51178 Y4.44562
G01 X5.55441 Y4.52880
G01 X5.66990 Y4.81252
G01 X5.73414 Y4.91623
G01 X5.83038 Y5.03447
G01 X5.95253 Y5.14381
G01 X6.06754 Y5.22017
G01 X6.23645 Y5.29533
G01 X6.41458 Y5.33711
G01 X6.57465 Y5.34402
G01 X6.73149 Y5.32992
G01 X6.87302 Y5.29395
G01 X7.04178 Y5.21900
G01 X7.12824 Y5.16429
G01 X7.24615 Y5.06774
G01 X7.32456 Y4.98410
G01 X7.42918 Y4.83193
G01 X7.48572 Y4.71151
G01 X7.55092 Y4.47823
G01 X7.60497 Y4.32794
( Mill infeed pass 2/5 )
G00 Z0.50000 ( retract )
G00 X10.58521 Y4.32817 ( rapid move to begin. )
G01 Z-0.06000
G04 P0 ( dwell for no time -- G64 should not smooth over this point )
G01 F50.00000
G01 X10.58521 Y4.32817
G01 X10.58493 Y2.76213
G01 X10.63898 Y2.61189
G01 X10.68612 Y2.42701
G01 X10.77164 Y2.22695
G01 X10.81216 Y2.09792
G01 X10.89900 Y1.99620
G01 X11.06412 Y1.86376
G01 X11.24223 Y1.77128
G01 X11.44403 Y1.71286
G01 X11.63707 Y1.69503
G01 X11.81993 Y1.71200
G01 X11.95767 Y1.74583
G01 X12.09831 Y1.80349
G01 X12.24576 Y1.89109
G01 X12.38396 Y2.00910
G01 X12.49811 Y2.14806
G01 X12.57085 Y2.26892
G01 X12.62572 Y2.39886
G01 X12.67055 Y2.57140
G01 X12.68474 Y2.72462
G01 X12.68500 Y4.34498
G01 X12.67646 Y4.44067
G01 X12.63247 Y4.52858
G01 X12.56463 Y4.71118
G01 X12.50811 Y4.83307
G01 X12.40474 Y4.98425
G01 X12.27405 Y5.11466
G01 X12.12191 Y5.21928
G01 X11.99559 Y5.27821
G01 X11.81149 Y5.32992
G01 X11.65465 Y5.34402
G01 X11.49455 Y5.33711
G01 X11.31642 Y5.29533
G01 X11.14754 Y5.22017
G01 X11.03253 Y5.14381
G01 X10.93286 Y5.05707
G01 X10.83169 Y4.94125
G01 X10.74962 Y4.81267
G01 X10.68452 Y4.66358
G01 X10.63791 Y4.47877
G01 X10.58521 Y4.32817
G01 X10.14495 Y3.88794
G01 X10.14495 Y3.20211
G01 X10.58493 Y2.76213
G01 X10.63898 Y2.61189
G01 X10.68612 Y2.42701
G01 X10.77164 Y2.22695
G01 X10.81711 Y2.07875
G01 X10.77052 Y1.96310
G01 X10.73867 Y1.91177
G01 X10.69544 Y1.86958
G01 X10.61185 Y1.81512
G01 X10.54919 Y1.78893
G01 X10.45005 Y1.77552
G01 X10.28178 Y1.77740
G01 X10.16575 Y1.80819
G01 X10.08335 Y1.85469
G01 X9.88226 Y2.05281
G01 X9.75727 Y1.93031
G01 X9.58556 Y1.81672
G01 X9.39506 Y1.73887
G01 X9.19303 Y1.69965
G01 X8.98719 Y1.70062
G01 X8.76713 Y1.74849
G01 X8.57891 Y1.83163
G01 X8.43268 Y1.93031
G01 X8.30881 Y2.05175
G01 X8.12222 Y1.86719
G01 X8.03172 Y1.81075
G01 X7.96812 Y1.78680
G01 X7.70795 Y1.77758
G01 X7.58437 Y1.81139
G01 X7.51094 Y1.85472
G01 X7.40891 Y1.97598
G01 X7.38585 Y2.03247
G01 X7.37528 Y2.09264
G01 X7.41653 Y2.22482
G01 X7.50538 Y2.42647
G01 X7.54706 Y2.59396
G01 X7.59568 Y2.74003
G01 X7.60472 Y2.76188
G01 X8.04498 Y3.20214
G01 X8.04498 Y3.88791
G01 X7.60497 Y4.32794
G01 X7.60472 Y2.76188
G01 X7.55204 Y2.61121
G01 X7.50538 Y2.42647
G01 X7.41653 Y2.22482
G01 X7.37528 Y2.09264
G01 X7.30396 Y2.00910
G01 X7.18943 Y1.90918
G01 X7.04508 Y1.81654
G01 X6.87767 Y1.74583
G01 X6.72085 Y1.70819
G01 X6.54816 Y1.69510
G01 X6.34496 Y1.71626
G01 X6.15253 Y1.77527
G01 X5.96614 Y1.87570
G01 X5.81087 Y2.00427
G01 X5.66741 Y2.18563
G01 X5.58374 Y2.34608
G01 X5.53256 Y2.50971
G01 X5.50556 Y2.72807
G01 X5.50523 Y4.36541
G01 X5.51178 Y4.44562
G01 X5.55441 Y4.52880
G01 X5.66990 Y4.81252
G01 X5.73414 Y4.91623
G01 X5.83038 Y5.03447
G01 X5.95253 Y5.14381
G01 X6.06754 Y5.22017
G01 X6.23645 Y5.29533
G01 X6.41458 Y5.33711
G01 X6.57465 Y5.34402
G01 X6.73149 Y5.32992
G01 X6.87302 Y5.29395
G01 X7.04178 Y5.21900
G01 X7.12824 Y5.16429
G01 X7.24615 Y5.06774
G01 X7.32456 Y4.98410
G01 X7.42918 Y4.83193
G01 X7.48572 Y4.71151
G01 X7.55092 Y4.47823
G01 X7.60497 Y4.32794
( Mill infeed pass 3/5 )
G00 Z0.50000 ( retract )
G00 X10.58521 Y4.32817 ( rapid move to begin. )
G01 Z-0.09000
G04 P0 ( dwell for no time -- G64 should not smooth over this point )
G01 F50.00000
G01 X10.58521 Y4.32817
G01 X10.58493 Y2.76213
G01 X10.63898 Y2.61189
G01 X10.68612 Y2.42701
G01 X10.77164 Y2.22695
G01 X10.81216 Y2.09792
G01 X10.89900 Y1.99620
G01 X11.06412 Y1.86376
G01 X11.24223 Y1.77128
G01 X11.44403 Y1.71286
G01 X11.63707 Y1.69503
G01 X11.81993 Y1.71200
G01 X11.95767 Y1.74583
G01 X12.09831 Y1.80349
G01 X12.24576 Y1.89109
G01 X12.38396 Y2.00910
G01 X12.49811 Y2.14806
G01 X12.57085 Y2.26892
G01 X12.62572 Y2.39886
G01 X12.67055 Y2.57140
G01 X12.68474 Y2.72462
G01 X12.68500 Y4.34498
G01 X12.67646 Y4.44067
G01 X12.63247 Y4.52858
G01 X12.56463 Y4.71118
G01 X12.50811 Y4.83307
G01 X12.40474 Y4.98425
G01 X12.27405 Y5.11466
G01 X12.12191 Y5.21928
G01 X11.99559 Y5.27821
G01 X11.81149 Y5.32992
G01 X11.65465 Y5.34402
G01 X11.49455 Y5.33711
G01 X11.31642 Y5.29533
G01 X11.14754 Y5.22017
G01 X11.03253 Y5.14381
G01 X10.93286 Y5.05707
G01 X10.83169 Y4.94125
G01 X10.74962 Y4.81267
G01 X10.68452 Y4.66358
G01 X10.63791 Y4.47877
G01 X10.58521 Y4.32817
G01 X10.14495 Y3.88794
G01 X10.14495 Y3.20211
G01 X10.58493 Y2.76213
G01 X10.63898 Y2.61189
G01 X10.68612 Y2.42701
G01 X10.77164 Y2.22695
G01 X10.81711 Y2.07875
G01 X10.77052 Y1.96310
G01 X10.73867 Y1.91177
G01 X10.69544 Y1.86958
G01 X10.61185 Y1.81512
G01 X10.54919 Y1.78893
G01 X10.45005 Y1.77552
G01 X10.28178 Y1.77740
G01 X10.16575 Y1.80819
G01 X10.08335 Y1.85469
G01 X9.88226 Y2.05281
G01 X9.75727 Y1.93031
G01 X9.58556 Y1.81672
G01 X9.39506 Y1.73887
G01 X9.19303 Y1.69965
G01 X8.98719 Y1.70062
G01 X8.76713 Y1.74849
G01 X8.57891 Y1.83163
G01 X8.43268 Y1.93031
G01 X8.30881 Y2.05175
G01 X8.12222 Y1.86719
G01 X8.03172 Y1.81075
G01 X7.96812 Y1.78680
G01 X7.70795 Y1.77758
G01 X7.58437 Y1.81139
G01 X7.51094 Y1.85472
G01 X7.40891 Y1.97598
G01 X7.38585 Y2.03247
G01 X7.37528 Y2.09264
G01 X7.41653 Y2.22482
G01 X7.50538 Y2.42647
G01 X7.54706 Y2.59396
G01 X7.59568 Y2.74003
G01 X7.60472 Y2.76188
G01 X8.04498 Y3.20214
G01 X8.04498 Y3.88791
G01 X7.60497 Y4.32794
G01 X7.60472 Y2.76188
G01 X7.55204 Y2.61121
G01 X7.50538 Y2.42647
G01 X7.41653 Y2.22482
G01 X7.37528 Y2.09264
G01 X7.30396 Y2.00910
G01 X7.18943 Y1.90918
G01 X7.04508 Y1.81654
G01 X6.87767 Y1.74583
G01 X6.72085 Y1.70819
G01 X6.54816 Y1.69510
G01 X6.34496 Y1.71626
G01 X6.15253 Y1.77527
G01 X5.96614 Y1.87570
G01 X5.81087 Y2.00427
G01 X5.66741 Y2.18563
G01 X5.58374 Y2.34608
G01 X5.53256 Y2.50971
G01 X5.50556 Y2.72807
G01 X5.50523 Y4.36541
G01 X5.51178 Y4.44562
G01 X5.55441 Y4.52880
G01 X5.66990 Y4.81252
G01 X5.73414 Y4.91623
G01 X5.83038 Y5.03447
G01 X5.95253 Y5.14381
G01 X6.06754 Y5.22017
G01 X6.23645 Y5.29533
G01 X6.41458 Y5.33711
G01 X6.57465 Y5.34402
G01 X6.73149 Y5.32992
G01 X6.87302 Y5.29395
G01 X7.04178 Y5.21900
G01 X7.12824 Y5.16429
G01 X7.24615 Y5.06774
G01 X7.32456 Y4.98410
G01 X7.42918 Y4.83193
G01 X7.48572 Y4.71151
G01 X7.55092 Y4.47823
G01 X7.60497 Y4.32794
( Mill infeed pass 4/5 )
G00 Z0.50000 ( retract )
G00 X10.58521 Y4.32817 ( rapid move to begin. )
G01 Z-0.12000
G04 P0 ( dwell for no time -- G64 should not smooth over this point )
G01 F50.00000
G01 X10.58521 Y4.32817
G01 X10.58493 Y2.76213
G01 X10.63898 Y2.61189
G01 X10.68612 Y2.42701
G01 X10.77164 Y2.22695
G01 X10.81216 Y2.09792
G01 X10.89900 Y1.99620
G01 X11.06412 Y1.86376
G01 X11.24223 Y1.77128
G01 X11.44403 Y1.71286
G01 X11.63707 Y1.69503
G01 X11.81993 Y1.71200
G01 X11.95767 Y1.74583
G01 X12.09831 Y1.80349
G01 X12.24576 Y1.89109
G01 X12.38396 Y2.00910
G01 X12.49811 Y2.14806
G01 X12.57085 Y2.26892
G01 X12.62572 Y2.39886
G01 X12.67055 Y2.57140
G01 X12.68474 Y2.72462
G01 X12.68500 Y4.34498
G01 X12.67646 Y4.44067
G01 X12.63247 Y4.52858
G01 X12.56463 Y4.71118
G01 X12.50811 Y4.83307
G01 X12.40474 Y4.98425
G01 X12.27405 Y5.11466
G01 X12.12191 Y5.21928
G01 X11.99559 Y5.27821
G01 X11.81149 Y5.32992
G01 X11.65465 Y5.34402
G01 X11.49455 Y5.33711
G01 X11.31642 Y5.29533
G01 X11.14754 Y5.22017
G01 X11.03253 Y5.14381
G01 X10.93286 Y5.05707
G01 X10.83169 Y4.94125
G01 X10.74962 Y4.81267
G01 X10.68452 Y4.66358
G01 X10.63791 Y4.47877
G01 X10.58521 Y4.32817
G01 X10.14495 Y3.88794
G01 X10.14495 Y3.20211
G01 X10.58493 Y2.76213
G01 X10.63898 Y2.61189
G01 X10.68612 Y2.42701
G01 X10.77164 Y2.22695
G01 X10.81711 Y2.07875
G01 X10.77052 Y1.96310
G01 X10.73867 Y1.91177
G01 X10.69544 Y1.86958
G01 X10.61185 Y1.81512
G01 X10.54919 Y1.78893
G01 X10.45005 Y1.77552
G01 X10.28178 Y1.77740
G01 X10.16575 Y1.80819
G01 X10.08335 Y1.85469
G01 X9.88226 Y2.05281
G01 X9.75727 Y1.93031
G01 X9.58556 Y1.81672
G01 X9.39506 Y1.73887
G01 X9.19303 Y1.69965
G01 X8.98719 Y1.70062
G01 X8.76713 Y1.74849
G01 X8.57891 Y1.83163
G01 X8.43268 Y1.93031
G01 X8.30881 Y2.05175
G01 X8.12222 Y1.86719
G01 X8.03172 Y1.81075
G01 X7.96812 Y1.78680
G01 X7.70795 Y1.77758
G01 X7.58437 Y1.81139
G01 X7.51094 Y1.85472
G01 X7.40891 Y1.97598
G01 X7.38585 Y2.03247
G01 X7.37528 Y2.09264
G01 X7.41653 Y2.22482
G01 X7.50538 Y2.42647
G01 X7.54706 Y2.59396
G01 X7.59568 Y2.74003
G01 X7.60472 Y2.76188
G01 X8.04498 Y3.20214
G01 X8.04498 Y3.88791
G01 X7.60497 Y4.32794
G01 X7.60472 Y2.76188
G01 X7.55204 Y2.61121
G01 X7.50538 Y2.42647
G01 X7.41653 Y2.22482
G01 X7.37528 Y2.09264
G01 X7.30396 Y2.00910
G01 X7.18943 Y1.90918
G01 X7.04508 Y1.81654
G01 X6.87767 Y1.74583
G01 X6.72085 Y1.70819
G01 X6.54816 Y1.69510
G01 X6.34496 Y1.71626
G01 X6.15253 Y1.77527
G01 X5.96614 Y1.87570
G01 X5.81087 Y2.00427
G01 X5.66741 Y2.18563
G01 X5.58374 Y2.34608
G01 X5.53256 Y2.50971
G01 X5.50556 Y2.72807
G01 X5.50523 Y4.36541
G01 X5.51178 Y4.44562
G01 X5.55441 Y4.52880
G01 X5.66990 Y4.81252
G01 X5.73414 Y4.91623
G01 X5.83038 Y5.03447
G01 X5.95253 Y5.14381
G01 X6.06754 Y5.22017
G01 X6.23645 Y5.29533
G01 X6.41458 Y5.33711
G01 X6.57465 Y5.34402
G01 X6.73149 Y5.32992
G01 X6.87302 Y5.29395
G01 X7.04178 Y5.21900
G01 X7.12824 Y5.16429
G01 X7.24615 Y5.06774
G01 X7.32456 Y4.98410
G01 X7.42918 Y4.83193
G01 X7.48572 Y4.71151
G01 X7.55092 Y4.47823
G01 X7.60497 Y4.32794
( Mill infeed pass 5/5 )
G00 Z0.50000 ( retract )
G00 X10.58521 Y4.32817 ( rapid move to begin. )
G01 Z-0.15000
G04 P0 ( dwell for no time -- G64 should not smooth over this point )
G01 F50.00000
G01 X10.58521 Y4.32817
G01 X10.58493 Y2.76213
G01 X10.63898 Y2.61189
G01 X10.68612 Y2.42701
G01 X10.77164 Y2.22695
G01 X10.81216 Y2.09792
G01 X10.89900 Y1.99620
G01 X11.06412 Y1.86376
G01 X11.24223 Y1.77128
G01 X11.44403 Y1.71286
G01 X11.63707 Y1.69503
G01 X11.81993 Y1.71200
G01 X11.95767 Y1.74583
G01 X12.09831 Y1.80349
G01 X12.24576 Y1.89109
G01 X12.38396 Y2.00910
G01 X12.49811 Y2.14806
G01 X12.57085 Y2.26892
G01 X12.62572 Y2.39886
G01 X12.67055 Y2.57140
G01 X12.68474 Y2.72462
G01 X12.68500 Y4.34498
G01 X12.67646 Y4.44067
G01 X12.63247 Y4.52858
G01 X12.56463 Y4.71118
G01 X12.50811 Y4.83307
G01 X12.40474 Y4.98425
G01 X12.27405 Y5.11466
G01 X12.12191 Y5.21928
G01 X11.99559 Y5.27821
G01 X11.81149 Y5.32992
G01 X11.65465 Y5.34402
G01 X11.49455 Y5.33711
G01 X11.31642 Y5.29533
G01 X11.14754 Y5.22017
G01 X11.03253 Y5.14381
G01 X10.93286 Y5.05707
G01 X10.83169 Y4.94125
G01 X10.74962 Y4.81267
G01 X10.68452 Y4.66358
G01 X10.63791 Y4.47877
G01 X10.58521 Y4.32817
G01 X10.14495 Y3.88794
G01 X10.14495 Y3.20211
G01 X10.58493 Y2.76213
G01 X10.63898 Y2.61189
G01 X10.68612 Y2.42701
G01 X10.77164 Y2.22695
G01 X10.81711 Y2.07875
G01 X10.77052 Y1.96310
G01 X10.73867 Y1.91177
G01 X10.69544 Y1.86958
G01 X10.61185 Y1.81512
G01 X10.54919 Y1.78893
G01 X10.45005 Y1.77552
G01 X10.28178 Y1.77740
G01 X10.16575 Y1.80819
G01 X10.08335 Y1.85469
G01 X9.88226 Y2.05281
G01 X9.75727 Y1.93031
G01 X9.58556 Y1.81672
G01 X9.39506 Y1.73887
G01 X9.19303 Y1.69965
G01 X8.98719 Y1.70062
G01 X8.76713 Y1.74849
G01 X8.57891 Y1.83163
G01 X8.43268 Y1.93031
G01 X8.30881 Y2.05175
G01 X8.12222 Y1.86719
G01 X8.03172 Y1.81075
G01 X7.96812 Y1.78680
G01 X7.70795 Y1.77758
G01 X7.58437 Y1.81139
G01 X7.51094 Y1.85472
G01 X7.40891 Y1.97598
G01 X7.38585 Y2.03247
G01 X7.37528 Y2.09264
G01 X7.41653 Y2.22482
G01 X7.50538 Y2.42647
G01 X7.54706 Y2.59396
G01 X7.59568 Y2.74003
G01 X7.60472 Y2.76188
G01 X8.04498 Y3.20214
G01 X8.04498 Y3.88791
G01 X7.60497 Y4.32794
G01 X7.60472 Y2.76188
G01 X7.55204 Y2.61121
G01 X7.50538 Y2.42647
G01 X7.41653 Y2.22482
G01 X7.37528 Y2.09264
G01 X7.30396 Y2.00910
G01 X7.18943 Y1.90918
G01 X7.04508 Y1.81654
G01 X6.87767 Y1.74583
G01 X6.72085 Y1.70819
G01 X6.54816 Y1.69510
G01 X6.34496 Y1.71626
G01 X6.15253 Y1.77527
G01 X5.96614 Y1.87570
G01 X5.81087 Y2.00427
G01 X5.66741 Y2.18563
G01 X5.58374 Y2.34608
G01 X5.53256 Y2.50971
G01 X5.50556 Y2.72807
G01 X5.50523 Y4.36541
G01 X5.51178 Y4.44562
G01 X5.55441 Y4.52880
G01 X5.66990 Y4.81252
G01 X5.73414 Y4.91623
G01 X5.83038 Y5.03447
G01 X5.95253 Y5.14381
G01 X6.06754 Y5.22017
G01 X6.23645 Y5.29533
G01 X6.41458 Y5.33711
G01 X6.57465 Y5.34402
G01 X6.73149 Y5.32992
G01 X6.87302 Y5.29395
G01 X7.04178 Y5.21900
G01 X7.12824 Y5.16429
G01 X7.24615 Y5.06774
G01 X7.32456 Y4.98410
G01 X7.42918 Y4.83193
G01 X7.48572 Y4.71151
G01 X7.55092 Y4.47823
G01 X7.60497 Y4.32794
G04 P0 ( dwell for no time -- G64 should not smooth over this point )
G00 Z0.50000 ( retract )

G00 X8.12943 Y5.21765 ( rapid move to begin. )
G01 F10.00000
( Mill infeed pass 1/5 )
G01 Z-0.03000
G04 P0 ( dwell for no time -- G64 should not smooth over this point )
G01 F50.00000
G01 X8.12943 Y5.21765
G01 X8.13411 Y5.21300
G01 X8.21419 Y5.29489
G01 X8.26177 Y5.32944
G01 X8.36949 Y5.37572
G01 X8.42661 Y5.38941
G01 X9.73400 Y5.39116
G01 X9.81119 Y5.37892
G01 X9.92818 Y5.32944
G01 X9.96844 Y5.30142
G01 X10.05869 Y5.21587
G01 X9.97289 Y5.30739
G01 X9.89163 Y5.35563
G01 X9.81307 Y5.38621
G01 X9.71688 Y5.40002
G01 X8.43914 Y5.39881
G01 X8.34373 Y5.37445
G01 X8.26654 Y5.34049
G01 X8.19090 Y5.28387
G01 X8.12943 Y5.21765
( Mill infeed pass 2/5 )
G01 Z-0.06000
G04 P0 ( dwell for no time -- G64 should not smooth over this point )
G01 F50.00000
G01 X8.12943 Y5.21765
G01 X8.13411 Y5.21300
G01 X8.21419 Y5.29489
G01 X8.26177 Y5.32944
G01 X8.36949 Y5.37572
G01 X8.42661 Y5.38941
G01 X9.73400 Y5.39116
G01 X9.81119 Y5.37892
G01 X9.92818 Y5.32944
G01 X9.96844 Y5.30142
G01 X10.05869 Y5.21587
G01 X9.97289 Y5.30739
G01 X9.89163 Y5.35563
G01 X9.81307 Y5.38621
G01 X9.71688 Y5.40002
G01 X8.43914 Y5.39881
G01 X8.34373 Y5.37445
G01 X8.26654 Y5.34049
G01 X8.19090 Y5.28387
G01 X8.12943 Y5.21765
( Mill infeed pass 3/5 )
G01 Z-0.09000
G04 P0 ( dwell for no time -- G64 should not smooth over this point )
G01 F50.00000
G01 X8.12943 Y5.21765
G01 X8.13411 Y5.21300
G01 X8.21419 Y5.29489
G01 X8.26177 Y5.32944
G01 X8.36949 Y5.37572
G01 X8.42661 Y5.38941
G01 X9.73400 Y5.39116
G01 X9.81119 Y5.37892
G01 X9.92818 Y5.32944
G01 X9.96844 Y5.30142
G01 X10.05869 Y5.21587
G01 X9.97289 Y5.30739
G01 X9.89163 Y5.35563
G01 X9.81307 Y5.38621
G01 X9.71688 Y5.40002
G01 X8.43914 Y5.39881
G01 X8.34373 Y5.37445
G01 X8.26654 Y5.34049
G01 X8.19090 Y5.28387
G01 X8.12943 Y5.21765
( Mill infeed pass 4/5 )
G01 Z-0.12000
G04 P0 ( dwell for no time -- G64 should not smooth over this point )
G01 F50.00000
G01 X8.12943 Y5.21765
G01 X8.13411 Y5.21300
G01 X8.21419 Y5.29489
G01 X8.26177 Y5.32944
G01 X8.36949 Y5.37572
G01 X8.42661 Y5.38941
G01 X9.73400 Y5.39116
G01 X9.81119 Y5.37892
G01 X9.92818 Y5.32944
G01 X9.96844 Y5.30142
G01 X10.05869 Y5.21587
G01 X9.97289 Y5.30739
G01 X9.89163 Y5.35563
G01 X9.81307 Y5.38621
G01 X9.71688 Y5.40002
G01 X8.43914 Y5.39881
G01 X8.34373 Y5.37445
G01 X8.26654 Y5.34049
G01 X8.19090 Y5.28387
G01 X8.12943 Y5.21765
( Mill infeed pass 5/5 )
G01 Z-0.15000
G04 P0 ( dwell for no time -- G64 should not smooth over this point )
G01 F50.00000
G01 X8.12943 Y5.21765
G01 X8.13411 Y5.21300
G01 X8.21419 Y5.29489
G01 X8.26177 Y5.32944
G01 X8.36949 Y5.37572
G01 X8.42661 Y5.38941
G01 X9.73400 Y5.39116
G01 X9.81119 Y5.37892
G01 X9.92818 Y5.32944
G01 X9.96844 Y5.30142
G01 X10.05869 Y5.21587
G01 X9.97289 Y5.30739
G01 X9.89163 Y5.35563
G01 X9.81307 Y5.38621
G01 X9.71688 Y5.40002
G01 X8.43914 Y5.39881
G01 X8.34373 Y5.37445
G01 X8.26654 Y5.34049
G01 X8.19090 Y5.28387
G01 X8.12943 Y5.21765
G04 P0 ( dwell for no time -- G64 should not smooth over this point )
G00 Z0.50000 ( retract )

G00 X3.00691 Y1.96429 ( rapid move to begin. )
G01 F10.00000
( Mill infeed pass 1/5 )
G01 Z-0.03000
G04 P0 ( dwell for no time -- G64 should not smooth over this point )
G01 F50.00000
G01 X3.00691 Y1.96429
G01 X3.05235 Y1.87915
G01 X3.14913 Y1.78238
G01 X3.19043 Y1.75596
G01 X3.28034 Y1.71789
G01 X3.35637 Y1.69965
G01 X4.67361 Y1.69965
G01 X4.73122 Y1.71111
G01 X4.83071 Y1.75167
G01 X4.90287 Y1.80194
G01 X4.97137 Y1.87156
G01 X5.00404 Y1.92045
G01 X5.05123 Y2.03635
G01 X5.06444 Y2.12858
G01 X5.06497 Y4.34501
G01 X5.05926 Y4.44821
G01 X5.12017 Y4.40465
G01 X5.17287 Y4.38283
G01 X5.34011 Y4.36871
G01 X5.40889 Y4.38689
G01 X5.50574 Y4.43757
G01 X5.54094 Y4.49820
G01 X5.50820 Y4.43919
G01 X5.41819 Y4.39109
G01 X5.36025 Y4.37188
G01 X5.29939 Y4.36731
G01 X5.20074 Y4.37656
G01 X5.15476 Y4.38875
G01 X5.10389 Y4.41453
G01 X5.05926 Y4.44821
G01 X5.04135 Y4.47900
G01 X4.90920 Y4.80025
G01 X4.80894 Y4.95819
G01 X4.77125 Y5.00411
G01 X4.66688 Y5.10782
G01 X4.51384 Y5.21537
G01 X4.46147 Y5.24336
G01 X4.28705 Y5.31084
G01 X4.09337 Y5.34536
G01 X3.88715 Y5.34003
G01 X3.74290 Y5.31084
G01 X3.56848 Y5.24336
G01 X3.40181 Y5.13899
G01 X3.25218 Y4.99693
G01 X3.13968 Y4.83561
G01 X3.06076 Y4.65535
G01 X3.01855 Y4.46330
G01 X3.01415 Y2.14951
G01 X3.00676 Y1.95838
G01 X2.96109 Y1.90041
G01 X2.86160 Y1.82000
G01 X2.79945 Y1.79465
G01 X2.68548 Y1.77552
G01 X2.14771 Y1.78070
G01 X2.04281 Y1.81139
G01 X1.99213 Y1.83750
G01 X1.94870 Y1.87443
G01 X1.87903 Y1.95711
G01 X1.84611 Y2.02609
G01 X1.82434 Y2.14882
G01 X1.77753 Y27.70034
G01 X1.78754 Y27.77079
G01 X1.81360 Y27.85718
G01 X1.83651 Y27.90262
G01 X1.88299 Y27.95647
G01 X1.98329 Y28.03493
G01 X2.04644 Y28.05797
G01 X2.15154 Y28.07504
G01 X13.85548 Y28.07504
G01 X13.91604 Y28.06759
G01 X14.01985 Y28.03564
G01 X14.09157 Y27.98951
G01 X14.18131 Y27.88337
G01 X14.20953 Y27.81809
G01 X14.22764 Y27.69970
G01 X14.10427 Y27.47857
G01 X14.07644 Y27.37080
G01 X14.07473 Y24.98508
G01 X14.06054 Y24.85764
G01 X14.03290 Y24.75411
G01 X13.68779 Y24.59940
G01 X13.53544 Y24.49519
G01 X13.42058 Y24.38294
G01 X13.30080 Y24.21424
G01 X13.17273 Y23.90024
G01 X13.13133 Y23.81805
G01 X13.12498 Y23.72485
G01 X13.13039 Y22.03177
G01 X13.07817 Y22.06989
G01 X13.03201 Y22.09133
G01 X12.88370 Y22.11122
G01 X12.79056 Y22.09445
G01 X12.69432 Y22.04561
G01 X12.67883 Y22.03095
G01 X12.68474 Y22.10461
G01 X12.68500 Y23.72498
G01 X12.67646 Y23.82066
G01 X12.73003 Y23.78119
G01 X12.78185 Y23.75739
G01 X12.92765 Y23.73882
G01 X13.01746 Y23.75490
G01 X13.13133 Y23.81805
G01 X13.02693 Y23.75869
G01 X12.95818 Y23.74050
G01 X12.81881 Y23.74832
G01 X12.73826 Y23.77642
G01 X12.67646 Y23.82066
G01 X12.65968 Y23.85094
G01 X12.54934 Y24.12750
G01 X12.50811 Y24.21309
G01 X12.45061 Y24.30349
G01 X12.40474 Y24.36425
G01 X12.32521 Y24.44858
G01 X12.19879 Y24.55074
G01 X12.12191 Y24.59927
G01 X11.99559 Y24.65820
G01 X11.81149 Y24.70992
G01 X11.65465 Y24.72401
G01 X11.46135 Y24.71068
G01 X11.31642 Y24.67532
G01 X11.20083 Y24.62622
G01 X11.14769 Y24.59988
G01 X10.99537 Y24.49521
G01 X10.86468 Y24.36465
G01 X10.81409 Y24.29623
G01 X10.74962 Y24.19267
G01 X10.68452 Y24.04357
G01 X10.63791 Y23.85876
G01 X10.58521 Y23.70817
G01 X10.58493 Y22.14213
G01 X10.58521 Y23.70817
G01 X10.14495 Y23.26793
G01 X10.14495 Y22.58211
G01 X10.58493 Y22.14213
G01 X10.63898 Y21.99189
G01 X10.70421 Y21.75851
G01 X10.76100 Y21.63827
G01 X10.81932 Y21.54658
G01 X10.86519 Y21.48582
G01 X10.94477 Y21.40144
G01 X11.07118 Y21.29931
G01 X11.14802 Y21.25077
G01 X11.31693 Y21.17609
G01 X11.45846 Y21.14012
G01 X11.61528 Y21.12603
G01 X11.77535 Y21.13294
G01 X11.92724 Y21.16756
G01 X12.12224 Y21.25018
G01 X12.23743 Y21.32623
G01 X12.33710 Y21.41297
G01 X12.40524 Y21.48536
G01 X12.50888 Y21.63593
G01 X12.64685 Y21.97205
G01 X12.68302 Y22.03865
G01 X12.79950 Y22.09770
G01 X12.84576 Y22.10880
G01 X12.90273 Y22.11028
G01 X13.03201 Y22.09133
G01 X13.07817 Y22.06989
G01 X13.13039 Y22.03177
G01 X13.18050 Y21.93367
G01 X13.25734 Y21.72948
G01 X13.30039 Y21.63619
G01 X13.39107 Y21.50210
G01 X13.53511 Y21.35448
G01 X13.68769 Y21.25018
G01 X13.87761 Y21.16893
G01 X14.03879 Y21.13182
G01 X14.10521 Y21.12704
G01 X14.31835 Y21.13339
G01 X14.49345 Y21.17472
G01 X14.60915 Y21.22387
G01 X14.66229 Y21.25011
G01 X14.81474 Y21.35460
G01 X14.95573 Y21.49783
G01 X15.04964 Y21.63555
G01 X15.17128 Y21.93522
G01 X15.21621 Y22.02460
G01 X15.22492 Y22.11559
G01 X15.21966 Y23.81820
G01 X15.27006 Y23.78119
G01 X15.32185 Y23.75739
G01 X15.46765 Y23.73882
G01 X15.55746 Y23.75490
G01 X15.65558 Y23.80441
G01 X15.67112 Y23.81914
G01 X15.66523 Y23.74540
G01 X15.66498 Y22.12506
G01 X15.67344 Y22.02938
G01 X15.61817 Y22.06989
G01 X15.56231 Y22.09445
G01 X15.41420 Y22.11117
G01 X15.32175 Y22.09085
G01 X15.22614 Y22.04071
G01 X15.21621 Y22.02460
G01 X15.22614 Y22.04071
G01 X15.31309 Y22.08691
G01 X15.40470 Y22.11074
G01 X15.54258 Y22.09953
G01 X15.59099 Y22.08389
G01 X15.63523 Y22.05874
G01 X15.67344 Y22.02938
G01 X15.69025 Y21.99908
G01 X15.78530 Y21.75884
G01 X15.84181 Y21.63697
G01 X15.94522 Y21.48582
G01 X16.07590 Y21.35542
G01 X16.18395 Y21.27731
G01 X16.31908 Y21.20683
G01 X16.39696 Y21.17609
G01 X16.50041 Y21.14838
G01 X16.64521 Y21.12781
G01 X16.85537 Y21.13294
G01 X17.03345 Y21.17472
G01 X17.17803 Y21.23753
G01 X17.29035 Y21.30710
G01 X17.35456 Y21.35483
G01 X17.48524 Y21.48539
G01 X17.59995 Y21.65760
G01 X17.72685 Y21.97205
G01 X17.75883 Y22.03095
G01 X17.76475 Y22.10461
G01 X17.76500 Y23.72498
G01 X17.75652 Y23.82064
G01 X17.81006 Y23.78119
G01 X17.86185 Y23.75739
G01 X18.00765 Y23.73882
G01 X18.09746 Y23.75490
G01 X18.19558 Y23.80441
G01 X18.21112 Y23.81914
G01 X18.20523 Y23.74540
G01 X18.20498 Y22.12506
G01 X18.21344 Y22.02938
G01 X18.15817 Y22.06989
G01 X18.11201 Y22.09133
G01 X17.96373 Y22.11122
G01 X17.87056 Y22.09445
G01 X17.77432 Y22.04561
G01 X17.75883 Y22.03095
G01 X17.86175 Y22.09085
G01 X17.93520 Y22.10995
G01 X18.07257 Y22.10146
G01 X18.15817 Y22.06989
G01 X18.21344 Y22.02938
G01 X18.23025 Y21.99908
G01 X18.34061 Y21.72257
G01 X18.41712 Y21.57919
G01 X18.48522 Y21.48582
G01 X18.61590 Y21.35542
G01 X18.76802 Y21.25077
G01 X18.89433 Y21.19184
G01 X19.07846 Y21.14012
G01 X19.23530 Y21.12603
G01 X19.39537 Y21.13294
G01 X19.57345 Y21.17472
G01 X19.74226 Y21.25018
G01 X19.85743 Y21.32623
G01 X19.95710 Y21.41297
G01 X20.05826 Y21.52880
G01 X20.14031 Y21.65737
G01 X20.20538 Y21.80649
G01 X20.25204 Y21.99120
G01 X20.30472 Y22.14188
G01 X20.74498 Y22.58213
G01 X20.74498 Y23.26791
G01 X20.30497 Y23.70794
G01 X20.30472 Y22.14188
G01 X20.30497 Y23.70794
G01 X20.25092 Y23.85823
G01 X20.18572 Y24.09153
G01 X20.12890 Y24.21180
G01 X20.07061 Y24.30349
G01 X20.02474 Y24.36425
G01 X19.94521 Y24.44858
G01 X19.81879 Y24.55074
G01 X19.74193 Y24.59927
G01 X19.57302 Y24.67395
G01 X19.43149 Y24.70992
G01 X19.27465 Y24.72401
G01 X19.11458 Y24.71711
G01 X18.96269 Y24.68249
G01 X18.79192 Y24.61253
G01 X18.67963 Y24.54296
G01 X18.61542 Y24.49521
G01 X18.48471 Y24.36465
G01 X18.37000 Y24.19244
G01 X18.24308 Y23.87799
G01 X18.20693 Y23.81139
G01 X18.11623 Y23.76285
G01 X18.05832 Y23.74368
G01 X18.00765 Y23.73882
G01 X17.90823 Y23.74695
G01 X17.82670 Y23.77195
G01 X17.75652 Y23.82064
G01 X17.71247 Y23.90857
G01 X17.62934 Y24.12750
G01 X17.55283 Y24.27088
G01 X17.48474 Y24.36425
G01 X17.43325 Y24.42071
G01 X17.35405 Y24.49465
G01 X17.27879 Y24.55074
G01 X17.20193 Y24.59927
G01 X17.11082 Y24.64324
G01 X17.03302 Y24.67395
G01 X16.92952 Y24.70166
G01 X16.78474 Y24.72224
G01 X16.57458 Y24.71711
G01 X16.39645 Y24.67532
G01 X16.25192 Y24.61253
G01 X16.11250 Y24.52381
G01 X16.01283 Y24.43707
G01 X15.94471 Y24.36465
G01 X15.84105 Y24.21408
G01 X15.70308 Y23.87799
G01 X15.66693 Y23.81139
G01 X15.56693 Y23.75869
G01 X15.49818 Y23.74050
G01 X15.35881 Y23.74832
G01 X15.28670 Y23.77195
G01 X15.21966 Y23.81820
G01 X15.15279 Y23.95645
G01 X15.12276 Y24.04512
G01 X15.04992 Y24.21406
G01 X14.89073 Y24.44045
G01 X14.88304 Y24.48066
G01 X14.87570 Y24.55744
G01 X14.87524 Y26.60044
G01 X14.88941 Y26.72797
G01 X14.92670 Y26.85220
G01 X14.95286 Y26.87506
G01 X14.92497 Y26.84646
G01 X14.92497 Y26.87506
G01 X14.95286 Y26.87506
G01 X15.10371 Y26.91682
G01 X15.19950 Y26.92480
G01 X23.86242 Y26.92515
G01 X23.98998 Y26.91095
G01 X24.11360 Y26.87387
G01 X24.18680 Y26.78520
G01 X24.21924 Y26.70631
G01 X24.23512 Y26.57910
G01 X24.22727 Y26.52063
G01 X24.18670 Y26.40003
G01 X24.25813 Y26.52284
G01 X24.35541 Y26.61596
G01 X24.43997 Y26.66625
G01 X24.51421 Y26.69305
G01 X24.65048 Y26.71250
G01 X25.97634 Y26.70661
G01 X26.09343 Y26.67288
G01 X26.16600 Y26.63585
G01 X26.22312 Y26.59320
G01 X26.30422 Y26.50664
G01 X26.36559 Y26.40003
G01 X26.31698 Y26.55627
G01 X26.31499 Y26.64248
G01 X26.35993 Y26.78434
G01 X26.39386 Y26.83506
G01 X26.43770 Y26.87598
G01 X24.10715 Y26.87580
G01 X26.43770 Y26.87598
G01 X26.48830 Y26.89432
G01 X26.65591 Y26.93132
G01 X26.73554 Y26.95358
G01 X26.84009 Y27.01870
G01 X27.93330 Y28.10981
G01 X28.03419 Y28.19045
G01 X28.16259 Y28.20475
G01 X28.93239 Y28.20475
G01 X29.06073 Y28.19045
G01 X29.14161 Y28.12784
G01 X29.85436 Y27.41710
G01 X29.93543 Y27.31578
G01 X29.94973 Y27.18814
G01 X29.95558 Y26.42678
G01 X29.98532 Y26.32063
G01 X30.04341 Y26.22345
G01 X30.09215 Y26.17258
G01 X30.12421 Y26.14451
G01 X30.22068 Y26.08563
G01 X30.34183 Y26.05177
G01 X31.08517 Y26.05391
G01 X31.20447 Y26.08523
G01 X31.30086 Y26.14357
G01 X31.35857 Y26.19894
G01 X31.50505 Y26.37202
G01 X31.52311 Y26.46912
G01 X31.52486 Y27.75789
G01 X31.49939 Y27.90790
G01 X31.44186 Y28.02566
G01 X31.54694 Y28.03945
G01 X31.60150 Y28.05604
G01 X31.65842 Y28.09038
G01 X31.72497 Y28.15228
G01 X31.72497 Y26.52500
G01 X31.74762 Y26.38675
G01 X31.69449 Y26.39996
G01 X31.64424 Y26.40199
G01 X31.53637 Y26.38393
G01 X31.50505 Y26.37202
G01 X31.53637 Y26.38393
G01 X31.64424 Y26.40199
G01 X31.69449 Y26.39996
G01 X31.74762 Y26.38675
G01 X32.59847 Y25.53565
G01 X32.63065 Y25.50664
G01 X32.72123 Y25.45388
G01 X32.82255 Y25.42693
G01 X34.10169 Y25.42582
G01 X34.22941 Y25.41152
G01 X34.35224 Y25.37456
G01 X34.41531 Y25.30092
G01 X34.44383 Y25.25155
G01 X34.45851 Y25.20631
G01 X34.47312 Y25.10829
G01 X34.47312 Y25.05739
G01 X34.46278 Y25.00753
G01 X34.40307 Y24.88017
G01 X34.35590 Y24.82767
G01 X34.25851 Y24.76300
G01 X34.02638 Y24.67245
G01 X33.96415 Y24.63915
G01 X33.85354 Y24.56529
G01 X33.70253 Y24.42457
G01 X33.70881 Y24.41830
G01 X33.83271 Y24.53971
G01 X34.00439 Y24.65330
G01 X34.19491 Y24.73115
G01 X34.39694 Y24.77037
G01 X34.60279 Y24.76940
G01 X34.80444 Y24.72831
G01 X34.99428 Y24.64865
G01 X35.17218 Y24.52699
G01 X35.30969 Y24.38731
G01 X35.41866 Y24.22427
G01 X35.49829 Y24.03445
G01 X35.53631 Y23.85221
G01 X35.54469 Y22.58241
G01 X35.98551 Y22.14157
G01 X36.03900 Y21.99181
G01 X36.08650 Y21.80713
G01 X36.16108 Y21.63827
G01 X36.26483 Y21.48549
G01 X36.39471 Y21.35399
G01 X36.54738 Y21.24962
G01 X36.74380 Y21.16751
G01 X36.96519 Y21.12623
G01 X37.17537 Y21.13294
G01 X37.35302 Y21.17604
G01 X37.52168 Y21.25122
G01 X37.67507 Y21.35422
G01 X37.76755 Y21.44368
G01 X37.84057 Y21.53184
G01 X37.90964 Y21.63555
G01 X38.04068 Y21.95765
G01 X38.08309 Y22.03873
G01 X38.19950 Y22.09770
G01 X38.28482 Y22.11119
G01 X38.43201 Y22.09133
G01 X38.48680 Y22.06448
G01 X38.53285 Y22.02646
G01 X38.48680 Y22.06448
G01 X38.43201 Y22.09133
G01 X38.28373 Y22.11122
G01 X38.19056 Y22.09445
G01 X38.07961 Y22.03248
G01 X38.08015 Y23.82501
G01 X38.04868 Y23.99877
G01 X37.99135 Y24.15665
G01 X37.88279 Y24.34340
G01 X37.78091 Y24.46394
G01 X37.63953 Y24.58350
G01 X37.48856 Y24.67197
G01 X37.32346 Y24.73458
G01 X37.15239 Y24.76841
G01 X36.97840 Y24.77347
G01 X36.79453 Y24.74708
G01 X36.63982 Y24.69658
G01 X36.22486 Y25.11154
G01 X36.22397 Y25.84555
G01 X36.21597 Y25.90791
G01 X36.18780 Y26.00412
G01 X36.12803 Y26.10402
G01 X36.04683 Y26.18360
G01 X35.94789 Y26.24044
G01 X35.78511 Y26.27481
G01 X34.39537 Y26.27501
G01 X34.22331 Y26.18949
G01 X34.12379 Y26.15871
G01 X34.04368 Y26.14380
G01 X33.95501 Y26.13757
G01 X33.28427 Y26.13920
G01 X33.16169 Y26.15652
G01 X33.02954 Y26.19828
G01 X32.92225 Y26.32744
G01 X32.87089 Y26.41337
G01 X32.82496 Y26.51141
G01 X32.82603 Y27.78060
G01 X32.86106 Y27.93635
G01 X32.95908 Y28.09068
G01 X33.02537 Y28.15027
G01 X33.11036 Y28.20155
G01 X33.27909 Y28.24765
G01 X33.96413 Y28.24979
G01 X34.10048 Y28.22639
G01 X34.20246 Y28.18050
G01 X34.24642 Y28.15207
G01 X34.32400 Y28.08182
G01 X34.39125 Y27.98515
G01 X34.42933 Y27.89076
G01 X34.44066 Y27.84113
G01 X34.44988 Y27.75766
G01 X34.44998 Y27.57501
G01 X34.74858 Y27.57501
G01 X34.83634 Y27.66277
G01 X34.82999 Y27.71852
G01 X34.82999 Y29.24351
G01 X34.83725 Y29.30333
G01 X34.85861 Y29.35969
G01 X34.88633 Y29.40163
G01 X34.92981 Y29.44338
G01 X34.98201 Y29.47351
G01 X35.03989 Y29.49027
G01 X35.77009 Y29.49027
G01 X35.84617 Y29.46487
G01 X35.91028 Y29.41669
G01 X35.95584 Y29.35067
G01 X35.97817 Y29.27364
G01 X35.98000 Y27.71852
G01 X35.97365 Y27.66274
G01 X39.02018 Y24.61624
G01 X39.11256 Y24.66765
G01 X39.21438 Y24.71081
G01 X39.34786 Y24.75013
G01 X39.45695 Y24.76831
G01 X39.56737 Y24.77466
G01 X39.70628 Y24.76674
G01 X39.81515 Y24.74715
G01 X39.92124 Y24.71596
G01 X40.04938 Y24.66171
G01 X40.14527 Y24.60662
G01 X40.23468 Y24.54152
G01 X40.33706 Y24.44728
G01 X40.42094 Y24.34637
G01 X40.48248 Y24.25310
G01 X40.53318 Y24.15363
G01 X40.57897 Y24.03237
G01 X40.61072 Y23.89526
G01 X40.62396 Y23.76577
G01 X40.62441 Y22.09456
G01 X40.61776 Y22.02651
G01 X40.62614 Y22.04071
G01 X40.72175 Y22.09085
G01 X40.81420 Y22.11117
G01 X40.96231 Y22.09445
G01 X41.01817 Y22.06989
G01 X41.06988 Y22.03215
G01 X41.01817 Y22.06989
G01 X40.96231 Y22.09445
G01 X40.82373 Y22.11122
G01 X40.73950 Y22.09770
G01 X40.62439 Y22.03956
G01 X40.57133 Y21.93520
G01 X40.44890 Y21.63596
G01 X40.34555 Y21.48513
G01 X40.18149 Y21.32941
G01 X40.06163 Y21.25133
G01 X39.95670 Y21.20083
G01 X39.89279 Y21.17673
G01 X39.71522 Y21.13416
G01 X39.50521 Y21.12793
G01 X39.37542 Y21.14513
G01 X39.25718 Y21.17680
G01 X39.08817 Y21.25105
G01 X38.93529 Y21.35473
G01 X38.79866 Y21.49189
G01 X38.70072 Y21.63639
G01 X38.64619 Y21.75646
G01 X38.58929 Y21.91170
G01 X38.52924 Y22.03314
G01 X38.52505 Y23.73484
G01 X38.53125 Y23.83237
G01 X35.40489 Y26.95871
G01 X35.22443 Y26.78078
G01 X35.11627 Y26.71611
G01 X35.06560 Y26.69439
G01 X34.94419 Y26.67519
G01 X34.44729 Y26.67501
G01 X34.44297 Y26.41906
G01 X34.41785 Y26.32551
G01 X34.39537 Y26.27501
G01 X34.22331 Y26.18949
G01 X34.12379 Y26.15871
G01 X34.01973 Y26.14108
G01 X33.30962 Y26.13778
G01 X33.16169 Y26.15652
G01 X33.03759 Y26.19480
G01 X32.97617 Y26.25594
G01 X32.92225 Y26.32744
G01 X32.87089 Y26.41337
G01 X32.82496 Y26.51141
G01 X32.62496 Y26.71141
G01 X32.62496 Y28.53864
G01 X33.76136 Y29.67503
G01 X36.08858 Y29.67503
G01 X36.22498 Y29.53863
G01 X36.22498 Y29.46002
G01 X36.17680 Y29.42380
G01 X36.13870 Y29.37714
G01 X36.11284 Y29.32268
G01 X36.10019 Y29.25357
G01 X36.09999 Y27.71852
G01 X36.10725 Y27.65868
G01 X36.12861 Y27.60234
G01 X36.16285 Y27.55274
G01 X36.20796 Y27.51276
G01 X36.26133 Y27.48477
G01 X36.32986 Y27.46932
G01 X37.02010 Y27.46932
G01 X37.10715 Y27.49264
G01 X37.17316 Y27.53821
G01 X37.20573 Y27.57648
G01 X37.22998 Y27.62053
G01 X37.24494 Y27.66851
G01 X37.25000 Y27.71852
G01 X37.24980 Y29.25357
G01 X37.22998 Y29.34151
G01 X37.17916 Y29.41783
G01 X37.31231 Y29.35791
G01 X37.39219 Y29.34651
G01 X37.32211 Y29.35504
G01 X37.22838 Y29.39106
G01 X37.17916 Y29.41783
G01 X37.14200 Y29.44925
G01 X37.12109 Y29.48088
G01 X37.14200 Y29.44925
G01 X37.12488 Y29.46007
G01 X37.09892 Y29.55075
G01 X37.07857 Y29.66899
G01 X37.07408 Y29.77209
G01 X37.06021 Y29.83162
G01 X37.04611 Y29.87877
G01 X36.99354 Y29.96947
G01 X36.55178 Y30.41410
G01 X36.51927 Y30.44341
G01 X36.42879 Y30.49639
G01 X36.32734 Y30.52291
G01 X36.28472 Y30.52517
G01 X33.52252 Y30.52347
G01 X33.42115 Y30.49642
G01 X33.33032 Y30.44387
G01 X33.15433 Y30.27008
G01 X33.05389 Y30.18872
G01 X32.96609 Y30.17785
G01 X32.80378 Y30.17534
G01 X32.66919 Y30.18961
G01 X32.58826 Y30.25230
G01 X31.69550 Y31.14303
G01 X31.61430 Y31.24458
G01 X31.60132 Y31.34341
G01 X31.59586 Y31.72243
G01 X31.56398 Y31.82918
G01 X31.52804 Y31.89311
G01 X31.42677 Y32.00688
G01 X31.32946 Y32.06482
G01 X31.19614 Y32.09814
G01 X30.50955 Y32.10002
G01 X30.45906 Y32.09675
G01 X30.36221 Y32.07013
G01 X30.24829 Y32.00673
G01 X30.16833 Y31.92667
G01 X30.11082 Y31.82926
G01 X30.07991 Y31.72357
G01 X30.07590 Y30.36109
G01 X30.11034 Y30.22060
G01 X30.16939 Y30.12421
G01 X30.24867 Y30.04382
G01 X30.34547 Y29.98522
G01 X30.45916 Y29.95347
G01 X30.50958 Y29.95001
G01 X31.21567 Y29.95400
G01 X31.32934 Y29.98562
G01 X31.54318 Y30.09510
G01 X31.66398 Y30.02596
G01 X31.75562 Y29.95161
G01 X32.07897 Y29.62787
G01 X32.13398 Y29.55946
G01 X32.21008 Y29.42952
G01 X32.22822 Y29.41451
G01 X32.20785 Y29.39413
G01 X32.21008 Y29.42952
G01 X32.20919 Y29.39693
G01 X32.16073 Y29.30501
G01 X32.09088 Y29.21044
G01 X31.86154 Y28.97572
G01 X31.80424 Y28.87862
G01 X31.77716 Y28.77740
G01 X31.77472 Y28.39817
G01 X31.76053 Y28.27074
G01 X31.72321 Y28.14646
G01 X31.63515 Y28.07379
G01 X31.56553 Y28.04359
G01 X31.44186 Y28.02566
G01 X31.20447 Y28.16483
G01 X31.08517 Y28.19614
G01 X30.37427 Y28.19955
G01 X30.24354 Y28.19421
G01 X30.12835 Y28.27717
G01 X29.49764 Y28.90496
G01 X29.38603 Y28.97575
G01 X29.26211 Y29.00419
G01 X28.52942 Y29.00943
G01 X28.45954 Y29.01946
G01 X28.34113 Y29.05502
G01 X28.31248 Y29.05502
G01 X28.31248 Y29.08288
G01 X28.34113 Y29.05502
G01 X28.31248 Y29.08288
G01 X28.29696 Y29.12449
G01 X28.27072 Y29.23376
G01 X28.26274 Y29.32952
G01 X28.26274 Y29.71430
G01 X28.27692 Y29.84176
G01 X28.29617 Y29.92215
G01 X28.50201 Y30.04288
G01 X28.55771 Y30.09677
G01 X28.58202 Y30.12306
G01 X28.63963 Y30.22062
G01 X28.67006 Y30.32649
G01 X28.67354 Y31.69116
G01 X28.66348 Y31.75123
G01 X28.63963 Y31.82946
G01 X28.57846 Y31.93038
G01 X28.47247 Y32.02557
G01 X28.40407 Y32.06388
G01 X28.35274 Y32.08117
G01 X28.29091 Y32.09687
G01 X28.22497 Y32.10015
G01 X27.52675 Y32.09398
G01 X27.42048 Y32.06482
G01 X27.32317 Y32.00688
G01 X27.27898 Y31.96441
G01 X27.24443 Y31.92578
G01 X27.18746 Y31.83251
G01 X27.15177 Y31.70800
G01 X27.15510 Y30.32652
G01 X27.18566 Y30.22075
G01 X27.24329 Y30.12253
G01 X27.33717 Y30.03043
G01 X27.43666 Y29.95436
G01 X27.45279 Y29.87752
G01 X27.46221 Y29.77343
G01 X27.45807 Y28.84753
G01 X27.44789 Y28.77676
G01 X27.39978 Y28.71120
G01 X27.00326 Y28.31187
G01 X26.90306 Y28.23173
G01 X26.78883 Y28.17026
G01 X26.68451 Y28.17923
G01 X26.62142 Y28.20005
G01 X26.51738 Y28.27252
G01 X26.46884 Y28.32502
G01 X26.36249 Y28.32502
G01 X26.30222 Y28.21565
G01 X26.21555 Y28.12497
G01 X26.14408 Y28.07613
G01 X26.06585 Y28.04110
G01 X25.94261 Y28.01448
G01 X24.61401 Y28.01507
G01 X24.48485 Y28.04059
G01 X24.37553 Y28.09485
G01 X24.30740 Y28.14832
G01 X24.25097 Y28.21169
G01 X24.18536 Y28.32502
G01 X24.25244 Y28.19038
G01 X24.27835 Y28.09335
G01 X24.28221 Y28.03247
G01 X24.27403 Y27.98222
G01 X24.23616 Y27.87041
G01 X24.20535 Y27.82241
G01 X24.15559 Y27.77504
G01 X24.00037 Y27.73262
G01 X23.94990 Y27.72741
G01 X23.39897 Y27.72530
G01 X23.27154 Y27.73948
G01 X23.14721 Y27.77681
G01 X23.06481 Y27.88184
G01 X23.03070 Y27.99640
G01 X23.02498 Y28.04951
G01 X23.02895 Y28.33536
G01 X23.05783 Y28.43805
G01 X23.08386 Y28.49238
G01 X23.16443 Y28.57928
G01 X23.22877 Y28.62457
G01 X23.27543 Y28.67122
G01 X23.30842 Y28.72835
G01 X23.32547 Y28.79203
G01 X23.32562 Y39.00946
G01 X23.33324 Y39.06236
G01 X23.36181 Y39.15731
G01 X23.38483 Y39.20270
G01 X23.41655 Y39.24250
G01 X23.49161 Y39.30839
G01 X23.54037 Y39.33900
G01 X23.58549 Y39.35540
G01 X23.68165 Y39.37390
G01 X52.65098 Y39.37453
G01 X52.72142 Y39.36440
G01 X52.84446 Y39.32051
G01 X52.90008 Y39.27616
G01 X52.97555 Y39.18489
G01 X53.00585 Y39.11451
G01 X53.02497 Y39.00052
G01 X53.02497 Y24.99722
G01 X53.01926 Y24.94408
G01 X52.98477 Y24.83100
G01 X52.94753 Y24.77039
G01 X52.85137 Y24.68360
G01 X52.78002 Y24.64680
G01 X52.63783 Y24.66562
G01 X52.41113 Y24.71662
G01 X52.25916 Y24.72371
G01 X52.13458 Y24.71711
G01 X51.98269 Y24.68249
G01 X51.78771 Y24.59988
G01 X51.63542 Y24.49521
G01 X51.55038 Y24.41446
G01 X51.47169 Y24.32125
G01 X51.39000 Y24.19244
G01 X51.26308 Y23.87799
G01 X51.22693 Y23.81139
G01 X51.12693 Y23.75869
G01 X51.05818 Y23.74050
G01 X50.89097 Y23.75460
G01 X50.83829 Y23.77642
G01 X50.77652 Y23.82064
G01 X50.73247 Y23.90857
G01 X50.66465 Y24.09120
G01 X50.60814 Y24.21309
G01 X50.50474 Y24.36425
G01 X50.42521 Y24.44858
G01 X50.29879 Y24.55074
G01 X50.22193 Y24.59927
G01 X50.05302 Y24.67395
G01 X49.91149 Y24.70992
G01 X49.75465 Y24.72401
G01 X49.59458 Y24.71711
G01 X49.44269 Y24.68249
G01 X49.24771 Y24.59988
G01 X49.09542 Y24.49521
G01 X49.01038 Y24.41446
G01 X48.91414 Y24.29623
G01 X48.83646 Y24.16493
G01 X48.78457 Y24.04355
G01 X48.73791 Y23.85884
G01 X48.68523 Y23.70817
G01 X48.24497 Y23.26793
G01 X48.24497 Y22.58211
G01 X48.68498 Y22.14210
G01 X48.73903 Y21.99181
G01 X48.78612 Y21.80700
G01 X48.86103 Y21.63827
G01 X48.96522 Y21.48582
G01 X49.10969 Y21.33725
G01 X49.20553 Y21.21686
G01 X49.20245 Y21.07772
G01 X49.18452 Y21.00888
G01 X49.10608 Y20.89199
G01 X49.04584 Y20.83850
G01 X48.91680 Y20.78783
G01 X48.84789 Y20.77523
G01 X48.50733 Y20.77645
G01 X48.35856 Y20.81948
G01 X48.28495 Y20.87340
G01 X48.22044 Y20.94863
G01 X48.19588 Y20.98935
G01 X48.17723 Y21.04325
G01 X48.16268 Y21.14073
G01 X48.16232 Y21.18902
G01 X48.17248 Y21.24038
G01 X48.15587 Y21.25702
G01 X48.07578 Y21.17513
G01 X48.03669 Y21.14554
G01 X47.92056 Y21.09435
G01 X47.86392 Y21.08066
G01 X46.59578 Y21.07502
G01 X46.48633 Y21.08877
G01 X46.37043 Y21.13596
G01 X46.31419 Y21.17513
G01 X46.23408 Y21.25704
G01 X46.21414 Y21.23710
G01 X46.22748 Y21.14315
G01 X46.22006 Y21.07238
G01 X46.17503 Y20.96108
G01 X46.15044 Y20.92039
G01 X46.10406 Y20.87279
G01 X46.00485 Y20.80777
G01 X45.94899 Y20.78734
G01 X45.87360 Y20.77574
G01 X45.53426 Y20.77566
G01 X45.40490 Y20.80792
G01 X45.34993 Y20.83439
G01 X45.31013 Y20.86611
G01 X45.24429 Y20.94109
G01 X45.21392 Y20.98935
G01 X45.19527 Y21.04325
G01 X45.18191 Y21.13116
G01 X45.18458 Y21.21719
G01 X45.27843 Y21.33385
G01 X45.42529 Y21.48513
G01 X45.53055 Y21.63733
G01 X45.60472 Y21.80672
G01 X45.65077 Y21.98582
G01 X45.70492 Y22.14205
G01 X46.14498 Y22.58213
G01 X46.14498 Y23.26791
G01 X45.70492 Y23.70796
G01 X45.70492 Y22.14205
G01 X45.70492 Y23.70796
G01 X45.65166 Y23.85864
G01 X45.60505 Y24.04345
G01 X45.53068 Y24.21279
G01 X45.42728 Y24.36344
G01 X45.33535 Y24.45836
G01 X45.06141 Y24.66747
G01 X45.04216 Y24.75861
G01 X45.03523 Y24.84789
G01 X45.03523 Y27.03503
G01 X45.03246 Y27.08736
G01 X45.01059 Y27.17471
G01 X44.96512 Y27.26170
G01 X44.91801 Y27.31804
G01 X43.68519 Y28.55085
G01 X43.59566 Y28.66411
G01 X43.58725 Y29.29167
G01 X43.55461 Y29.43447
G01 X43.49703 Y29.53198
G01 X43.40307 Y29.62063
G01 X43.30699 Y29.67381
G01 X43.12042 Y29.74717
G01 X43.09523 Y29.83216
G01 X43.07788 Y29.94100
G01 X43.07938 Y30.10843
G01 X43.08941 Y30.17828
G01 X43.12670 Y30.30251
G01 X43.15517 Y30.32738
G01 X43.12497 Y30.29677
G01 X43.12497 Y30.32713
G01 X43.15517 Y30.32738
G01 X43.31227 Y30.36965
G01 X43.42715 Y30.38649
G01 X43.50447 Y30.41021
G01 X43.55875 Y30.44054
G01 X43.60170 Y30.46827
G01 X43.68166 Y30.54836
G01 X43.73868 Y30.64597
G01 X43.76317 Y30.72197
G01 X43.77511 Y30.81476
G01 X43.77122 Y31.54082
G01 X43.74798 Y31.62908
G01 X43.71803 Y31.69365
G01 X43.68151 Y31.75158
G01 X43.60150 Y31.83152
G01 X43.50422 Y31.88928
G01 X43.37686 Y31.92194
G01 X41.99840 Y31.92436
G01 X41.93285 Y31.91592
G01 X41.82677 Y31.87960
G01 X41.74870 Y31.83119
G01 X41.66874 Y31.75136
G01 X41.61090 Y31.65423
G01 X41.57943 Y31.54884
G01 X41.57691 Y30.80063
G01 X41.58233 Y30.73978
G01 X41.61080 Y30.64580
G01 X41.68393 Y30.53099
G01 X41.74870 Y30.46886
G01 X41.82677 Y30.42045
G01 X41.93081 Y30.38456
G01 X42.12533 Y30.34961
G01 X42.20666 Y30.32306
G01 X42.22408 Y30.30411
G01 X42.23422 Y30.27468
G01 X42.22408 Y30.30411
G01 X42.20666 Y30.32306
G01 X42.12533 Y30.34961
G01 X42.20064 Y30.32504
G01 X42.22497 Y30.32504
G01 X42.22497 Y30.30157
G01 X42.25471 Y30.20483
G01 X42.27194 Y30.10066
G01 X42.27442 Y30.03241
G01 X42.25730 Y29.88504
G01 X42.22042 Y29.74918
G01 X42.01082 Y29.66906
G01 X41.94247 Y29.63058
G01 X41.87915 Y29.57968
G01 X41.74872 Y29.43152
G01 X41.64732 Y29.41031
G01 X41.57130 Y29.40528
G01 X41.01550 Y29.40333
G01 X40.90115 Y29.37641
G01 X40.80120 Y29.31456
G01 X40.41652 Y28.93846
G01 X40.35926 Y28.89561
G01 X40.26023 Y28.88271
G01 X40.00692 Y28.88542
G01 X39.93704 Y28.89546
G01 X39.81863 Y28.93102
G01 X39.79000 Y28.93102
G01 X39.78997 Y28.95888
G01 X39.81863 Y28.93102
G01 X39.78997 Y28.95888
G01 X39.77445 Y29.00049
G01 X39.74659 Y29.12914
G01 X39.73016 Y29.30922
G01 X39.70298 Y29.36198
G01 X39.65843 Y29.40653
G01 X39.60222 Y29.43516
G01 X39.53996 Y29.44379
G01 X38.87425 Y29.44346
G01 X38.82772 Y29.43516
G01 X38.73689 Y29.38278
G01 X38.66148 Y29.31986
G01 X38.64809 Y29.30658
G01 X38.63999 Y29.24351
G01 X38.64080 Y27.69840
G01 X38.65284 Y27.63935
G01 X38.67349 Y27.59350
G01 X38.70969 Y27.54532
G01 X38.75637 Y27.50722
G01 X38.80133 Y27.48477
G01 X38.84989 Y27.47176
G01 X38.99000 Y27.46851
G01 X38.96239 Y27.45111
G01 X38.88393 Y27.33422
G01 X38.86597 Y27.26541
G01 X38.86259 Y27.17379
G01 X38.46907 Y27.56734
G01 X38.50374 Y27.62985
G01 X38.51980 Y27.70844
G01 X38.52000 Y29.24351
G01 X38.50862 Y29.31052
G01 X38.57837 Y29.29914
G01 X38.64809 Y29.30658
G01 X38.57837 Y29.29914
G01 X38.50862 Y29.31052
G01 X38.42366 Y29.38156
G01 X38.33138 Y29.43536
G01 X38.28571 Y29.44346
G01 X37.61998 Y29.44379
G01 X37.55770 Y29.43516
G01 X37.42943 Y29.37110
G01 X37.39219 Y29.34651
G01 X37.37725 Y29.30333
G01 X37.36999 Y29.24351
G01 X37.37182 Y27.68837
G01 X37.38624 Y27.62985
G01 X37.41424 Y27.57648
G01 X37.45422 Y27.53137
G01 X37.49658 Y27.50112
G01 X37.49999 Y27.38809
G01 X37.52495 Y27.29696
G01 X37.55134 Y27.23839
G01 X37.60682 Y27.15820
G01 X39.42571 Y25.35035
G01 X39.53084 Y25.29879
G01 X39.65530 Y25.27545
G01 X40.78855 Y25.27504
G01 X41.49416 Y24.56946
G01 X41.43742 Y24.52699
G01 X41.34395 Y24.43760
G01 X41.24290 Y24.30966
G01 X41.17913 Y24.20110
G01 X41.13211 Y24.09333
G01 X41.08766 Y23.94154
G01 X41.06505 Y23.73519
G01 X41.06988 Y22.03215
G01 X41.13056 Y21.90792
G01 X41.23424 Y21.64830
G01 X41.34435 Y21.48511
G01 X41.47465 Y21.35402
G01 X41.55736 Y21.29481
G01 X41.62761 Y21.25001
G01 X41.79571 Y21.17505
G01 X41.97892 Y21.13261
G01 X42.15939 Y21.12704
G01 X42.25537 Y21.13291
G01 X42.38517 Y21.16166
G01 X42.52835 Y21.21434
G01 X42.61928 Y21.25989
G01 X42.75230 Y21.35216
G01 X42.88611 Y21.48468
G01 X42.99205 Y21.64147
G01 X43.11016 Y21.93586
G01 X43.16055 Y22.03708
G01 X43.27950 Y22.09770
G01 X43.37325 Y22.11094
G01 X43.47257 Y22.10146
G01 X43.52159 Y22.08780
G01 X43.57523 Y22.05874
G01 X43.61717 Y22.01922
G01 X43.57523 Y22.05874
G01 X43.52159 Y22.08780
G01 X43.47257 Y22.10146
G01 X43.37325 Y22.11094
G01 X43.27950 Y22.09770
G01 X43.16055 Y22.03708
G01 X43.16287 Y23.79173
G01 X43.16002 Y23.81792
G01 X43.11473 Y23.90415
G01 X43.01199 Y24.16712
G01 X42.94503 Y24.28256
G01 X42.85098 Y24.40245
G01 X42.70907 Y24.52968
G01 X42.50945 Y24.66328
G01 X42.43531 Y24.81477
G01 X42.38486 Y24.88101
G01 X41.21921 Y26.04334
G01 X41.12838 Y26.09541
G01 X41.02736 Y26.12282
G01 X39.97509 Y26.12528
G01 X39.84669 Y26.13961
G01 X39.76579 Y26.20224
G01 X38.96353 Y27.00834
G01 X38.92124 Y27.06485
G01 X38.85970 Y27.17920
G01 X38.86732 Y27.27552
G01 X38.88393 Y27.33422
G01 X38.90831 Y27.37887
G01 X38.97227 Y27.46246
G01 X39.07946 Y27.49899
G01 X39.22155 Y27.51812
G01 X39.55561 Y27.51857
G01 X39.60224 Y27.52690
G01 X39.65840 Y27.55553
G01 X39.70298 Y27.60008
G01 X39.73160 Y27.65627
G01 X39.75441 Y27.88398
G01 X39.79000 Y28.00244
G01 X39.79000 Y28.03196
G01 X39.81901 Y28.03206
G01 X39.79173 Y28.00826
G01 X39.75441 Y27.88398
G01 X39.79648 Y28.01253
G01 X39.81901 Y28.03206
G01 X39.85901 Y28.04705
G01 X39.96846 Y28.07356
G01 X40.06447 Y28.08177
G01 X40.58339 Y28.08294
G01 X40.63762 Y28.09581
G01 X40.69325 Y28.11451
G01 X40.77532 Y28.16259
G01 X41.12579 Y28.50983
G01 X41.22665 Y28.59043
G01 X41.33353 Y28.60419
G01 X41.61725 Y28.60214
G01 X41.75149 Y28.57935
G01 X41.91745 Y28.39419
G01 X42.09248 Y28.26602
G01 X42.12202 Y28.17562
G01 X42.11918 Y28.03734
G01 X42.10648 Y27.98807
G01 X42.08405 Y27.94237
G01 X42.00932 Y27.84026
G01 X41.87849 Y27.75065
G01 X41.79510 Y27.66724
G01 X41.75672 Y27.60503
G01 X41.82947 Y27.70112
G01 X41.94008 Y27.78720
G01 X41.99774 Y27.81512
G01 X42.12378 Y27.85037
G01 X43.18128 Y27.85233
G01 X43.32682 Y27.76975
G01 X43.44267 Y27.67466
G01 X43.54412 Y27.55667
G01 X43.63655 Y27.39719
G01 X44.18499 Y26.84862
G01 X44.18499 Y26.68436
G01 X44.18499 Y26.84862
G01 X43.63655 Y27.39719
G01 X43.57305 Y27.51400
G01 X43.47813 Y27.63811
G01 X43.41105 Y27.70379
G01 X43.32682 Y27.76975
G01 X43.18128 Y27.85233
G01 X42.77859 Y28.25502
G01 X42.17468 Y28.25527
G01 X42.08479 Y28.27194
G01 X42.17468 Y28.25527
G01 X42.77859 Y28.25502
G01 X43.18128 Y27.85233
G01 X43.32682 Y27.76975
G01 X43.44267 Y27.67466
G01 X43.54412 Y27.55667
G01 X43.60521 Y27.45982
G01 X43.63665 Y27.39691
G01 X43.63990 Y26.84852
G01 X43.62769 Y26.74545
G01 X43.59700 Y26.65284
G01 X43.52446 Y26.53536
G01 X43.43198 Y26.44916
G01 X43.31946 Y26.38845
G01 X43.16497 Y26.35502
G01 X43.24003 Y26.36145
G01 X43.35270 Y26.39879
G01 X43.45220 Y26.46015
G01 X43.53485 Y26.54281
G01 X43.59698 Y26.64321
G01 X43.63124 Y26.68426
G01 X43.71366 Y26.75609
G01 X43.78689 Y26.79117
G01 X43.91610 Y26.81222
G01 X43.99672 Y26.80214
G01 X44.13393 Y26.73892
G01 X44.17785 Y26.69940
G01 X44.19192 Y26.66976
G01 X44.23071 Y26.50742
G01 X44.23472 Y26.43938
G01 X44.23472 Y24.82051
G01 X44.21120 Y24.64624
G01 X44.01450 Y24.49587
G01 X43.92238 Y24.40626
G01 X43.85093 Y24.32023
G01 X43.77988 Y24.21325
G01 X43.65908 Y23.91449
G01 X43.60681 Y23.81132
G01 X43.49746 Y23.75490
G01 X43.40765 Y23.73882
G01 X43.26185 Y23.75739
G01 X43.21006 Y23.78119
G01 X43.16002 Y23.81792
G01 X43.21829 Y23.77642
G01 X43.27097 Y23.75460
G01 X43.41786 Y23.73898
G01 X43.50693 Y23.75869
G01 X43.60373 Y23.80931
G01 X43.61420 Y23.82595
G01 X43.60505 Y23.73484
G01 X43.60884 Y22.03629
G01 X43.67722 Y21.89362
G01 X43.73287 Y21.74000
G01 X43.78016 Y21.63609
G01 X43.88483 Y21.48549
G01 X44.00424 Y21.36354
G01 X44.10495 Y21.29004
G01 X44.48280 Y21.08927
G01 X44.70457 Y21.07635
G01 X44.83909 Y21.09131
G01 X44.96799 Y21.12323
G01 X45.08824 Y21.16857
G01 X45.18656 Y21.22031
G01 X45.08824 Y21.16857
G01 X44.95293 Y21.11818
G01 X44.83909 Y21.09131
G01 X44.72931 Y21.07797
G01 X44.48280 Y21.08927
G01 X44.39728 Y21.13720
G01 X44.47521 Y21.08539
G01 X44.51651 Y20.96573
G01 X44.52497 Y20.90124
G01 X44.52433 Y5.55250
G01 X44.49515 Y5.43287
G01 X44.47180 Y5.37841
G01 X44.33063 Y5.29652
G01 X44.16754 Y5.22017
G01 X44.07851 Y5.16223
G01 X44.01542 Y5.11521
G01 X43.88471 Y4.98466
G01 X43.77000 Y4.81245
G01 X43.64308 Y4.49799
G01 X43.60693 Y4.43140
G01 X43.49746 Y4.37491
G01 X43.41786 Y4.35898
G01 X43.26185 Y4.37739
G01 X43.21006 Y4.40119
G01 X43.15652 Y4.44064
G01 X43.11247 Y4.52858
G01 X43.04465 Y4.71118
G01 X42.98814 Y4.83307
G01 X42.88474 Y4.98425
G01 X42.75405 Y5.11466
G01 X42.64595 Y5.19279
G01 X42.51082 Y5.26325
G01 X42.43302 Y5.29395
G01 X42.25090 Y5.33665
G01 X42.13465 Y5.34402
G01 X41.97458 Y5.33711
G01 X41.82269 Y5.30249
G01 X41.64156 Y5.22756
G01 X41.53851 Y5.16223
G01 X41.47542 Y5.11521
G01 X41.34471 Y4.98466
G01 X41.24105 Y4.83409
G01 X41.10308 Y4.49799
G01 X41.06693 Y4.43140
G01 X40.95746 Y4.37491
G01 X40.86765 Y4.35883
G01 X40.72185 Y4.37739
G01 X40.67006 Y4.40119
G01 X40.61652 Y4.44064
G01 X40.57247 Y4.52858
G01 X40.50465 Y4.71118
G01 X40.44814 Y4.83307
G01 X40.34474 Y4.98425
G01 X40.21405 Y5.11466
G01 X40.06193 Y5.21928
G01 X39.93559 Y5.27821
G01 X39.78952 Y5.32167
G01 X39.71090 Y5.33665
G01 X39.59465 Y5.34402
G01 X39.40135 Y5.33068
G01 X39.25645 Y5.29533
G01 X39.10156 Y5.22756
G01 X38.99851 Y5.16223
G01 X38.93542 Y5.11521
G01 X38.80471 Y4.98466
G01 X38.70105 Y4.83409
G01 X38.56308 Y4.49799
G01 X38.52693 Y4.43140
G01 X38.41746 Y4.37491
G01 X38.32765 Y4.35883
G01 X38.18185 Y4.37739
G01 X38.13006 Y4.40119
G01 X38.07652 Y4.44064
G01 X38.03247 Y4.52858
G01 X37.94936 Y4.74745
G01 X37.90814 Y4.83307
G01 X37.85061 Y4.92349
G01 X37.75325 Y5.04072
G01 X37.67405 Y5.11466
G01 X37.52193 Y5.21928
G01 X37.35302 Y5.29395
G01 X37.17090 Y5.33665
G01 X37.05465 Y5.34402
G01 X36.89458 Y5.33711
G01 X36.74269 Y5.30249
G01 X36.56156 Y5.22756
G01 X36.45851 Y5.16223
G01 X36.39542 Y5.11521
G01 X36.26471 Y4.98466
G01 X36.15993 Y4.83239
G01 X36.08841 Y4.67280
G01 X36.03791 Y4.47884
G01 X35.98523 Y4.32817
G01 X35.54497 Y3.88794
G01 X35.54497 Y3.20211
G01 X35.98498 Y2.76211
G01 X36.03903 Y2.61182
G01 X36.08612 Y2.42701
G01 X36.17169 Y2.22688
G01 X36.21218 Y2.09797
G01 X36.29900 Y1.99620
G01 X36.44012 Y1.88096
G01 X36.63339 Y1.77489
G01 X36.84406 Y1.71286
G01 X37.05485 Y1.69579
G01 X37.20085 Y1.70819
G01 X37.37631 Y1.75271
G01 X37.51632 Y1.81184
G01 X37.63743 Y1.88571
G01 X37.78396 Y2.00910
G01 X37.88759 Y2.13216
G01 X37.96156 Y2.25225
G01 X38.03763 Y2.43506
G01 X38.07055 Y2.57140
G01 X38.08462 Y2.71669
G01 X38.08500 Y4.34498
G01 X38.07652 Y4.44064
G01 X38.13006 Y4.40119
G01 X38.18185 Y4.37739
G01 X38.32765 Y4.35883
G01 X38.41746 Y4.37491
G01 X38.51558 Y4.42441
G01 X38.53112 Y4.43914
G01 X38.52523 Y4.36541
G01 X38.52513 Y2.73656
G01 X38.54751 Y2.52876
G01 X38.60781 Y2.33640
G01 X38.70390 Y2.15883
G01 X38.81878 Y2.01779
G01 X39.02124 Y1.85390
G01 X39.18223 Y1.77128
G01 X39.37448 Y1.71438
G01 X39.57707 Y1.69503
G01 X39.75993 Y1.71200
G01 X39.89767 Y1.74583
G01 X40.03831 Y1.80349
G01 X40.19388 Y1.89681
G01 X40.33734 Y2.02378
G01 X40.42759 Y2.13216
G01 X40.51502 Y2.27750
G01 X40.57763 Y2.43506
G01 X40.61055 Y2.57140
G01 X40.62462 Y2.71669
G01 X40.62500 Y4.34498
G01 X40.61652 Y4.44064
G01 X40.67006 Y4.40119
G01 X40.72185 Y4.37739
G01 X40.86765 Y4.35883
G01 X40.95746 Y4.37491
G01 X41.05558 Y4.42441
G01 X41.07112 Y4.43914
G01 X41.06523 Y4.36541
G01 X41.06513 Y2.73656
G01 X41.08751 Y2.52876
G01 X41.14781 Y2.33640
G01 X41.24390 Y2.15883
G01 X41.35878 Y2.01779
G01 X41.55261 Y1.85865
G01 X41.72223 Y1.77128
G01 X41.90496 Y1.71626
G01 X42.10816 Y1.69510
G01 X42.28085 Y1.70819
G01 X42.43767 Y1.74583
G01 X42.57831 Y1.80349
G01 X42.73388 Y1.89681
G01 X42.87734 Y2.02378
G01 X42.96759 Y2.13216
G01 X43.05085 Y2.26892
G01 X43.11763 Y2.43506
G01 X43.15055 Y2.57140
G01 X43.16424 Y2.70877
G01 X43.16500 Y4.34498
G01 X43.15652 Y4.44064
G01 X43.21006 Y4.40119
G01 X43.26185 Y4.37739
G01 X43.40765 Y4.35883
G01 X43.49746 Y4.37491
G01 X43.59558 Y4.42441
G01 X43.61112 Y4.43914
G01 X43.60523 Y4.36541
G01 X43.60498 Y2.74506
G01 X43.62984 Y2.51918
G01 X43.69649 Y2.31870
G01 X43.78390 Y2.15883
G01 X43.89878 Y2.01779
G01 X44.07592 Y1.86917
G01 X44.28026 Y1.76508
G01 X44.45448 Y1.71438
G01 X44.64816 Y1.69510
G01 X44.82085 Y1.70819
G01 X44.96817 Y1.74293
G01 X45.13632 Y1.81184
G01 X45.26576 Y1.89109
G01 X45.39682 Y2.00216
G01 X45.47528 Y2.09264
G01 X45.48585 Y2.03247
G01 X45.50891 Y1.97598
G01 X45.60381 Y1.86104
G01 X45.68437 Y1.81139
G01 X45.81953 Y1.77636
G01 X46.00439 Y1.77694
G01 X46.06751 Y1.78665
G01 X46.12293 Y1.80620
G01 X46.22905 Y1.87290
G01 X46.40881 Y2.05175
G01 X46.53271 Y1.93031
G01 X46.67894 Y1.83163
G01 X46.86715 Y1.74849
G01 X47.08719 Y1.70062
G01 X47.30279 Y1.70062
G01 X47.49506 Y1.73887
G01 X47.68559 Y1.81672
G01 X47.85727 Y1.93031
G01 X47.98226 Y2.05281
G01 X48.17622 Y1.86099
G01 X48.23923 Y1.81878
G01 X48.38178 Y1.77740
G01 X48.56788 Y1.77616
G01 X48.63974 Y1.78662
G01 X48.69471 Y1.80592
G01 X48.78729 Y1.86363
G01 X48.83220 Y1.90404
G01 X48.86611 Y1.95403
G01 X48.91327 Y2.06292
G01 X48.91711 Y2.07875
G01 X48.89892 Y2.14959
G01 X48.91218 Y2.09797
G01 X48.99196 Y2.00313
G01 X49.18124 Y1.85390
G01 X49.34223 Y1.77128
G01 X49.51553 Y1.71852
G01 X49.75485 Y1.69579
G01 X49.90085 Y1.70819
G01 X50.05767 Y1.74583
G01 X50.21632 Y1.81184
G01 X50.33743 Y1.88571
G01 X50.49734 Y2.02378
G01 X50.58759 Y2.13216
G01 X50.67085 Y2.26892
G01 X50.73763 Y2.43506
G01 X50.77055 Y2.57140
G01 X50.78462 Y2.71669
G01 X50.78500 Y4.34498
G01 X50.76719 Y4.53208
G01 X50.70598 Y4.74455
G01 X50.60608 Y4.93122
G01 X50.47801 Y5.08689
G01 X50.32206 Y5.21511
G01 X50.13659 Y5.31514
G01 X49.92592 Y5.37716
G01 X49.72402 Y5.39477
G01 X49.56913 Y5.38184
G01 X49.42181 Y5.34709
G01 X49.25366 Y5.27818
G01 X49.10055 Y5.18085
G01 X48.98602 Y5.08092
G01 X48.89410 Y4.97290
G01 X48.79496 Y4.81252
G01 X48.73235 Y4.65497
G01 X48.69943 Y4.51862
G01 X48.68574 Y4.38126
G01 X48.68498 Y2.76211
G01 X48.73903 Y2.61182
G01 X48.78612 Y2.42701
G01 X48.89892 Y2.14959
G01 X48.78612 Y2.42701
G01 X48.73903 Y2.61182
G01 X48.68498 Y2.76211
G01 X48.24497 Y3.20211
G01 X48.24485 Y4.95324
G01 X48.22851 Y5.06243
G01 X48.16354 Y5.20305
G01 X48.07578 Y5.29489
G01 X48.03669 Y5.32448
G01 X47.92110 Y5.37549
G01 X47.86773 Y5.38887
G01 X47.79499 Y5.39502
G01 X46.58676 Y5.39487
G01 X46.47757 Y5.37854
G01 X46.37927 Y5.33835
G01 X46.32913 Y5.30764
G01 X46.22082 Y5.19500
G01 X46.16146 Y5.06243
G01 X46.14498 Y4.94501
G01 X46.14498 Y3.20214
G01 X45.70472 Y2.76188
G01 X45.65204 Y2.61121
G01 X45.60475 Y2.42436
G01 X45.52672 Y2.24636
G01 X45.47528 Y2.09264
G01 X45.52672 Y2.24636
G01 X45.60475 Y2.42436
G01 X45.65204 Y2.61121
G01 X45.70472 Y2.76188
G01 X45.70500 Y4.34498
G01 X45.67741 Y4.58032
G01 X45.62217 Y4.75362
G01 X45.52054 Y4.93937
G01 X45.39098 Y5.09383
G01 X45.23406 Y5.22085
G01 X45.05659 Y5.31514
G01 X44.86502 Y5.37376
G01 X44.66182 Y5.39492
G01 X44.47180 Y5.37841
( Mill infeed pass 2/5 )
G00 Z0.50000 ( retract )
G00 X3.00691 Y1.96429 ( rapid move to begin. )
G01 Z-0.06000
G04 P0 ( dwell for no time -- G64 should not smooth over this point )
G01 F50.00000
G01 X3.00691 Y1.96429
G01 X3.05235 Y1.87915
G01 X3.14913 Y1.78238
G01 X3.19043 Y1.75596
G01 X3.28034 Y1.71789
G01 X3.35637 Y1.69965
G01 X4.67361 Y1.69965
G01 X4.73122 Y1.71111
G01 X4.83071 Y1.75167
G01 X4.90287 Y1.80194
G01 X4.97137 Y1.87156
G01 X5.00404 Y1.92045
G01 X5.05123 Y2.03635
G01 X5.06444 Y2.12858
G01 X5.06497 Y4.34501
G01 X5.05926 Y4.44821
G01 X5.12017 Y4.40465
G01 X5.17287 Y4.38283
G01 X5.34011 Y4.36871
G01 X5.40889 Y4.38689
G01 X5.50574 Y4.43757
G01 X5.54094 Y4.49820
G01 X5.50820 Y4.43919
G01 X5.41819 Y4.39109
G01 X5.36025 Y4.37188
G01 X5.29939 Y4.36731
G01 X5.20074 Y4.37656
G01 X5.15476 Y4.38875
G01 X5.10389 Y4.41453
G01 X5.05926 Y4.44821
G01 X5.04135 Y4.47900
G01 X4.90920 Y4.80025
G01 X4.80894 Y4.95819
G01 X4.77125 Y5.00411
G01 X4.66688 Y5.10782
G01 X4.51384 Y5.21537
G01 X4.46147 Y5.24336
G01 X4.28705 Y5.31084
G01 X4.09337 Y5.34536
G01 X3.88715 Y5.34003
G01 X3.74290 Y5.31084
G01 X3.56848 Y5.24336
G01 X3.40181 Y5.13899
G01 X3.25218 Y4.99693
G01 X3.13968 Y4.83561
G01 X3.06076 Y4.65535
G01 X3.01855 Y4.46330
G01 X3.01415 Y2.14951
G01 X3.00676 Y1.95838
G01 X2.96109 Y1.90041
G01 X2.86160 Y1.82000
G01 X2.79945 Y1.79465
G01 X2.68548 Y1.77552
G01 X2.14771 Y1.78070
G01 X2.04281 Y1.81139
G01 X1.99213 Y1.83750
G01 X1.94870 Y1.87443
G01 X1.87903 Y1.95711
G01 X1.84611 Y2.02609
G01 X1.82434 Y2.14882
G01 X1.77753 Y27.70034
G01 X1.78754 Y27.77079
G01 X1.81360 Y27.85718
G01 X1.83651 Y27.90262
G01 X1.88299 Y27.95647
G01 X1.98329 Y28.03493
G01 X2.04644 Y28.05797
G01 X2.15154 Y28.07504
G01 X13.85548 Y28.07504
G01 X13.91604 Y28.06759
G01 X14.01985 Y28.03564
G01 X14.09157 Y27.98951
G01 X14.18131 Y27.88337
G01 X14.20953 Y27.81809
G01 X14.22764 Y27.69970
G01 X14.10427 Y27.47857
G01 X14.07644 Y27.37080
G01 X14.07473 Y24.98508
G01 X14.06054 Y24.85764
G01 X14.03290 Y24.75411
G01 X13.68779 Y24.59940
G01 X13.53544 Y24.49519
G01 X13.42058 Y24.38294
G01 X13.30080 Y24.21424
G01 X13.17273 Y23.90024
G01 X13.13133 Y23.81805
G01 X13.12498 Y23.72485
G01 X13.13039 Y22.03177
G01 X13.07817 Y22.06989
G01 X13.03201 Y22.09133
G01 X12.88370 Y22.11122
G01 X12.79056 Y22.09445
G01 X12.69432 Y22.04561
G01 X12.67883 Y22.03095
G01 X12.68474 Y22.10461
G01 X12.68500 Y23.72498
G01 X12.67646 Y23.82066
G01 X12.73003 Y23.78119
G01 X12.78185 Y23.75739
G01 X12.92765 Y23.73882
G01 X13.01746 Y23.75490
G01 X13.13133 Y23.81805
G01 X13.02693 Y23.75869
G01 X12.95818 Y23.74050
G01 X12.81881 Y23.74832
G01 X12.73826 Y23.77642
G01 X12.67646 Y23.82066
G01 X12.65968 Y23.85094
G01 X12.54934 Y24.12750
G01 X12.50811 Y24.21309
G01 X12.45061 Y24.30349
G01 X12.40474 Y24.36425
G01 X12.32521 Y24.44858
G01 X12.19879 Y24.55074
G01 X12.12191 Y24.59927
G01 X11.99559 Y24.65820
G01 X11.81149 Y24.70992
G01 X11.65465 Y24.72401
G01 X11.46135 Y24.71068
G01 X11.31642 Y24.67532
G01 X11.20083 Y24.62622
G01 X11.14769 Y24.59988
G01 X10.99537 Y24.49521
G01 X10.86468 Y24.36465
G01 X10.81409 Y24.29623
G01 X10.74962 Y24.19267
G01 X10.68452 Y24.04357
G01 X10.63791 Y23.85876
G01 X10.58521 Y23.70817
G01 X10.58493 Y22.14213
G01 X10.58521 Y23.70817
G01 X10.14495 Y23.26793
G01 X10.14495 Y22.58211
G01 X10.58493 Y22.14213
G01 X10.63898 Y21.99189
G01 X10.70421 Y21.75851
G01 X10.76100 Y21.63827
G01 X10.81932 Y21.54658
G01 X10.86519 Y21.48582
G01 X10.94477 Y21.40144
G01 X11.07118 Y21.29931
G01 X11.14802 Y21.25077
G01 X11.31693 Y21.17609
G01 X11.45846 Y21.14012
G01 X11.61528 Y21.12603
G01 X11.77535 Y21.13294
G01 X11.92724 Y21.16756
G01 X12.12224 Y21.25018
G01 X12.23743 Y21.32623
G01 X12.33710 Y21.41297
G01 X12.40524 Y21.48536
G01 X12.50888 Y21.63593
G01 X12.64685 Y21.97205
G01 X12.68302 Y22.03865
G01 X12.79950 Y22.09770
G01 X12.84576 Y22.10880
G01 X12.90273 Y22.11028
G01 X13.03201 Y22.09133
G01 X13.07817 Y22.06989
G01 X13.13039 Y22.03177
G01 X13.18050 Y21.93367
G01 X13.25734 Y21.72948
G01 X13.30039 Y21.63619
G01 X13.39107 Y21.50210
G01 X13.53511 Y21.35448
G01 X13.68769 Y21.25018
G01 X13.87761 Y21.16893
G01 X14.03879 Y21.13182
G01 X14.10521 Y21.12704
G01 X14.31835 Y21.13339
G01 X14.49345 Y21.17472
G01 X14.60915 Y21.22387
G01 X14.66229 Y21.25011
G01 X14.81474 Y21.35460
G01 X14.95573 Y21.49783
G01 X15.04964 Y21.63555
G01 X15.17128 Y21.93522
G01 X15.21621 Y22.02460
G01 X15.22492 Y22.11559
G01 X15.21966 Y23.81820
G01 X15.27006 Y23.78119
G01 X15.32185 Y23.75739
G01 X15.46765 Y23.73882
G01 X15.55746 Y23.75490
G01 X15.65558 Y23.80441
G01 X15.67112 Y23.81914
G01 X15.66523 Y23.74540
G01 X15.66498 Y22.12506
G01 X15.67344 Y22.02938
G01 X15.61817 Y22.06989
G01 X15.56231 Y22.09445
G01 X15.41420 Y22.11117
G01 X15.32175 Y22.09085
G01 X15.22614 Y22.04071
G01 X15.21621 Y22.02460
G01 X15.22614 Y22.04071
G01 X15.31309 Y22.08691
G01 X15.40470 Y22.11074
G01 X15.54258 Y22.09953
G01 X15.59099 Y22.08389
G01 X15.63523 Y22.05874
G01 X15.67344 Y22.02938
G01 X15.69025 Y21.99908
G01 X15.78530 Y21.75884
G01 X15.84181 Y21.63697
G01 X15.94522 Y21.48582
G01 X16.07590 Y21.35542
G01 X16.18395 Y21.27731
G01 X16.31908 Y21.20683
G01 X16.39696 Y21.17609
G01 X16.50041 Y21.14838
G01 X16.64521 Y21.12781
G01 X16.85537 Y21.13294
G01 X17.03345 Y21.17472
G01 X17.17803 Y21.23753
G01 X17.29035 Y21.30710
G01 X17.35456 Y21.35483
G01 X17.48524 Y21.48539
G01 X17.59995 Y21.65760
G01 X17.72685 Y21.97205
G01 X17.75883 Y22.03095
G01 X17.76475 Y22.10461
G01 X17.76500 Y23.72498
G01 X17.75652 Y23.82064
G01 X17.81006 Y23.78119
G01 X17.86185 Y23.75739
G01 X18.00765 Y23.73882
G01 X18.09746 Y23.75490
G01 X18.19558 Y23.80441
G01 X18.21112 Y23.81914
G01 X18.20523 Y23.74540
G01 X18.20498 Y22.12506
G01 X18.21344 Y22.02938
G01 X18.15817 Y22.06989
G01 X18.11201 Y22.09133
G01 X17.96373 Y22.11122
G01 X17.87056 Y22.09445
G01 X17.77432 Y22.04561
G01 X17.75883 Y22.03095
G01 X17.86175 Y22.09085
G01 X17.93520 Y22.10995
G01 X18.07257 Y22.10146
G01 X18.15817 Y22.06989
G01 X18.21344 Y22.02938
G01 X18.23025 Y21.99908
G01 X18.34061 Y21.72257
G01 X18.41712 Y21.57919
G01 X18.48522 Y21.48582
G01 X18.61590 Y21.35542
G01 X18.76802 Y21.25077
G01 X18.89433 Y21.19184
G01 X19.07846 Y21.14012
G01 X19.23530 Y21.12603
G01 X19.39537 Y21.13294
G01 X19.57345 Y21.17472
G01 X19.74226 Y21.25018
G01 X19.85743 Y21.32623
G01 X19.95710 Y21.41297
G01 X20.05826 Y21.52880
G01 X20.14031 Y21.65737
G01 X20.20538 Y21.80649
G01 X20.25204 Y21.99120
G01 X20.30472 Y22.14188
G01 X20.74498 Y22.58213
G01 X20.74498 Y23.26791
G01 X20.30497 Y23.70794
G01 X20.30472 Y22.14188
G01 X20.30497 Y23.70794
G01 X20.25092 Y23.85823
G01 X20.18572 Y24.09153
G01 X20.12890 Y24.21180
G01 X20.07061 Y24.30349
G01 X20.02474 Y24.36425
G01 X19.94521 Y24.44858
G01 X19.81879 Y24.55074
G01 X19.74193 Y24.59927
G01 X19.57302 Y24.67395
G01 X19.43149 Y24.70992
G01 X19.27465 Y24.72401
G01 X19.11458 Y24.71711
G01 X18.96269 Y24.68249
G01 X18.79192 Y24.61253
G01 X18.67963 Y24.54296
G01 X18.61542 Y24.49521
G01 X18.48471 Y24.36465
G01 X18.37000 Y24.19244
G01 X18.24308 Y23.87799
G01 X18.20693 Y23.81139
G01 X18.11623 Y23.76285
G01 X18.05832 Y23.74368
G01 X18.00765 Y23.73882
G01 X17.90823 Y23.74695
G01 X17.82670 Y23.77195
G01 X17.75652 Y23.82064
G01 X17.71247 Y23.90857
G01 X17.62934 Y24.12750
G01 X17.55283 Y24.27088
G01 X17.48474 Y24.36425
G01 X17.43325 Y24.42071
G01 X17.35405 Y24.49465
G01 X17.27879 Y24.55074
G01 X17.20193 Y24.59927
G01 X17.11082 Y24.64324
G01 X17.03302 Y24.67395
G01 X16.92952 Y24.70166
G01 X16.78474 Y24.72224
G01 X16.57458 Y24.71711
G01 X16.39645 Y24.67532
G01 X16.25192 Y24.61253
G01 X16.11250 Y24.52381
G01 X16.01283 Y24.43707
G01 X15.94471 Y24.36465
G01 X15.84105 Y24.21408
G01 X15.70308 Y23.87799
G01 X15.66693 Y23.81139
G01 X15.56693 Y23.75869
G01 X15.49818 Y23.74050
G01 X15.35881 Y23.74832
G01 X15.28670 Y23.77195
G01 X15.21966 Y23.81820
G01 X15.15279 Y23.95645
G01 X15.12276 Y24.04512
G01 X15.04992 Y24.21406
G01 X14.89073 Y24.44045
G01 X14.88304 Y24.48066
G01 X14.87570 Y24.55744
G01 X14.87524 Y26.60044
G01 X14.88941 Y26.72797
G01 X14.92670 Y26.85220
G01 X14.95286 Y26.87506
G01 X14.92497 Y26.84646
G01 X14.92497 Y26.87506
G01 X14.95286 Y26.87506
G01 X15.10371 Y26.91682
G01 X15.19950 Y26.92480
G01 X23.86242 Y26.92515
G01 X23.98998 Y26.91095
G01 X24.11360 Y26.87387
G01 X24.18680 Y26.78520
G01 X24.21924 Y26.70631
G01 X24.23512 Y26.57910
G01 X24.22727 Y26.52063
G01 X24.18670 Y26.40003
G01 X24.25813 Y26.52284
G01 X24.35541 Y26.61596
G01 X24.43997 Y26.66625
G01 X24.51421 Y26.69305
G01 X24.65048 Y26.71250
G01 X25.97634 Y26.70661
G01 X26.09343 Y26.67288
G01 X26.16600 Y26.63585
G01 X26.22312 Y26.59320
G01 X26.30422 Y26.50664
G01 X26.36559 Y26.40003
G01 X26.31698 Y26.55627
G01 X26.31499 Y26.64248
G01 X26.35993 Y26.78434
G01 X26.39386 Y26.83506
G01 X26.43770 Y26.87598
G01 X24.10715 Y26.87580
G01 X26.43770 Y26.87598
G01 X26.48830 Y26.89432
G01 X26.65591 Y26.93132
G01 X26.73554 Y26.95358
G01 X26.84009 Y27.01870
G01 X27.93330 Y28.10981
G01 X28.03419 Y28.19045
G01 X28.16259 Y28.20475
G01 X28.93239 Y28.20475
G01 X29.06073 Y28.19045
G01 X29.14161 Y28.12784
G01 X29.85436 Y27.41710
G01 X29.93543 Y27.31578
G01 X29.94973 Y27.18814
G01 X29.95558 Y26.42678
G01 X29.98532 Y26.32063
G01 X30.04341 Y26.22345
G01 X30.09215 Y26.17258
G01 X30.12421 Y26.14451
G01 X30.22068 Y26.08563
G01 X30.34183 Y26.05177
G01 X31.08517 Y26.05391
G01 X31.20447 Y26.08523
G01 X31.30086 Y26.14357
G01 X31.35857 Y26.19894
G01 X31.50505 Y26.37202
G01 X31.52311 Y26.46912
G01 X31.52486 Y27.75789
G01 X31.49939 Y27.90790
G01 X31.44186 Y28.02566
G01 X31.54694 Y28.03945
G01 X31.60150 Y28.05604
G01 X31.65842 Y28.09038
G01 X31.72497 Y28.15228
G01 X31.72497 Y26.52500
G01 X31.74762 Y26.38675
G01 X31.69449 Y26.39996
G01 X31.64424 Y26.40199
G01 X31.53637 Y26.38393
G01 X31.50505 Y26.37202
G01 X31.53637 Y26.38393
G01 X31.64424 Y26.40199
G01 X31.69449 Y26.39996
G01 X31.74762 Y26.38675
G01 X32.59847 Y25.53565
G01 X32.63065 Y25.50664
G01 X32.72123 Y25.45388
G01 X32.82255 Y25.42693
G01 X34.10169 Y25.42582
G01 X34.22941 Y25.41152
G01 X34.35224 Y25.37456
G01 X34.41531 Y25.30092
G01 X34.44383 Y25.25155
G01 X34.45851 Y25.20631
G01 X34.47312 Y25.10829
G01 X34.47312 Y25.05739
G01 X34.46278 Y25.00753
G01 X34.40307 Y24.88017
G01 X34.35590 Y24.82767
G01 X34.25851 Y24.76300
G01 X34.02638 Y24.67245
G01 X33.96415 Y24.63915
G01 X33.85354 Y24.56529
G01 X33.70253 Y24.42457
G01 X33.70881 Y24.41830
G01 X33.83271 Y24.53971
G01 X34.00439 Y24.65330
G01 X34.19491 Y24.73115
G01 X34.39694 Y24.77037
G01 X34.60279 Y24.76940
G01 X34.80444 Y24.72831
G01 X34.99428 Y24.64865
G01 X35.17218 Y24.52699
G01 X35.30969 Y24.38731
G01 X35.41866 Y24.22427
G01 X35.49829 Y24.03445
G01 X35.53631 Y23.85221
G01 X35.54469 Y22.58241
G01 X35.98551 Y22.14157
G01 X36.03900 Y21.99181
G01 X36.08650 Y21.80713
G01 X36.16108 Y21.63827
G01 X36.26483 Y21.48549
G01 X36.39471 Y21.35399
G01 X36.54738 Y21.24962
G01 X36.74380 Y21.16751
